;FLAVOR:Marlin
;TIME:9491
;Filament used: 11.2066m
;Layer height: 0.32
;MINX:59.722
;MINY:113.701
;MINZ:0.32
;MAXX:193.083
;MAXY:190.134
;MAXZ:50.44
;Generated with Cura_SteamEngine 4.3.0
M140 S60
M105
M190 S60
M104 S205
M105
M109 S205
M82 ;absolute extrusion mode
M201 X500.00 Y500.00 Z100.00 E5000.00 ;Setup machine max acceleration
M203 X500.00 Y500.00 Z10.00 E50.00 ;Setup machine max feedrate
M204 P500.00 R1000.00 T500.00 ;Setup Print/Retract/Travel acceleration
M205 X8.00 Y8.00 Z0.40 E5.00 ;Setup Jerk
M220 S100 ;Reset Feedrate
M221 S100 ;Reset Flowrate

G28 ;Home

G92 E0 ;Reset Extruder
G1 Z2.0 F3000 ;Move Z Axis up
G1 X10.1 Y20 Z0.28 F5000.0 ;Move to start position
G1 X10.1 Y200.0 Z0.28 F1500.0 E15 ;Draw the first line
G1 X10.4 Y200.0 Z0.28 F5000.0 ;Move to side a little
G1 X10.4 Y20 Z0.28 F1500.0 E30 ;Draw the second line
G92 E0 ;Reset Extruder
G1 Z2.0 F3000 ;Move Z Axis up

G92 E0
G92 E0
G1 F1500 E-6.5
;LAYER_COUNT:158
;LAYER:0
M107
G1 F300 Z0.52
G0 F6000 X76.43 Y123.404 Z0.52
;TYPE:SKIRT
G1 F300 Z0.32
G1 F1500 E0
G1 F1200 X76.759 Y123.203 E0.02052
G1 X77.447 Y122.8 E0.06295
G1 X77.763 Y122.623 E0.08222
G1 X78.53 Y122.207 E0.12866
G1 X78.855 Y122.037 E0.14818
G1 X79.459 Y121.735 E0.18411
G1 X79.743 Y121.598 E0.20089
G1 X80.479 Y121.256 E0.24408
G1 X80.754 Y121.133 E0.26011
G1 X81.428 Y120.842 E0.29918
G1 X81.696 Y120.73 E0.31464
G1 X82.537 Y120.393 E0.36285
G1 X82.858 Y120.271 E0.38113
G1 X83.639 Y119.986 E0.42537
G1 X83.898 Y119.895 E0.43998
G1 X84.64 Y119.645 E0.48165
G1 X84.927 Y119.552 E0.4977
G1 X85.801 Y119.284 E0.54635
G1 X86.075 Y119.204 E0.56154
G1 X86.804 Y119.001 E0.60181
G1 X87.112 Y118.92 E0.61876
G1 X88.033 Y118.692 E0.66925
G1 X88.325 Y118.624 E0.6852
G1 X89.07 Y118.461 E0.72579
G1 X89.429 Y118.389 E0.74527
G1 X90.352 Y118.219 E0.79522
G1 X90.691 Y118.162 E0.81351
G1 X91.408 Y118.053 E0.85211
G1 X91.75 Y118.006 E0.87048
G1 X92.583 Y117.906 E0.91512
G1 X93.003 Y117.864 E0.93759
G1 X94.098 Y117.775 E0.99605
G1 X94.478 Y117.751 E1.01631
G1 X95.101 Y117.722 E1.0495
G1 X95.538 Y117.71 E1.07277
G1 X96.132 Y117.706 E1.10438
G1 X96.434 Y117.708 E1.12045
G1 X96.675 Y117.713 E1.13328
G1 X96.971 Y117.723 E1.14904
G1 X97.558 Y117.751 E1.18031
G1 X97.926 Y117.775 E1.19994
G1 X98.971 Y117.86 E1.25573
G1 X99.358 Y117.899 E1.27643
G1 X100.127 Y117.989 E1.31763
G1 X100.511 Y118.04 E1.33825
G1 X101.446 Y118.183 E1.38858
G1 X101.637 Y118.214 E1.39888
G1 X104.424 Y118.69 E1.54934
G1 X106.912 Y119.042 E1.68306
G1 X109.434 Y119.327 E1.81813
G1 X111.91 Y119.535 E1.95036
G1 X114.429 Y119.675 E2.08461
G1 X116.952 Y119.744 E2.21893
G1 X119.477 Y119.742 E2.3533
G1 X121.962 Y119.669 E2.4856
G1 X124.492 Y119.523 E2.62046
G1 X127.036 Y119.305 E2.75634
G1 X129.485 Y119.024 E2.88752
G1 X131.987 Y118.666 E3.02202
G1 X134.501 Y118.232 E3.15779
G1 X136.907 Y117.747 E3.2884
G1 X138.012 Y117.495 E3.34872
G1 X138.18 Y117.458 E3.35787
G1 X139.945 Y117.084 E3.45388
G1 X142.437 Y116.521 E3.58984
G1 X144.895 Y115.89 E3.72489
G1 X147.328 Y115.192 E3.85958
G1 X149.532 Y114.495 E3.9826
G1 X150.19 Y114.278 E4.01947
G1 X151.092 Y114.022 E4.06937
G1 X152.013 Y113.845 E4.11927
G1 X153.193 Y113.733 E4.18235
G1 X153.416 Y113.724 E4.19423
G1 X153.74 Y113.716 E4.21148
G1 X154.015 Y113.713 E4.22611
G1 X154.111 Y113.712 E4.23122
G1 X159.187 Y113.701 E4.50135
G1 X159.352 Y113.702 E4.51013
G1 X160.054 Y113.711 E4.54749
G1 X160.99 Y113.763 E4.59738
G1 X161.919 Y113.894 E4.6473
G1 X162.833 Y114.105 E4.69722
G1 X163.408 Y114.28 E4.72921
G1 X163.711 Y114.381 E4.7462
G1 X166.175 Y115.168 E4.88385
G1 X168.588 Y115.864 E5.0175
G1 X171.063 Y116.503 E5.15353
G1 X173.486 Y117.057 E5.2858
G1 X173.682 Y117.095 E5.29642
G1 X173.913 Y117.142 E5.30897
G1 X174.92 Y117.359 E5.36379
G1 X175.828 Y117.595 E5.41371
G1 X176.712 Y117.908 E5.46362
G1 X177.566 Y118.295 E5.51351
G1 X178.384 Y118.754 E5.56343
G1 X179.16 Y119.28 E5.61332
G1 X180.062 Y120.027 E5.67564
G1 X180.217 Y120.17 E5.68687
G1 X180.435 Y120.376 E5.70283
G1 X180.63 Y120.566 E5.71732
G1 X180.726 Y120.662 E5.72454
G1 X183.025 Y122.958 E5.89745
G1 X183.129 Y123.063 E5.90531
G1 X183.593 Y123.539 E5.94069
G1 X184.008 Y123.989 E5.97326
G1 X184.282 Y124.303 E5.99544
G1 X186.021 Y126.247 E6.13424
G1 X188.666 Y129.005 E6.3376
G1 X189.375 Y129.713 E6.39092
G1 X189.493 Y129.832 E6.39984
G1 X189.965 Y130.318 E6.43589
G1 X190.589 Y131.018 E6.4858
G1 X191.151 Y131.769 E6.53571
G1 X191.648 Y132.565 E6.58565
G1 X192.074 Y133.4 E6.63554
G1 X192.428 Y134.269 E6.68547
G1 X192.707 Y135.164 E6.73536
G1 X192.908 Y136.08 E6.78527
G1 X193.031 Y137.01 E6.83519
G1 X193.072 Y137.789 E6.8767
G1 X193.081 Y138.303 E6.90406
G1 X193.083 Y138.496 E6.91433
G1 X193.083 Y159.849 E8.05066
G1 X193.082 Y160.007 E8.05906
G1 X193.072 Y160.705 E8.09621
G1 X193.018 Y161.641 E8.14611
G1 X192.886 Y162.569 E8.19599
G1 X192.674 Y163.483 E8.24592
G1 X192.385 Y164.375 E8.29582
G1 X192.022 Y165.24 E8.34574
G1 X191.586 Y166.07 E8.39563
G1 X191.199 Y166.688 E8.43444
G1 X190.876 Y167.168 E8.46522
G1 X190.734 Y167.375 E8.47858
G1 X188.352 Y170.746 E8.69824
G1 X188.256 Y170.879 E8.70697
G1 X187.852 Y171.433 E8.74346
G1 X187.267 Y172.167 E8.79341
G1 X186.75 Y172.723 E8.83381
G1 X184.737 Y174.74 E8.98546
G1 X183.03 Y176.547 E9.11774
G1 X181.176 Y178.629 E9.2661
G1 X180.957 Y178.883 E9.28395
G1 X180.316 Y179.568 E9.33387
G1 X179.619 Y180.195 E9.38376
G1 X178.871 Y180.76 E9.43365
G1 X178.077 Y181.26 E9.48358
G1 X177.244 Y181.691 E9.53349
G1 X176.377 Y182.048 E9.58339
G1 X175.483 Y182.331 E9.63329
G1 X174.972 Y182.456 E9.66129
G1 X173.836 Y182.705 E9.72318
G1 X171.23 Y183.293 E9.86534
G1 X168.816 Y183.908 E9.99791
G1 X166.348 Y184.612 E10.13449
G1 X163.992 Y185.355 E10.26595
G1 X163.391 Y185.554 E10.29964
G1 X162.488 Y185.81 E10.34959
G1 X161.568 Y185.989 E10.39947
G1 X160.625 Y186.089 E10.44993
G1 X160.385 Y186.104 E10.46273
G1 X159.82 Y186.124 E10.49281
G1 X159.548 Y186.127 E10.50729
G1 X159.449 Y186.128 E10.51256
G1 X154.36 Y186.138 E10.78338
G1 X154.204 Y186.137 E10.79168
G1 X153.548 Y186.129 E10.82659
G1 X152.611 Y186.078 E10.87653
G1 X151.724 Y185.954 E10.92419
G1 X150.552 Y185.742 E10.98757
G1 X150.374 Y185.709 E10.99721
G1 X149.829 Y185.601 E11.02677
G1 X147.409 Y185.195 E11.15735
G1 X144.873 Y184.843 E11.29361
G1 X142.358 Y184.566 E11.42825
G1 X139.897 Y184.364 E11.55966
G1 X137.357 Y184.229 E11.69502
G1 X134.824 Y184.166 E11.82986
G1 X132.308 Y184.174 E11.96375
G1 X129.811 Y184.253 E12.0967
G1 X127.298 Y184.403 E12.23067
G1 X124.804 Y184.624 E12.36391
G1 X122.28 Y184.919 E12.49914
G1 X119.804 Y185.28 E12.6323
G1 X117.316 Y185.714 E12.7667
G1 X114.851 Y186.218 E12.90059
G1 X112.41 Y186.787 E13.03397
G1 X109.973 Y187.431 E13.16811
G1 X107.631 Y188.116 E13.29797
G1 X106.189 Y188.559 E13.37824
G1 X105.891 Y188.647 E13.39478
G1 X105.19 Y188.841 E13.43349
G1 X104.891 Y188.919 E13.44993
G1 X103.987 Y189.142 E13.49948
G1 X103.7 Y189.209 E13.51516
G1 X102.876 Y189.389 E13.56005
G1 X102.537 Y189.457 E13.57845
G1 X101.751 Y189.603 E13.62099
G1 X101.414 Y189.66 E13.63918
G1 X100.51 Y189.799 E13.68785
G1 X100.134 Y189.85 E13.70805
G1 X99.443 Y189.932 E13.74508
G1 X99.034 Y189.973 E13.76695
G1 X97.897 Y190.065 E13.82766
G1 X97.531 Y190.089 E13.84717
G1 X96.94 Y190.117 E13.87866
G1 X96.638 Y190.127 E13.89474
G1 X96.387 Y190.132 E13.9081
G1 X96.168 Y190.134 E13.91976
G1 X95.871 Y190.134 E13.93556
G1 X95.636 Y190.131 E13.94807
G1 X95.355 Y190.125 E13.96302
G1 X95.064 Y190.115 E13.97852
G1 X94.375 Y190.082 E14.01523
G1 X94.018 Y190.06 E14.03426
G1 X93.049 Y189.982 E14.08599
G1 X92.645 Y189.941 E14.1076
G1 X91.932 Y189.857 E14.14581
G1 X91.553 Y189.806 E14.16616
G1 X90.496 Y189.644 E14.22307
G1 X90.158 Y189.587 E14.24131
G1 X89.532 Y189.471 E14.27519
G1 X89.21 Y189.406 E14.29267
G1 X88.304 Y189.21 E14.342
G1 X87.986 Y189.137 E14.35936
G1 X87.15 Y188.93 E14.40519
G1 X86.852 Y188.851 E14.4216
G1 X86.117 Y188.647 E14.46219
G1 X85.832 Y188.564 E14.47799
G1 X84.848 Y188.262 E14.53277
G1 X84.547 Y188.165 E14.54959
G1 X83.974 Y187.971 E14.58179
G1 X83.716 Y187.88 E14.59635
G1 X82.715 Y187.513 E14.65308
G1 X82.436 Y187.406 E14.66899
G1 X81.82 Y187.161 E14.70426
G1 X81.543 Y187.047 E14.7202
G1 X80.819 Y186.736 E14.76214
G1 X80.51 Y186.597 E14.78017
G1 X79.702 Y186.22 E14.82762
G1 X79.44 Y186.094 E14.84309
G1 X78.859 Y185.804 E14.87764
G1 X78.531 Y185.633 E14.89733
G1 X77.743 Y185.206 E14.94502
G1 X77.429 Y185.029 E14.96421
G1 X76.824 Y184.675 E15.00151
G1 X76.51 Y184.485 E15.02104
G1 X75.822 Y184.051 E15.06433
G1 X75.49 Y183.833 E15.08546
G1 X74.901 Y183.431 E15.12341
G1 X74.601 Y183.219 E15.14296
G1 X73.898 Y182.704 E15.18934
G1 X73.596 Y182.474 E15.20954
G1 X73.136 Y182.112 E15.24069
G1 X72.827 Y181.859 E15.26194
G1 X72.112 Y181.253 E15.31182
G1 X71.826 Y181.003 E15.33203
G1 X71.355 Y180.575 E15.3659
G1 X71.069 Y180.306 E15.3868
G1 X70.483 Y179.734 E15.43037
G1 X70.211 Y179.458 E15.451
G1 X69.726 Y178.95 E15.48837
G1 X69.466 Y178.668 E15.50878
G1 X68.915 Y178.049 E15.55289
G1 X68.658 Y177.75 E15.57387
G1 X68.206 Y177.204 E15.61159
G1 X67.973 Y176.912 E15.63147
G1 X67.478 Y176.271 E15.67457
G1 X67.254 Y175.971 E15.69449
G1 X66.834 Y175.387 E15.73277
G1 X66.628 Y175.09 E15.75201
G1 X66.166 Y174.401 E15.79615
G1 X65.958 Y174.079 E15.81655
G1 X65.558 Y173.435 E15.8569
G1 X65.374 Y173.129 E15.8759
G1 X64.992 Y172.467 E15.91657
G1 X64.824 Y172.164 E15.93501
G1 X64.412 Y171.395 E15.98143
G1 X64.251 Y171.083 E16.00012
G1 X63.928 Y170.431 E16.03884
G1 X63.789 Y170.14 E16.056
G1 X63.433 Y169.365 E16.10139
G1 X63.295 Y169.052 E16.11959
G1 X62.972 Y168.287 E16.16378
G1 X62.86 Y168.009 E16.17973
G1 X62.564 Y167.251 E16.22303
G1 X62.449 Y166.944 E16.24048
G1 X62.141 Y166.08 E16.28929
G1 X62.043 Y165.794 E16.30538
G1 X61.81 Y165.079 E16.3454
G1 X61.727 Y164.812 E16.36028
G1 X61.441 Y163.852 E16.41359
G1 X61.359 Y163.562 E16.42963
G1 X61.143 Y162.757 E16.47398
G1 X61.079 Y162.507 E16.48771
G1 X60.877 Y161.677 E16.53317
G1 X60.819 Y161.425 E16.54693
G1 X60.596 Y160.405 E16.6025
G1 X60.537 Y160.115 E16.61824
G1 X60.387 Y159.328 E16.66088
G1 X60.344 Y159.093 E16.67359
G1 X60.155 Y157.969 E16.73425
G1 X60.116 Y157.721 E16.74761
G1 X59.985 Y156.816 E16.79627
G1 X59.96 Y156.625 E16.80652
G1 X59.863 Y155.861 E16.8475
G1 X59.83 Y155.579 E16.86261
G1 X59.776 Y155.043 E16.89128
G1 X59.722 Y154.106 E16.94123
G1 X59.776 Y152.841 E17.00861
G1 X59.847 Y152.134 E17.04642
G1 X59.878 Y151.859 E17.06115
G1 X59.969 Y151.136 E17.09993
G1 X60.002 Y150.896 E17.11282
G1 X60.145 Y149.932 E17.16468
G1 X60.178 Y149.724 E17.17589
G1 X60.331 Y148.813 E17.22505
G1 X60.377 Y148.559 E17.23878
G1 X60.535 Y147.737 E17.28333
G1 X60.582 Y147.503 E17.29603
G1 X60.797 Y146.502 E17.35051
G1 X60.862 Y146.218 E17.36602
G1 X61.078 Y145.328 E17.41476
G1 X61.143 Y145.076 E17.42861
G1 X61.357 Y144.277 E17.47262
G1 X61.436 Y143.996 E17.48816
G1 X61.696 Y143.119 E17.53684
G1 X61.785 Y142.831 E17.55288
G1 X62.058 Y141.995 E17.59968
G1 X62.156 Y141.709 E17.61577
G1 X62.439 Y140.917 E17.66052
G1 X62.544 Y140.635 E17.67654
G1 X62.84 Y139.873 E17.72004
G1 X62.964 Y139.569 E17.73751
G1 X63.292 Y138.794 E17.7823
G1 X63.421 Y138.5 E17.79938
G1 X63.781 Y137.714 E17.84539
G1 X63.923 Y137.416 E17.86295
G1 X64.259 Y136.737 E17.90327
G1 X64.423 Y136.42 E17.92226
G1 X64.788 Y135.739 E17.96338
G1 X64.957 Y135.434 E17.98194
G1 X65.378 Y134.705 E18.02674
G1 X65.556 Y134.409 E18.04512
G1 X65.956 Y133.764 E18.08551
G1 X66.162 Y133.444 E18.10576
G1 X66.613 Y132.77 E18.14892
G1 X66.821 Y132.469 E18.16839
G1 X67.247 Y131.876 E18.20724
G1 X67.475 Y131.571 E18.22751
G1 X67.953 Y130.952 E18.26913
G1 X68.195 Y130.649 E18.28976
G1 X68.713 Y130.025 E18.33292
G1 X68.956 Y129.742 E18.35277
G1 X69.437 Y129.201 E18.39129
G1 X69.691 Y128.925 E18.41125
G1 X70.147 Y128.446 E18.44645
G1 X70.425 Y128.164 E18.46752
G1 X71.089 Y127.515 E18.51693
G1 X71.385 Y127.237 E18.53854
G1 X71.862 Y126.804 E18.57283
G1 X72.138 Y126.562 E18.59236
G1 X72.719 Y126.069 E18.63291
G1 X73.03 Y125.814 E18.65431
G1 X73.675 Y125.306 E18.698
G1 X73.981 Y125.074 E18.71844
G1 X74.553 Y124.655 E18.75617
G1 X74.865 Y124.435 E18.77649
G1 X75.541 Y123.975 E18.82
G1 X75.84 Y123.778 E18.83906
G1 X76.43 Y123.404 E18.87623
G0 F6000 X76.644 Y123.742
G1 F1200 X76.961 Y123.549 E18.89598
G1 X77.649 Y123.146 E18.93841
G1 X77.953 Y122.974 E18.957
G1 X78.72 Y122.558 E19.00343
G1 X79.034 Y122.395 E19.02226
G1 X79.638 Y122.093 E19.0582
G1 X79.911 Y121.961 E19.07433
G1 X80.647 Y121.619 E19.11752
G1 X80.912 Y121.5 E19.13298
G1 X81.586 Y121.209 E19.17205
G1 X81.845 Y121.102 E19.18696
G1 X82.686 Y120.765 E19.23518
G1 X82.995 Y120.646 E19.2528
G1 X83.776 Y120.361 E19.29704
G1 X84.026 Y120.274 E19.31113
G1 X84.768 Y120.024 E19.3528
G1 X85.044 Y119.935 E19.36823
G1 X85.918 Y119.667 E19.41688
G1 X86.182 Y119.59 E19.43151
G1 X86.911 Y119.387 E19.47178
G1 X87.208 Y119.309 E19.48812
G1 X88.129 Y119.081 E19.53861
G1 X88.41 Y119.015 E19.55397
G1 X89.155 Y118.852 E19.59456
G1 X89.501 Y118.782 E19.61334
G1 X90.424 Y118.612 E19.66329
G1 X90.751 Y118.557 E19.68094
G1 X91.468 Y118.448 E19.71953
G1 X91.798 Y118.404 E19.73725
G1 X92.631 Y118.304 E19.78189
G1 X93.035 Y118.263 E19.8035
G1 X94.13 Y118.174 E19.86197
G1 X94.496 Y118.15 E19.88149
G1 X95.119 Y118.121 E19.91468
G1 X95.541 Y118.11 E19.93714
G1 X96.135 Y118.106 E19.96875
G1 X96.426 Y118.108 E19.98424
G1 X96.667 Y118.113 E19.99707
G1 X96.952 Y118.123 E20.01224
G1 X97.539 Y118.151 E20.04352
G1 X97.893 Y118.174 E20.06239
G1 X98.938 Y118.259 E20.11819
G1 X99.311 Y118.296 E20.13814
G1 X100.08 Y118.386 E20.17934
G1 X100.451 Y118.436 E20.19926
G1 X101.386 Y118.579 E20.2496
G1 X101.569 Y118.609 E20.25946
G1 X104.332 Y119.081 E20.40863
G1 X106.883 Y119.442 E20.54574
G1 X109.357 Y119.721 E20.67823
G1 X111.889 Y119.934 E20.81345
G1 X114.429 Y120.075 E20.94883
G1 X116.942 Y120.144 E21.08261
G1 X119.489 Y120.142 E21.21815
G1 X121.997 Y120.068 E21.35167
G1 X124.516 Y119.923 E21.48595
G1 X127.041 Y119.706 E21.62081
G1 X129.551 Y119.419 E21.75526
G1 X132.045 Y119.061 E21.88934
G1 X134.576 Y118.624 E22.02602
G1 X136.997 Y118.137 E22.15744
G1 X138.101 Y117.885 E22.2177
G1 X138.263 Y117.85 E22.22652
G1 X139.969 Y117.489 E22.31932
G1 X142.56 Y116.903 E22.46068
G1 X144.991 Y116.279 E22.59425
G1 X147.409 Y115.585 E22.72812
G1 X149.699 Y114.861 E22.85593
G1 X150.315 Y114.658 E22.89044
G1 X151.201 Y114.408 E22.93944
G1 X152.106 Y114.235 E22.98847
G1 X153.21 Y114.133 E23.04747
G1 X153.433 Y114.124 E23.05935
G1 X153.744 Y114.116 E23.0759
G1 X154.019 Y114.113 E23.09054
G1 X154.112 Y114.112 E23.09549
G1 X159.188 Y114.101 E23.36561
G1 X159.347 Y114.102 E23.37407
G1 X160.049 Y114.111 E23.41143
G1 X160.968 Y114.163 E23.46042
G1 X161.879 Y114.294 E23.5094
G1 X162.776 Y114.504 E23.55842
G1 X163.281 Y114.659 E23.58653
G1 X163.589 Y114.762 E23.60382
G1 X166.058 Y115.55 E23.74174
G1 X168.516 Y116.259 E23.87788
G1 X170.945 Y116.887 E24.01139
G1 X173.382 Y117.444 E24.14442
G1 X173.606 Y117.487 E24.15656
G1 X173.829 Y117.533 E24.16868
G1 X174.836 Y117.75 E24.2235
G1 X175.727 Y117.983 E24.27251
G1 X176.594 Y118.292 E24.32149
G1 X177.431 Y118.675 E24.37047
G1 X178.232 Y119.13 E24.41949
G1 X178.99 Y119.652 E24.46847
G1 X179.791 Y120.321 E24.52401
G1 X179.946 Y120.464 E24.53523
G1 X180.155 Y120.663 E24.55059
G1 X180.35 Y120.853 E24.56508
G1 X180.443 Y120.945 E24.57204
G1 X182.742 Y123.241 E24.74495
G1 X182.842 Y123.342 E24.75251
G1 X183.306 Y123.818 E24.78789
G1 X183.706 Y124.251 E24.81926
G1 X183.998 Y124.586 E24.8429
G1 X185.731 Y126.523 E24.98122
G1 X188.354 Y129.258 E25.18288
G1 X189.093 Y129.996 E25.23846
G1 X189.206 Y130.111 E25.24704
G1 X189.678 Y130.597 E25.28309
G1 X190.29 Y131.285 E25.33209
G1 X190.84 Y132.023 E25.38108
G1 X191.324 Y132.806 E25.43006
G1 X191.739 Y133.628 E25.47906
G1 X192.08 Y134.483 E25.52805
G1 X192.346 Y135.365 E25.57707
G1 X192.534 Y136.266 E25.62605
G1 X192.644 Y137.18 E25.67505
G1 X192.672 Y137.796 E25.70786
G1 X192.681 Y138.31 E25.73522
G1 X192.683 Y138.496 E25.74512
G1 X192.683 Y159.849 E26.88144
G1 X192.682 Y160.001 E26.88953
G1 X192.672 Y160.699 E26.92668
G1 X192.619 Y161.618 E26.97567
G1 X192.486 Y162.529 E27.02466
G1 X192.275 Y163.425 E27.07365
