;FLAVOR:Marlin
;TIME:4925
;Filament used: 5.06533m
;Layer height: 0.32
;MINX:77.268
;MINY:121.265
;MINZ:0.32
;MAXX:220.979
;MAXY:215.177
;MAXZ:19.72
;Generated with Cura_SteamEngine 4.3.0
M140 S60
M105
M190 S60
M104 S205
M105
M109 S205
M82 ;absolute extrusion mode
M201 X500.00 Y500.00 Z100.00 E5000.00 ;Setup machine max acceleration
M203 X500.00 Y500.00 Z10.00 E50.00 ;Setup machine max feedrate
M204 P500.00 R1000.00 T500.00 ;Setup Print/Retract/Travel acceleration
M205 X8.00 Y8.00 Z0.40 E5.00 ;Setup Jerk
M220 S100 ;Reset Feedrate
M221 S100 ;Reset Flowrate

G28 ;Home

G92 E0 ;Reset Extruder
G1 Z2.0 F3000 ;Move Z Axis up
G1 X10.1 Y20 Z0.28 F5000.0 ;Move to start position
G1 X10.1 Y200.0 Z0.28 F1500.0 E15 ;Draw the first line
G1 X10.4 Y200.0 Z0.28 F5000.0 ;Move to side a little
G1 X10.4 Y20 Z0.28 F1500.0 E30 ;Draw the second line
G92 E0 ;Reset Extruder
G1 Z2.0 F3000 ;Move Z Axis up

G92 E0
G92 E0
G1 F1500 E-6.5
;LAYER_COUNT:62
;LAYER:0
M107
G1 F300 Z0.52
G0 F6000 X89.621 Y126.391 Z0.52
;TYPE:SKIRT
G1 F300 Z0.32
G1 F1500 E0
G1 F1200 X89.886 Y126.21 E0.01708
G1 X90.139 Y126.042 E0.03324
G1 X90.75 Y125.649 E0.0719
G1 X91.133 Y125.414 E0.09581
G1 X91.656 Y125.107 E0.12809
G1 X91.978 Y124.925 E0.14777
G1 X92.741 Y124.511 E0.19396
G1 X93.092 Y124.328 E0.21503
G1 X93.412 Y124.169 E0.23405
G1 X93.726 Y124.019 E0.25256
G1 X94.239 Y123.784 E0.28259
G1 X94.602 Y123.626 E0.30366
G1 X95.445 Y123.276 E0.35223
G1 X95.831 Y123.124 E0.37431
G1 X96.17 Y122.998 E0.39356
G1 X96.482 Y122.888 E0.41116
G1 X97.003 Y122.712 E0.44043
G1 X97.388 Y122.589 E0.46194
G1 X98.296 Y122.319 E0.51235
G1 X98.66 Y122.218 E0.53245
G1 X98.952 Y122.142 E0.54851
G1 X99.287 Y122.06 E0.56686
G1 X99.886 Y121.924 E0.59955
G1 X100.307 Y121.837 E0.62243
G1 X101.144 Y121.681 E0.66773
G1 X101.531 Y121.616 E0.68862
G1 X101.992 Y121.547 E0.71342
G1 X102.359 Y121.499 E0.73312
G1 X103.087 Y121.415 E0.77212
G1 X103.463 Y121.378 E0.79222
G1 X103.872 Y121.345 E0.81406
G1 X104.258 Y121.32 E0.83465
G1 X105.139 Y121.28 E0.88158
G1 X105.513 Y121.27 E0.90149
G1 X105.952 Y121.265 E0.92485
G1 X106.319 Y121.267 E0.94438
G1 X106.818 Y121.278 E0.97094
G1 X107.215 Y121.294 E0.99209
G1 X108.211 Y121.352 E1.04518
G1 X108.904 Y121.414 E1.08221
G1 X109.978 Y121.545 E1.13978
G1 X110.42 Y121.608 E1.16354
G1 X111.344 Y121.759 E1.21337
G1 X111.555 Y121.796 E1.22477
G1 X113.182 Y122.094 E1.31279
G1 X115.73 Y122.487 E1.44999
G1 X118.179 Y122.794 E1.58133
G1 X120.713 Y123.039 E1.71681
G1 X123.211 Y123.21 E1.85006
G1 X125.73 Y123.311 E1.98422
G1 X128.249 Y123.34 E2.11828
G1 X130.741 Y123.298 E2.25091
G1 X133.297 Y123.183 E2.38707
G1 X135.757 Y123.003 E2.51833
G1 X138.3 Y122.744 E2.65436
G1 X140.761 Y122.422 E2.78644
G1 X144.471 Y121.808 E2.98656
G1 X145.157 Y121.68 E3.0237
G1 X145.526 Y121.617 E3.04362
G1 X145.976 Y121.549 E3.06784
G1 X146.359 Y121.499 E3.08839
G1 X147.087 Y121.415 E3.12739
G1 X147.463 Y121.378 E3.1475
G1 X147.872 Y121.345 E3.16933
G1 X148.258 Y121.32 E3.18992
G1 X149.139 Y121.28 E3.23685
G1 X149.513 Y121.27 E3.25676
G1 X149.952 Y121.265 E3.28012
G1 X150.319 Y121.267 E3.29965
G1 X150.819 Y121.278 E3.32627
G1 X151.218 Y121.294 E3.34752
G1 X152.212 Y121.352 E3.4005
G1 X152.903 Y121.414 E3.43742
G1 X153.977 Y121.545 E3.495
G1 X154.425 Y121.609 E3.51908
G1 X154.925 Y121.691 E3.54605
G1 X155.274 Y121.754 E3.56492
G1 X155.852 Y121.868 E3.59627
G1 X156.234 Y121.95 E3.61706
G1 X156.878 Y122.101 E3.65227
G1 X157.267 Y122.2 E3.67363
G1 X157.772 Y122.338 E3.70149
G1 X158.138 Y122.445 E3.72178
G1 X158.987 Y122.709 E3.76909
G1 X159.345 Y122.827 E3.78915
G1 X159.686 Y122.946 E3.80837
G1 X160.039 Y123.076 E3.82839
G1 X160.578 Y123.285 E3.85916
G1 X160.942 Y123.434 E3.88009
G1 X161.836 Y123.818 E3.93186
G1 X162.429 Y124.093 E3.96665
G1 X163.254 Y124.507 E4.01577
G1 X163.674 Y124.73 E4.04108
G1 X164.313 Y125.086 E4.08
G1 X164.664 Y125.29 E4.10161
G1 X165.213 Y125.623 E4.13578
G1 X165.495 Y125.8 E4.1535
G1 X165.774 Y125.981 E4.17119
G1 X166.11 Y126.208 E4.19277
G1 X166.762 Y126.666 E4.23517
G1 X167.093 Y126.908 E4.25699
G1 X167.817 Y127.458 E4.30538
G1 X168.111 Y127.689 E4.32528
G1 X168.752 Y128.211 E4.36927
G1 X170.798 Y129.828 E4.50805
G1 X172.799 Y131.321 E4.64091
G1 X174.866 Y132.771 E4.77527
G1 X176.983 Y134.172 E4.91037
G1 X179.086 Y135.479 E5.04213
G1 X181.299 Y136.768 E5.17842
G1 X183.474 Y137.953 E5.31023
G1 X185.72 Y139.098 E5.44439
G1 X188.004 Y140.18 E5.57889
G1 X190.315 Y141.197 E5.71325
G1 X192.697 Y142.167 E5.85012
G1 X194.968 Y143.013 E5.97909
G1 X198.231 Y144.113 E6.16233
G1 X199.613 Y144.55 E6.23947
G1 X199.968 Y144.669 E6.25939
G1 X200.739 Y144.942 E6.30292
G1 X201.086 Y145.072 E6.32264
G1 X201.542 Y145.251 E6.3487
G1 X201.898 Y145.398 E6.3692
G1 X202.68 Y145.737 E6.41456
G1 X202.991 Y145.877 E6.43271
G1 X203.454 Y146.095 E6.45994
G1 X203.796 Y146.264 E6.48024
G1 X204.512 Y146.632 E6.52308
G1 X204.838 Y146.806 E6.54275
G1 X205.31 Y147.069 E6.5715
G1 X205.641 Y147.261 E6.59187
G1 X206.34 Y147.683 E6.63532
G1 X206.64 Y147.871 E6.65416
G1 X207.155 Y148.205 E6.68682
G1 X207.468 Y148.416 E6.70691
G1 X207.909 Y148.724 E6.73554
G1 X208.191 Y148.927 E6.75403
G1 X208.885 Y149.445 E6.80011
G1 X209.199 Y149.688 E6.82124
G1 X209.674 Y150.07 E6.85368
G1 X209.959 Y150.308 E6.87344
G1 X210.421 Y150.706 E6.90589
G1 X210.678 Y150.934 E6.92417
G1 X211.246 Y151.455 E6.96519
G1 X211.532 Y151.727 E6.98619
G1 X211.951 Y152.14 E7.0175
G1 X212.195 Y152.388 E7.03602
G1 X212.675 Y152.892 E7.07306
G1 X212.943 Y153.184 E7.09415
G1 X213.432 Y153.736 E7.13339
G1 X213.659 Y154.001 E7.15196
G1 X213.983 Y154.391 E7.17894
G1 X214.208 Y154.67 E7.19802
G1 X214.696 Y155.298 E7.24034
G1 X214.938 Y155.623 E7.2619
G1 X215.359 Y156.208 E7.30026
G1 X215.548 Y156.478 E7.3178
G1 X215.839 Y156.909 E7.34547
G1 X216.055 Y157.241 E7.36655
G1 X216.488 Y157.935 E7.41008
G1 X216.672 Y158.242 E7.42913
G1 X216.945 Y158.713 E7.4581
G1 X217.128 Y159.042 E7.47813
G1 X217.482 Y159.704 E7.51808
G1 X217.65 Y160.03 E7.5376
G1 X217.917 Y160.572 E7.56975
G1 X218.071 Y160.899 E7.58899
G1 X218.389 Y161.602 E7.63005
G1 X218.538 Y161.947 E7.65005
G1 X218.76 Y162.486 E7.68107
G1 X218.897 Y162.834 E7.70097
G1 X219.156 Y163.529 E7.74044
G1 X219.275 Y163.867 E7.75951
G1 X219.449 Y164.385 E7.78859
G1 X219.565 Y164.75 E7.80897
G1 X219.81 Y165.573 E7.85467
G1 X219.913 Y165.942 E7.87505
G1 X220.048 Y166.461 E7.90359
G1 X220.13 Y166.798 E7.92205
G1 X220.281 Y167.464 E7.95839
G1 X220.359 Y167.842 E7.97893
G1 X220.501 Y168.589 E8.0194
G1 X220.562 Y168.936 E8.03814
G1 X220.652 Y169.509 E8.06901
G1 X220.703 Y169.876 E8.08873
G1 X220.783 Y170.528 E8.12369
G1 X220.822 Y170.897 E8.14343
G1 X220.89 Y171.664 E8.18441
G1 X220.917 Y172.042 E8.20458
G1 X220.951 Y172.672 E8.23815
G1 X220.965 Y173.04 E8.25775
G1 X220.978 Y173.676 E8.2916
G1 X220.979 Y174.031 E8.31049
G1 X220.971 Y174.707 E8.34647
G1 X220.961 Y175.078 E8.36622
G1 X220.932 Y175.714 E8.4001
G1 X220.908 Y176.091 E8.4202
G1 X220.842 Y176.915 E8.4642
G1 X220.807 Y177.275 E8.48344
G1 X220.76 Y177.69 E8.50567
G1 X220.711 Y178.067 E8.5259
G1 X220.573 Y178.997 E8.57593
G1 X220.517 Y179.335 E8.59417
G1 X220.434 Y179.795 E8.61904
G1 X220.358 Y180.179 E8.63987
G1 X220.208 Y180.869 E8.67745
G1 X220.121 Y181.236 E8.69752
G1 X219.927 Y182.001 E8.73952
G1 X219.831 Y182.356 E8.75909
G1 X219.657 Y182.957 E8.79239
G1 X219.543 Y183.325 E8.81289
G1 X219.342 Y183.938 E8.84722
G1 X219.233 Y184.256 E8.86511
G1 X219.023 Y184.836 E8.89793
G1 X218.886 Y185.194 E8.91833
G1 X218.601 Y185.903 E8.959
G1 X218.455 Y186.249 E8.97898
G1 X218.191 Y186.846 E9.01372
G1 X218.042 Y187.169 E9.03265
G1 X217.782 Y187.709 E9.06454
G1 X217.614 Y188.043 E9.08444
G1 X217.266 Y188.707 E9.12433
G1 X217.086 Y189.038 E9.14438
G1 X216.779 Y189.578 E9.17744
G1 X216.589 Y189.899 E9.19729
G1 X216.245 Y190.459 E9.23227
G1 X216.053 Y190.76 E9.25127
G1 X215.626 Y191.407 E9.29252
G1 X215.403 Y191.733 E9.31354
G1 X215.068 Y192.203 E9.34425
G1 X214.869 Y192.472 E9.36206
G1 X214.439 Y193.038 E9.39989
G1 X214.198 Y193.345 E9.42066
G1 X213.827 Y193.799 E9.45186
G1 X213.586 Y194.083 E9.47168
G1 X213.045 Y194.701 E9.51539
G1 X212.806 Y194.965 E9.53434
G1 X212.409 Y195.39 E9.56529
G1 X212.149 Y195.659 E9.5852
G1 X211.697 Y196.111 E9.61921
G1 X211.446 Y196.355 E9.63784
G1 X210.895 Y196.872 E9.67805
G1 X210.587 Y197.15 E9.70013
G1 X210.157 Y197.524 E9.73046
G1 X209.897 Y197.743 E9.74855
G1 X209.28 Y198.247 E9.79095
G1 X208.972 Y198.49 E9.81182
G1 X208.478 Y198.865 E9.84483
G1 X208.195 Y199.072 E9.86349
G1 X207.695 Y199.427 E9.89612
G1 X207.404 Y199.627 E9.91491
G1 X206.796 Y200.03 E9.95373
G1 X206.454 Y200.248 E9.97531
G1 X205.868 Y200.606 E10.01185
G1 X205.547 Y200.794 E10.03165
G1 X204.951 Y201.131 E10.06809
G1 X204.671 Y201.284 E10.08507
G1 X204.22 Y201.522 E10.1122
G1 X203.858 Y201.705 E10.13379
G1 X203.019 Y202.109 E10.18335
G1 X202.712 Y202.251 E10.20135
G1 X202.327 Y202.422 E10.22376
G1 X201.972 Y202.572 E10.24427
G1 X201.195 Y202.885 E10.28885
G1 X200.809 Y203.032 E10.31083
G1 X200.217 Y203.245 E10.34431
G1 X199.889 Y203.358 E10.36277
G1 X199.279 Y203.556 E10.3969
G1 X198.946 Y203.658 E10.41544
G1 X198.294 Y203.847 E10.45156
G1 X197.926 Y203.947 E10.47186
G1 X197.269 Y204.113 E10.50792
G1 X196.908 Y204.198 E10.52765
G1 X196.231 Y204.345 E10.56452
G1 X195.872 Y204.416 E10.584
G1 X195.242 Y204.531 E10.61808
G1 X194.874 Y204.592 E10.63793
G1 X194.224 Y204.688 E10.67289
G1 X193.856 Y204.736 E10.69264
G1 X192.277 Y204.915 E10.77721
G1 X192.075 Y204.936 E10.78802
G1 X191.181 Y205.021 E10.83581
G1 X188.687 Y205.329 E10.96954
G1 X186.176 Y205.712 E11.10471
G1 X183.71 Y206.158 E11.23807
G1 X181.264 Y206.674 E11.3711
G1 X178.794 Y207.268 E11.50629
G1 X176.382 Y207.92 E11.63926
G1 X173.977 Y208.645 E11.77293
G1 X171.564 Y209.447 E11.90825
G1 X169.203 Y210.307 E12.04197
G1 X166.877 Y211.229 E12.17512
G1 X164.551 Y212.228 E12.30983
G1 X161.77 Y213.526 E12.47315
G1 X160.666 Y214.063 E12.53848
G1 X159.806 Y214.437 E12.58839
G1 X158.917 Y214.737 E12.63832
G1 X158.006 Y214.96 E12.68823
G1 X157.079 Y215.104 E12.73816
G1 X156.045 Y215.171 E12.7933
G1 X155.704 Y215.177 E12.81145
G1 X155.285 Y215.177 E12.83374
G1 X154.845 Y215.168 E12.85716
G1 X154.589 Y215.159 E12.8708
G1 X153.835 Y215.126 E12.91096
G1 X153.575 Y215.112 E12.92481
G1 X153.042 Y215.076 E12.95324
G1 X152.821 Y215.059 E12.96504
G1 X152.126 Y214.998 E13.00217
G1 X151.861 Y214.971 E13.01634
G1 X151.193 Y214.896 E13.05211
G1 X150.981 Y214.87 E13.06348
G1 X150.443 Y214.799 E13.09236
G1 X150.202 Y214.765 E13.10531
G1 X149.622 Y214.675 E13.13655
G1 X147.073 Y214.32 E13.2735
G1 X144.604 Y214.045 E13.40571
G1 X142.057 Y213.834 E13.54171
G1 X139.538 Y213.698 E13.67596
G1 X137.051 Y213.633 E13.80835
G1 X134.526 Y213.64 E13.94272
G1 X131.995 Y213.717 E14.07748
G1 X129.49 Y213.865 E14.21102
G1 X126.996 Y214.083 E14.34424
G1 X124.445 Y214.379 E14.48091
G1 X122.272 Y214.69 E14.59773
G1 X121.905 Y214.747 E14.61749
G1 X121.693 Y214.778 E14.62889
G1 X121.111 Y214.857 E14.66015
G1 X120.878 Y214.886 E14.67264
G1 X120.247 Y214.958 E14.70644
G1 X119.984 Y214.985 E14.72051
G1 X119.138 Y215.061 E14.76571
G1 X118.88 Y215.081 E14.77948
G1 X118.502 Y215.106 E14.79964
G1 X118.279 Y215.118 E14.81153
G1 X117.558 Y215.151 E14.84994
G1 X117.313 Y215.16 E14.86298
G1 X116.802 Y215.172 E14.89018
G1 X116.573 Y215.175 E14.90237
G1 X116.188 Y215.176 E14.92286
G1 X115.25 Y215.138 E14.97282
G1 X114.32 Y215.021 E15.0227
G1 X113.403 Y214.825 E15.0726
G1 X112.506 Y214.552 E15.1225
G1 X111.635 Y214.203 E15.17243
G1 X110.797 Y213.781 E15.22236
G1 X109.999 Y213.289 E15.27225
G1 X109.245 Y212.731 E15.32217
G1 X108.541 Y212.111 E15.37209
G1 X107.893 Y211.434 E15.42196
G1 X107.305 Y210.703 E15.47189
G1 X106.781 Y209.925 E15.5218
G1 X106.325 Y209.105 E15.57173
G1 X105.941 Y208.25 E15.62161
G1 X105.55 Y207.084 E15.68706
G1 X105.348 Y206.347 E15.72772
G1 X104.652 Y203.947 E15.86071
G1 X103.876 Y201.522 E15.9962
G1 X103.043 Y199.163 E16.12934
G1 X102.153 Y196.846 E16.26142
G1 X101.163 Y194.471 E16.39835
G1 X100.136 Y192.19 E16.53147
G1 X99.024 Y189.899 E16.66699
G1 X97.877 Y187.696 E16.79917
G1 X96.655 Y185.503 E16.93277
G1 X95.354 Y183.316 E17.06819
G1 X94.032 Y181.229 E17.19965
G1 X92.606 Y179.114 E17.3354
G1 X91.148 Y177.076 E17.46875
G1 X89.619 Y175.065 E17.60319
G1 X88.038 Y173.101 E17.73736
G1 X86.432 Y171.218 E17.86906
G1 X85.618 Y170.318 E17.93364
G1 X85.554 Y170.247 E17.93873
G1 X84.472 Y169.03 E18.02539
G1 X84.263 Y168.788 E18.04241
G1 X83.786 Y168.219 E18.08192
G1 X83.532 Y167.904 E18.10345
G1 X83.022 Y167.248 E18.14767
G1 X82.808 Y166.963 E18.16664
G1 X82.675 Y166.78 E18.17868
G1 X82.464 Y166.48 E18.19819
G1 X82.028 Y165.836 E18.23958
G1 X81.808 Y165.498 E18.26104
G1 X81.415 Y164.869 E18.30051
G1 X81.221 Y164.546 E18.32056
G1 X81.014 Y164.188 E18.34257
G1 X80.836 Y163.868 E18.36206
G1 X80.527 Y163.29 E18.39693
G1 X80.343 Y162.93 E18.41845
G1 X80.032 Y162.293 E18.45617
G1 X79.855 Y161.912 E18.47853
G1 X79.578 Y161.285 E18.51501
G1 X79.454 Y160.993 E18.53189
G1 X79.284 Y160.576 E18.55585
G1 X79.139 Y160.202 E18.5772
G1 X78.951 Y159.688 E18.60632
G1 X78.822 Y159.313 E18.62743
G1 X78.52 Y158.385 E18.67936
G1 X78.402 Y157.998 E18.70089
G1 X78.317 Y157.7 E18.71738
G1 X78.228 Y157.37 E18.73557
G1 X78.093 Y156.834 E18.76499
G1 X78.008 Y156.47 E18.78488
G1 X77.801 Y155.512 E18.83704
G1 X77.674 Y154.815 E18.87474
G1 X77.528 Y153.838 E18.92731
G1 X77.469 Y153.374 E18.9522
G1 X77.397 Y152.696 E18.98848
G1 X77.363 Y152.318 E19.00868
G1 X77.317 Y151.674 E19.04304
G1 X77.297 Y151.304 E19.06276
G1 X77.278 Y150.8 E19.0896
G1 X77.27 Y150.428 E19.1094
G1 X77.268 Y149.905 E19.13723
G1 X77.274 Y149.487 E19.15948
G1 X77.309 Y148.463 E19.214
G1 X77.352 Y147.798 E19.24947
G1 X77.438 Y146.893 E19.29784
G1 X77.492 Y146.432 E19.32254
G1 X77.61 Y145.576 E19.36853
G1 X77.722 Y144.913 E19.40431
G1 X77.931 Y143.872 E19.46081
G1 X78.033 Y143.415 E19.48573
G1 X78.182 Y142.808 E19.51899
G1 X78.276 Y142.452 E19.53859
G1 X78.411 Y141.972 E19.56512
G1 X78.512 Y141.634 E19.5839
G1 X78.678 Y141.109 E19.6132
G1 X78.809 Y140.719 E19.63509
G1 X79.077 Y139.97 E19.67742
G1 X79.221 Y139.591 E19.699
G1 X79.471 Y138.966 E19.73482
G1 X79.612 Y138.63 E19.75421
G1 X79.763 Y138.286 E19.77421
G1 X79.919 Y137.946 E19.79411
G1 X80.258 Y137.24 E19.83579
G1 X80.438 Y136.882 E19.85711
G1 X80.764 Y136.262 E19.89439
G1 X80.951 Y135.92 E19.91513
G1 X81.11 Y135.642 E19.93218
G1 X81.278 Y135.36 E19.94965
G1 X81.679 Y134.705 E19.99052
G1 X81.907 Y134.346 E20.01315
G1 X82.323 Y133.722 E20.05306
G1 X82.521 Y133.436 E20.07157
G1 X82.75 Y133.115 E20.09255
G1 X82.976 Y132.809 E20.1128
G1 X83.384 Y132.277 E20.14847
G1 X83.632 Y131.965 E20.16968
G1 X84.05 Y131.459 E20.20461
G1 X84.314 Y131.152 E20.22616
G1 X84.791 Y130.616 E20.26434
G1 X85.053 Y130.332 E20.2849
G1 X85.456 Y129.91 E20.31596
G1 X85.723 Y129.64 E20.33616
G1 X86.031 Y129.339 E20.35908
G1 X86.289 Y129.095 E20.37798
G1 X86.92 Y128.517 E20.42352
G1 X87.228 Y128.245 E20.44538
G1 X87.567 Y127.957 E20.46906
G1 X87.837 Y127.735 E20.48766
G1 X88.318 Y127.352 E20.52038
G1 X88.642 Y127.104 E20.54209
G1 X89.297 Y126.621 E20.5854
G1 X89.621 Y126.391 E20.60655
G0 F6000 X89.846 Y126.721
G1 F1200 X90.111 Y126.54 E20.62362
G1 X90.356 Y126.378 E20.63925
G1 X90.967 Y125.985 E20.67791
G1 X91.335 Y125.759 E20.7009
G1 X91.858 Y125.452 E20.73317
G1 X92.169 Y125.276 E20.75219
G1 X92.932 Y124.862 E20.79838
G1 X93.27 Y124.686 E20.81866
G1 X93.59 Y124.527 E20.83768
G1 X93.892 Y124.383 E20.85548
G1 X94.405 Y124.148 E20.88551
G1 X94.755 Y123.995 E20.90584
G1 X95.598 Y123.645 E20.95441
G1 X95.97 Y123.499 E20.97568
G1 X96.309 Y123.373 E20.99492
G1 X96.61 Y123.267 E21.01191
G1 X97.131 Y123.091 E21.04117
G1 X97.502 Y122.973 E21.06189
G1 X98.41 Y122.703 E21.1123
G1 X98.761 Y122.605 E21.13169
G1 X99.053 Y122.529 E21.14775
G1 X99.376 Y122.45 E21.16545
G1 X99.975 Y122.314 E21.19813
G1 X100.38 Y122.23 E21.22014
G1 X101.217 Y122.074 E21.26545
G1 X101.59 Y122.012 E21.28558
G1 X102.051 Y121.943 E21.31038
G1 X102.405 Y121.896 E21.32939
G1 X103.133 Y121.812 E21.36838
G1 X103.496 Y121.776 E21.3878
G1 X103.905 Y121.743 E21.40963
G1 X104.276 Y121.72 E21.42941
