;FLAVOR:Marlin
;TIME:8810
;Filament used: 11.4926m
;Layer height: 0.32
;MINX:70.63
;MINY:108.628
;MINZ:0.32
;MAXX:191.372
;MAXY:249.375
;MAXZ:35.84
;Generated with Cura_SteamEngine 4.3.0
M140 S60
M105
M190 S60
M104 S205
M105
M109 S205
M82 ;absolute extrusion mode
M201 X500.00 Y500.00 Z100.00 E5000.00 ;Setup machine max acceleration
M203 X500.00 Y500.00 Z10.00 E50.00 ;Setup machine max feedrate
M204 P500.00 R1000.00 T500.00 ;Setup Print/Retract/Travel acceleration
M205 X8.00 Y8.00 Z0.40 E5.00 ;Setup Jerk
M220 S100 ;Reset Feedrate
M221 S100 ;Reset Flowrate

G28 ;Home

G92 E0 ;Reset Extruder
G1 Z2.0 F3000 ;Move Z Axis up
G1 X10.1 Y20 Z0.28 F5000.0 ;Move to start position
G1 X10.1 Y200.0 Z0.28 F1500.0 E15 ;Draw the first line
G1 X10.4 Y200.0 Z0.28 F5000.0 ;Move to side a little
G1 X10.4 Y20 Z0.28 F1500.0 E30 ;Draw the second line
G92 E0 ;Reset Extruder
G1 Z2.0 F3000 ;Move Z Axis up

G92 E0
G92 E0
G1 F1500 E-6.5
;LAYER_COUNT:112
;LAYER:0
M107
G1 F300 Z0.52
G0 F6000 X120.684 Y120.807 Z0.52
;TYPE:SKIRT
G1 F300 Z0.32
G1 F1500 E0
G1 F1200 X121.142 Y120.354 E0.03428
G1 X121.317 Y120.185 E0.04723
G1 X121.837 Y119.693 E0.08532
G1 X122.028 Y119.516 E0.09918
G1 X122.519 Y119.073 E0.13437
G1 X122.738 Y118.88 E0.14991
G1 X123.415 Y118.301 E0.19731
G1 X123.625 Y118.127 E0.21183
G1 X124.262 Y117.609 E0.25552
G1 X124.474 Y117.44 E0.26995
G1 X124.95 Y117.072 E0.30197
G1 X125.164 Y116.911 E0.31622
G1 X125.828 Y116.423 E0.36007
G1 X126.039 Y116.272 E0.37388
G1 X126.501 Y115.949 E0.40388
G1 X126.716 Y115.802 E0.41774
G1 X127.485 Y115.291 E0.46687
G1 X127.728 Y115.134 E0.48227
G1 X128.361 Y114.737 E0.52203
G1 X128.61 Y114.586 E0.53753
G1 X129.314 Y114.17 E0.58104
G1 X129.525 Y114.048 E0.59401
G1 X129.965 Y113.801 E0.62086
G1 X130.18 Y113.683 E0.63392
G1 X130.905 Y113.297 E0.67763
G1 X131.178 Y113.157 E0.69395
G1 X131.892 Y112.802 E0.73639
G1 X132.132 Y112.686 E0.75057
G1 X132.881 Y112.336 E0.79457
G1 X133.127 Y112.225 E0.80893
G1 X133.737 Y111.958 E0.84436
G1 X133.952 Y111.867 E0.85679
G1 X134.616 Y111.593 E0.89501
G1 X134.888 Y111.485 E0.91059
G1 X135.506 Y111.249 E0.94579
G1 X135.775 Y111.15 E0.96105
G1 X136.618 Y110.853 E1.00861
G1 X136.873 Y110.767 E1.02293
G1 X137.593 Y110.533 E1.06322
G1 X137.852 Y110.452 E1.07766
G1 X138.577 Y110.236 E1.11792
G1 X138.818 Y110.167 E1.13126
G1 X139.462 Y109.991 E1.16679
G1 X139.733 Y109.921 E1.18168
G1 X140.314 Y109.778 E1.21352
G1 X140.564 Y109.719 E1.22719
G1 X141.521 Y109.507 E1.27936
G1 X141.809 Y109.448 E1.295
G1 X142.532 Y109.308 E1.33419
G1 X142.797 Y109.26 E1.34852
G1 X143.48 Y109.145 E1.38538
G1 X143.719 Y109.107 E1.39826
G1 X144.439 Y109.002 E1.43698
G1 X144.706 Y108.966 E1.45132
G1 X145.252 Y108.9 E1.48059
G1 X145.527 Y108.871 E1.4953
G1 X146.564 Y108.772 E1.55074
G1 X146.877 Y108.746 E1.56745
G1 X147.612 Y108.697 E1.60665
G1 X147.863 Y108.683 E1.62003
G1 X148.572 Y108.652 E1.6578
G1 X148.818 Y108.645 E1.67089
G1 X149.473 Y108.631 E1.70576
G1 X149.726 Y108.628 E1.71922
G1 X150.342 Y108.629 E1.752
G1 X150.626 Y108.633 E1.76712
G1 X151.609 Y108.66 E1.81945
G1 X151.912 Y108.673 E1.83559
G1 X152.711 Y108.717 E1.87817
G1 X152.955 Y108.733 E1.89119
G1 X153.549 Y108.779 E1.92289
G1 X153.812 Y108.802 E1.93694
G1 X154.57 Y108.879 E1.97749
G1 X154.832 Y108.909 E1.99152
G1 X155.412 Y108.982 E2.02263
G1 X155.709 Y109.024 E2.03859
G1 X156.698 Y109.176 E2.09184
G1 X156.952 Y109.218 E2.10554
G1 X157.689 Y109.349 E2.14537
G1 X157.96 Y109.4 E2.16005
G1 X158.608 Y109.532 E2.19524
G1 X158.866 Y109.588 E2.20929
G1 X159.504 Y109.734 E2.24412
G1 X159.751 Y109.794 E2.25765
G1 X160.517 Y109.988 E2.2997
G1 X160.793 Y110.061 E2.31489
G1 X161.597 Y110.287 E2.35933
G1 X161.86 Y110.365 E2.37393
G1 X162.59 Y110.59 E2.41458
G1 X162.844 Y110.672 E2.42879
G1 X163.441 Y110.872 E2.46229
G1 X163.691 Y110.959 E2.47638
G1 X164.47 Y111.241 E2.52047
G1 X164.711 Y111.331 E2.53416
G1 X165.223 Y111.53 E2.56339
G1 X165.476 Y111.632 E2.57791
G1 X166.391 Y112.014 E2.63067
G1 X166.677 Y112.138 E2.64726
G1 X167.291 Y112.415 E2.68311
G1 X167.518 Y112.521 E2.69644
G1 X168.276 Y112.884 E2.74117
G1 X168.483 Y112.986 E2.75345
G1 X168.986 Y113.24 E2.78343
G1 X169.24 Y113.372 E2.79867
G1 X169.844 Y113.697 E2.83517
G1 X170.097 Y113.837 E2.85055
G1 X170.953 Y114.327 E2.90304
G1 X171.187 Y114.465 E2.9175
G1 X171.717 Y114.786 E2.95047
G1 X171.946 Y114.929 E2.96484
G1 X172.665 Y115.389 E3.01026
G1 X172.873 Y115.525 E3.02349
G1 X173.364 Y115.855 E3.05497
G1 X173.596 Y116.016 E3.07
G1 X174.203 Y116.447 E3.10962
G1 X174.411 Y116.598 E3.12329
G1 X175.068 Y117.088 E3.16691
G1 X175.301 Y117.267 E3.18255
G1 X175.943 Y117.773 E3.22605
G1 X176.148 Y117.938 E3.24005
G1 X176.705 Y118.399 E3.27853
G1 X176.901 Y118.565 E3.2922
G1 X177.355 Y118.959 E3.32419
G1 X177.554 Y119.137 E3.3384
G1 X178.084 Y119.62 E3.37655
G1 X178.285 Y119.808 E3.3912
G1 X178.955 Y120.45 E3.44058
G1 X179.164 Y120.655 E3.45616
G1 X179.638 Y121.134 E3.49202
G1 X179.803 Y121.304 E3.50463
G1 X180.238 Y121.763 E3.53828
G1 X180.426 Y121.967 E3.55305
G1 X181.045 Y122.654 E3.60226
G1 X181.237 Y122.873 E3.61776
G1 X181.723 Y123.442 E3.65758
G1 X181.888 Y123.639 E3.67125
G1 X182.235 Y124.065 E3.70049
G1 X182.404 Y124.278 E3.71496
G1 X182.97 Y125.009 E3.76416
G1 X183.136 Y125.229 E3.77883
G1 X183.585 Y125.84 E3.81918
G1 X183.73 Y126.042 E3.83241
G1 X184.06 Y126.513 E3.86301
G1 X184.222 Y126.75 E3.87829
G1 X184.74 Y127.532 E3.92821
G1 X184.882 Y127.753 E3.94219
G1 X185.19 Y128.243 E3.97299
G1 X185.334 Y128.479 E3.9877
G1 X185.754 Y129.186 E4.03146
G1 X185.888 Y129.418 E4.04572
G1 X186.285 Y130.125 E4.08887
G1 X186.415 Y130.362 E4.10325
G1 X186.745 Y130.985 E4.14077
G1 X186.867 Y131.222 E4.15496
G1 X187.125 Y131.739 E4.18571
G1 X187.237 Y131.971 E4.19941
G1 X187.647 Y132.843 E4.25069
G1 X187.774 Y133.123 E4.26705
G1 X188.066 Y133.792 E4.3059
G1 X188.158 Y134.011 E4.31854
G1 X188.368 Y134.522 E4.34794
G1 X188.469 Y134.777 E4.36254
G1 X188.798 Y135.638 E4.41159
G1 X188.893 Y135.896 E4.42622
G1 X189.142 Y136.6 E4.46596
G1 X189.224 Y136.838 E4.47935
G1 X189.393 Y137.353 E4.5082
G1 X189.479 Y137.628 E4.52353
G1 X189.77 Y138.6 E4.57752
G1 X189.847 Y138.87 E4.59247
G1 X190.025 Y139.525 E4.62859
G1 X190.092 Y139.785 E4.64287
G1 X190.222 Y140.314 E4.67186
G1 X190.28 Y140.561 E4.68537
G1 X190.499 Y141.55 E4.73927
G1 X190.555 Y141.819 E4.75389
G1 X190.68 Y142.459 E4.7886
G1 X190.725 Y142.705 E4.8019
G1 X190.835 Y143.345 E4.83646
G1 X190.881 Y143.636 E4.85214
G1 X191 Y144.46 E4.89644
G1 X191.037 Y144.744 E4.91169
G1 X191.133 Y145.558 E4.9553
G1 X191.159 Y145.798 E4.96815
G1 X191.221 Y146.446 E5.00279
G1 X191.244 Y146.72 E5.01743
G1 X191.284 Y147.287 E5.04767
G1 X191.299 Y147.54 E5.06116
G1 X191.34 Y148.404 E5.10719
G1 X191.35 Y148.703 E5.12311
G1 X191.37 Y149.693 E5.17581
G1 X191.372 Y149.957 E5.18986
G1 X191.37 Y150.484 E5.2179
G1 X191.366 Y150.744 E5.23174
G1 X191.348 Y151.4 E5.26666
G1 X191.338 Y151.651 E5.28003
G1 X191.295 Y152.505 E5.32553
G1 X191.276 Y152.802 E5.34137
G1 X191.206 Y153.705 E5.38957
G1 X191.181 Y153.984 E5.40448
G1 X191.129 Y154.488 E5.43144
G1 X191.101 Y154.735 E5.44467
G1 X191.001 Y155.528 E5.4872
G1 X190.963 Y155.8 E5.50182
G1 X190.838 Y156.625 E5.54622
G1 X190.791 Y156.909 E5.56154
G1 X190.654 Y157.677 E5.60306
G1 X190.607 Y157.926 E5.61654
G1 X190.501 Y158.45 E5.64499
G1 X190.44 Y158.732 E5.66035
G1 X190.224 Y159.672 E5.71167
G1 X190.168 Y159.901 E5.72422
G1 X190.012 Y160.519 E5.75814
G1 X189.938 Y160.798 E5.7735
G1 X189.736 Y161.518 E5.81329
G1 X189.662 Y161.772 E5.82737
G1 X189.428 Y162.535 E5.86984
G1 X189.343 Y162.798 E5.88455
G1 X189.117 Y163.474 E5.92248
G1 X189.029 Y163.729 E5.93684
G1 X188.792 Y164.384 E5.97391
G1 X188.692 Y164.648 E5.98893
G1 X188.381 Y165.443 E6.03436
G1 X188.29 Y165.669 E6.04732
G1 X188.044 Y166.259 E6.08134
G1 X187.931 Y166.521 E6.09653
G1 X187.61 Y167.238 E6.13833
G1 X187.493 Y167.491 E6.15317
G1 X187.148 Y168.212 E6.1957
G1 X187.03 Y168.45 E6.20984
G1 X186.7 Y169.099 E6.24858
G1 X186.585 Y169.318 E6.26175
G1 X186.296 Y169.856 E6.29425
G1 X186.153 Y170.115 E6.30999
G1 X185.714 Y170.882 E6.35702
G1 X185.581 Y171.108 E6.37098
G1 X185.173 Y171.783 E6.41295
G1 X185.03 Y172.013 E6.42736
G1 X184.728 Y172.486 E6.45723
G1 X184.58 Y172.711 E6.47156
G1 X184.06 Y173.483 E6.52109
G1 X183.905 Y173.708 E6.53563
G1 X183.515 Y174.257 E6.57147
G1 X183.365 Y174.463 E6.58503
G1 X182.969 Y174.994 E6.62028
G1 X182.803 Y175.211 E6.63482
G1 X182.295 Y175.858 E6.67859
G1 X182.118 Y176.078 E6.69362
G1 X181.6 Y176.704 E6.73686
G1 X181.436 Y176.897 E6.75034
G1 X181.064 Y177.326 E6.78056
G1 X180.88 Y177.533 E6.79529
G1 X180.289 Y178.181 E6.84197
G1 X180.089 Y178.395 E6.85755
G1 X179.504 Y179.003 E6.90245
G1 X179.332 Y179.177 E6.91547
G1 X178.994 Y179.513 E6.94084
G1 X178.799 Y179.703 E6.95532
G1 X178.095 Y180.369 E7.0069
G1 X177.895 Y180.553 E7.02136
G1 X176.751 Y181.583 E7.10328
G1 X175.604 Y182.624 E7.18571
G1 X173.77 Y184.378 E7.32076
G1 X171.984 Y186.181 E7.45581
G1 X170.293 Y187.988 E7.58751
G1 X168.617 Y189.886 E7.72226
G1 X166.991 Y191.835 E7.85733
G1 X165.44 Y193.803 E7.99068
G1 X163.926 Y195.842 E8.12583
G1 X162.499 Y197.883 E8.25836
G1 X161.11 Y199.99 E8.39265
G1 X159.788 Y202.13 E8.52651
G1 X158.516 Y204.322 E8.66138
G1 X157.326 Y206.515 E8.79416
G1 X156.184 Y208.769 E8.92863
G1 X155.117 Y211.029 E9.06163
G1 X154.103 Y213.348 E9.19632
G1 X153.156 Y215.688 E9.33065
G1 X152.287 Y218.026 E9.46339
G1 X151.124 Y221.465 E9.65658
G1 X151.059 Y221.651 E9.66707
G1 X150.852 Y222.229 E9.69974
G1 X150.774 Y222.44 E9.71171
G1 X150.536 Y223.064 E9.74725
G1 X150.461 Y223.255 E9.75817
G1 X150.266 Y223.739 E9.78594
G1 X150.172 Y223.965 E9.79896
G1 X149.888 Y224.627 E9.8373
G1 X149.797 Y224.832 E9.84923
G1 X149.583 Y225.304 E9.87681
G1 X149.492 Y225.501 E9.88836
G1 X149.176 Y226.163 E9.9274
G1 X149.075 Y226.368 E9.93956
G1 X148.832 Y226.851 E9.96833
G1 X148.732 Y227.046 E9.97999
G1 X148.434 Y227.61 E10.01394
G1 X148.322 Y227.816 E10.02642
G1 X148.034 Y228.334 E10.05796
G1 X147.927 Y228.522 E10.06947
G1 X147.572 Y229.132 E10.10703
G1 X147.437 Y229.359 E10.12108
G1 X147.142 Y229.839 E10.15107
G1 X147.048 Y229.988 E10.16044
G1 X146.706 Y230.525 E10.19432
G1 X146.565 Y230.74 E10.208
G1 X146.191 Y231.298 E10.24375
G1 X146.082 Y231.459 E10.2541
G1 X145.791 Y231.877 E10.2812
G1 X145.658 Y232.063 E10.29337
G1 X145.271 Y232.595 E10.32838
G1 X145.127 Y232.789 E10.34124
G1 X144.686 Y233.368 E10.37997
G1 X144.553 Y233.539 E10.3915
G1 X144.269 Y233.897 E10.41582
G1 X144.125 Y234.075 E10.428
G1 X143.659 Y234.638 E10.46689
G1 X143.51 Y234.814 E10.47916
G1 X143.092 Y235.298 E10.5132
G1 X142.939 Y235.471 E10.52549
G1 X142.593 Y235.855 E10.55299
G1 X142.461 Y235.999 E10.56339
G1 X141.968 Y236.527 E10.60183
G1 X141.803 Y236.7 E10.61455
G1 X141.409 Y237.104 E10.64459
G1 X141.239 Y237.275 E10.65742
G1 X140.809 Y237.697 E10.68948
G1 X140.675 Y237.826 E10.69938
G1 X140.187 Y238.289 E10.73518
G1 X140 Y238.462 E10.74873
G1 X139.565 Y238.856 E10.77997
G1 X139.391 Y239.011 E10.79237
G1 X138.884 Y239.451 E10.82809
G1 X138.744 Y239.57 E10.83787
G1 X138.359 Y239.893 E10.86461
G1 X138.162 Y240.054 E10.87815
G1 X137.541 Y240.551 E10.92048
G1 X137.344 Y240.706 E10.93382
G1 X136.938 Y241.016 E10.961
G1 X136.782 Y241.133 E10.97138
G1 X136.286 Y241.498 E11.00415
G1 X136.1 Y241.631 E11.01632
G1 X135.552 Y242.017 E11.05199
G1 X135.361 Y242.149 E11.06435
G1 X134.902 Y242.458 E11.09379
G1 X134.727 Y242.573 E11.10494
G1 X134.117 Y242.967 E11.14358
G1 X133.916 Y243.094 E11.15623
G1 X133.484 Y243.36 E11.18323
G1 X133.294 Y243.474 E11.19502
G1 X132.682 Y243.834 E11.23281
G1 X132.504 Y243.937 E11.24375
G1 X132.007 Y244.217 E11.27411
G1 X131.788 Y244.337 E11.2874
G1 X131.211 Y244.645 E11.3222
G1 X131.017 Y244.746 E11.33384
G1 X130.492 Y245.013 E11.36519
G1 X130.292 Y245.112 E11.37706
G1 X129.696 Y245.4 E11.41229
G1 X129.48 Y245.502 E11.425
G1 X128.983 Y245.729 E11.45408
G1 X128.786 Y245.817 E11.46556
G1 X128.172 Y246.083 E11.50117
G1 X127.987 Y246.16 E11.51183
G1 X127.358 Y246.419 E11.54803
G1 X127.133 Y246.509 E11.56093
G1 X126.654 Y246.694 E11.58825
G1 X126.435 Y246.776 E11.6007
G1 X125.772 Y247.016 E11.63822
G1 X125.559 Y247.091 E11.65024
G1 X124.963 Y247.293 E11.68373
G1 X124.754 Y247.362 E11.69544
G1 X124.312 Y247.502 E11.72011
G1 X124.087 Y247.57 E11.73262
G1 X123.303 Y247.8 E11.7761
G1 X123.104 Y247.856 E11.7871
G1 X122.628 Y247.986 E11.81336
G1 X122.405 Y248.045 E11.82564
G1 X121.695 Y248.223 E11.86459
G1 X121.477 Y248.275 E11.87652
G1 X120.901 Y248.407 E11.90796
G1 X120.68 Y248.455 E11.92
G1 X120.232 Y248.548 E11.94435
G1 X120.003 Y248.593 E11.95677
G1 X119.114 Y248.758 E12.00488
G1 X118.902 Y248.795 E12.01634
G1 X118.497 Y248.862 E12.03818
G1 X118.277 Y248.897 E12.05004
G1 X117.572 Y248.999 E12.08795
G1 X117.338 Y249.03 E12.10051
G1 X116.825 Y249.093 E12.12801
G1 X116.614 Y249.117 E12.13931
G1 X115.859 Y249.195 E12.1797
G1 X115.62 Y249.217 E12.19248
G1 X115.054 Y249.263 E12.2227
G1 X114.828 Y249.279 E12.23475
G1 X114.333 Y249.309 E12.26114
G1 X114.092 Y249.321 E12.27399
G1 X113.108 Y249.359 E12.32639
G1 X112.901 Y249.365 E12.33741
G1 X112.496 Y249.373 E12.35897
G1 X112.237 Y249.375 E12.37275
G1 X111.454 Y249.372 E12.41442
G1 X111.156 Y249.367 E12.43028
G1 X110.38 Y249.343 E12.47159
G1 X110.138 Y249.333 E12.48448
G1 X109.421 Y249.295 E12.52269
G1 X109.194 Y249.28 E12.5348
G1 X108.638 Y249.239 E12.56447
G1 X108.453 Y249.224 E12.57435
G1 X107.99 Y249.182 E12.59909
G1 X107.764 Y249.159 E12.61117
G1 X107.11 Y249.086 E12.64619
G1 X106.903 Y249.061 E12.65729
G1 X106.559 Y249.016 E12.67575
G1 X106.323 Y248.983 E12.68843
G1 X105.329 Y248.831 E12.74195
G1 X105.03 Y248.781 E12.75808
G1 X104.026 Y248.599 E12.81238
G1 X103.755 Y248.546 E12.82707
G1 X103.427 Y248.478 E12.8449
G1 X103.246 Y248.439 E12.85475
G1 X102.788 Y248.336 E12.87973
G1 X102.534 Y248.276 E12.89362
G1 X101.642 Y248.053 E12.94255
G1 X101.349 Y247.975 E12.95869
G1 X100.333 Y247.691 E13.01483
G1 X100.009 Y247.595 E13.03281
G1 X99.258 Y247.36 E13.07469
G1 X98.973 Y247.266 E13.09066
G1 X98.125 Y246.975 E13.13837
G1 X97.844 Y246.875 E13.15424
G1 X97.068 Y246.585 E13.19833
G1 X96.801 Y246.481 E13.21357
G1 X96.214 Y246.244 E13.24726
G1 X95.94 Y246.129 E13.26308
G1 X95.141 Y245.781 E13.30945
G1 X94.881 Y245.664 E13.32463
G1 X94.114 Y245.306 E13.36967
G1 X93.831 Y245.169 E13.3864
G1 X93.058 Y244.781 E13.43243
G1 X92.786 Y244.639 E13.44876
G1 X91.891 Y244.158 E13.50283
G1 X91.686 Y244.046 E13.51526
G1 X91.394 Y243.881 E13.53311
G1 X91.179 Y243.756 E13.54634
G1 X90.796 Y243.528 E13.57006
G1 X90.623 Y243.422 E13.58086
G1 X89.943 Y243 E13.62345
G1 X89.63 Y242.799 E13.64325
G1 X88.481 Y242.031 E13.71679
G1 X88.17 Y241.815 E13.73694
G1 X87.375 Y241.243 E13.78906
G1 X87.11 Y241.046 E13.80663
G1 X86.486 Y240.568 E13.84846
G1 X86.291 Y240.416 E13.86162
G1 X85.871 Y240.079 E13.89028
G1 X85.626 Y239.876 E13.90721
G1 X84.988 Y239.333 E13.95179
G1 X84.735 Y239.111 E13.96971
G1 X83.732 Y238.203 E14.0417
G1 X83.444 Y237.933 E14.06271
G1 X82.786 Y237.293 E14.11156
G1 X82.568 Y237.075 E14.12797
G1 X82.116 Y236.61 E14.16248
G1 X81.882 Y236.361 E14.18066
G1 X81.155 Y235.565 E14.23803
G1 X80.906 Y235.284 E14.25801
G1 X80.073 Y234.307 E14.32633
G1 X79.857 Y234.045 E14.3444
G1 X79.403 Y233.478 E14.38306
G1 X79.192 Y233.206 E14.40138
G1 X78.78 Y232.657 E14.43791
G1 X78.582 Y232.384 E14.45585
G1 X77.86 Y231.358 E14.52262
G1 X77.636 Y231.028 E14.54384
G1 X76.939 Y229.957 E14.61184
G1 X76.75 Y229.655 E14.6308
G1 X76.403 Y229.082 E14.66645
G1 X76.252 Y228.825 E14.68231
G1 X75.82 Y228.066 E14.72879
G1 X75.671 Y227.796 E14.7452
G1 X75.213 Y226.936 E14.79705
G1 X75.094 Y226.705 E14.81088
G1 X74.9 Y226.319 E14.83387
G1 X74.815 Y226.146 E14.84413
G1 X74.664 Y225.832 E14.86267
G1 X74.55 Y225.588 E14.877
G1 X74.14 Y224.679 E14.93007
G1 X74.026 Y224.418 E14.94522
G1 X73.604 Y223.414 E15.00318
G1 X73.43 Y222.974 E15.02836
G1 X73.065 Y221.989 E15.08426
G1 X72.933 Y221.611 E15.10557
G1 X72.515 Y220.343 E15.17662
G1 X72.41 Y220.005 E15.19545
G1 X72.186 Y219.244 E15.23767
G1 X72.105 Y218.954 E15.25369
G1 X71.904 Y218.195 E15.29547
G1 X71.831 Y217.903 E15.31149
G1 X71.599 Y216.919 E15.36529
