;FLAVOR:Marlin
;TIME:4721
;Filament used: 2.57439m
;Layer height: 0.2
;MINX:120.315
;MINY:120.307
;MINZ:0.1
;MAXX:179.685
;MAXY:179.643
;MAXZ:37.5
;Generated with Cura_SteamEngine 4.3.0
M140 S60
M105
M190 S60
M104 S200
M105
M109 S200
M82 ;absolute extrusion mode
M201 X500.00 Y500.00 Z100.00 E5000.00 ;Setup machine max acceleration
M203 X500.00 Y500.00 Z10.00 E50.00 ;Setup machine max feedrate
M204 P500.00 R1000.00 T500.00 ;Setup Print/Retract/Travel acceleration
M205 X8.00 Y8.00 Z0.40 E5.00 ;Setup Jerk
M220 S100 ;Reset Feedrate
M221 S100 ;Reset Flowrate

G28 ;Home

G92 E0 ;Reset Extruder
G1 Z2.0 F3000 ;Move Z Axis up
G1 X10.1 Y20 Z0.28 F5000.0 ;Move to start position
G1 X10.1 Y200.0 Z0.28 F1500.0 E15 ;Draw the first line
G1 X10.4 Y200.0 Z0.28 F5000.0 ;Move to side a little
G1 X10.4 Y20 Z0.28 F1500.0 E30 ;Draw the second line
G92 E0 ;Reset Extruder
G1 Z2.0 F3000 ;Move Z Axis up

G92 E0
G92 E0
G1 F1500 E-6.5
;LAYER_COUNT:191
;LAYER:0
M107
G1 F300 Z0.3
G0 F6000 X129.124 Y128.823 Z0.3
;TYPE:SKIRT
G1 F300 Z0.1
G1 F1500 E0
G1 F1200 X129.635 Y128.325 E0.0089
G1 X129.89 Y128.085 E0.01327
G1 X130.12 Y127.875 E0.01715
G1 X130.413 Y127.617 E0.02202
G1 X130.974 Y127.141 E0.0312
G1 X131.282 Y126.89 E0.03615
G1 X131.798 Y126.484 E0.04434
G1 X132.11 Y126.247 E0.04923
G1 X132.402 Y126.034 E0.05374
G1 X132.675 Y125.841 E0.05791
G1 X133.293 Y125.419 E0.06724
G1 X133.609 Y125.212 E0.07195
G1 X133.96 Y124.99 E0.07713
G1 X134.266 Y124.803 E0.08161
G1 X134.895 Y124.434 E0.0907
G1 X135.216 Y124.253 E0.0953
G1 X135.65 Y124.018 E0.10145
G1 X135.961 Y123.856 E0.10583
G1 X136.591 Y123.541 E0.11461
G1 X136.893 Y123.396 E0.11879
G1 X137.298 Y123.209 E0.12435
G1 X137.523 Y123.108 E0.12743
G1 X138.092 Y122.861 E0.13517
G1 X138.383 Y122.74 E0.1391
G1 X139.021 Y122.485 E0.14767
G1 X139.313 Y122.373 E0.15157
G1 X139.807 Y122.192 E0.15813
G1 X140.077 Y122.097 E0.1617
G1 X140.716 Y121.882 E0.17011
G1 X140.985 Y121.796 E0.17363
G1 X141.629 Y121.598 E0.18203
G1 X141.927 Y121.511 E0.18591
G1 X142.492 Y121.355 E0.19322
G1 X142.754 Y121.286 E0.1966
G1 X143.332 Y121.142 E0.20403
G1 X143.645 Y121.069 E0.20803
G1 X144.348 Y120.916 E0.21701
G1 X144.698 Y120.846 E0.22146
G1 X145.288 Y120.738 E0.22894
G1 X145.586 Y120.688 E0.23271
G1 X146.079 Y120.612 E0.23893
G1 X146.461 Y120.56 E0.24374
G1 X147.294 Y120.462 E0.2542
G1 X147.685 Y120.423 E0.2591
G1 X148.354 Y120.369 E0.26747
G1 X148.71 Y120.346 E0.27192
G1 X149.258 Y120.32 E0.27877
G1 X149.74 Y120.308 E0.28478
G1 X150.133 Y120.307 E0.28968
G1 X150.576 Y120.315 E0.29521
G1 X151.092 Y120.335 E0.30165
G1 X151.543 Y120.362 E0.30728
G1 X152.495 Y120.439 E0.3192
G1 X152.862 Y120.475 E0.32379
G1 X153.312 Y120.527 E0.32944
G1 X153.698 Y120.579 E0.3343
G1 X154.505 Y120.702 E0.34448
G1 X154.858 Y120.762 E0.34895
G1 X155.308 Y120.846 E0.35466
G1 X155.609 Y120.906 E0.35849
G1 X156.339 Y121.064 E0.3678
G1 X156.681 Y121.144 E0.37218
G1 X157.271 Y121.292 E0.37977
G1 X157.501 Y121.353 E0.38274
G1 X158.051 Y121.504 E0.38985
G1 X158.364 Y121.595 E0.39392
G1 X158.995 Y121.789 E0.40215
G1 X159.263 Y121.875 E0.40566
G1 X159.938 Y122.102 E0.41455
G1 X160.226 Y122.203 E0.41835
G1 X160.674 Y122.368 E0.42431
G1 X160.947 Y122.473 E0.42795
G1 X161.678 Y122.765 E0.43777
G1 X161.953 Y122.879 E0.44149
G1 X162.379 Y123.063 E0.44727
G1 X162.633 Y123.177 E0.45075
G1 X163.188 Y123.434 E0.45837
G1 X163.479 Y123.574 E0.4624
G1 X163.987 Y123.828 E0.46949
G1 X164.307 Y123.995 E0.47399
G1 X164.821 Y124.274 E0.48128
G1 X165.126 Y124.446 E0.48565
G1 X165.674 Y124.767 E0.49357
G1 X165.953 Y124.936 E0.49764
G1 X166.358 Y125.19 E0.5036
G1 X166.692 Y125.408 E0.50858
G1 X167.311 Y125.829 E0.51791
G1 X167.615 Y126.044 E0.52256
G1 X167.895 Y126.249 E0.52689
G1 X168.191 Y126.473 E0.53152
G1 X168.711 Y126.882 E0.53977
G1 X169.026 Y127.14 E0.54485
G1 X169.565 Y127.598 E0.55367
G1 X169.852 Y127.851 E0.55844
G1 X170.174 Y128.145 E0.56388
G1 X170.415 Y128.372 E0.56801
G1 X170.795 Y128.741 E0.57461
G1 X171.076 Y129.024 E0.57959
G1 X171.49 Y129.457 E0.58706
G1 X171.752 Y129.741 E0.59188
G1 X172.171 Y130.212 E0.59974
G1 X172.428 Y130.512 E0.60467
G1 X172.76 Y130.914 E0.61117
G1 X172.972 Y131.179 E0.6154
G1 X173.325 Y131.635 E0.6226
G1 X173.562 Y131.954 E0.62755
G1 X173.931 Y132.469 E0.63546
G1 X174.12 Y132.741 E0.63959
G1 X174.381 Y133.13 E0.64543
G1 X174.578 Y133.434 E0.64995
G1 X174.94 Y134.015 E0.65849
G1 X175.124 Y134.322 E0.66295
G1 X175.395 Y134.791 E0.66971
G1 X175.561 Y135.089 E0.67396
G1 X175.857 Y135.641 E0.68177
G1 X176.013 Y135.943 E0.68601
G1 X176.275 Y136.471 E0.69336
G1 X176.414 Y136.763 E0.6974
G1 X176.667 Y137.314 E0.70496
G1 X176.802 Y137.619 E0.70912
G1 X177.046 Y138.197 E0.71694
G1 X177.154 Y138.464 E0.72054
G1 X177.394 Y139.078 E0.72876
G1 X177.51 Y139.387 E0.73288
G1 X177.72 Y139.977 E0.74069
G1 X177.81 Y140.243 E0.74419
G1 X177.993 Y140.803 E0.75154
G1 X178.081 Y141.086 E0.75523
G1 X178.293 Y141.801 E0.76454
G1 X178.365 Y142.054 E0.76782
G1 X178.516 Y142.613 E0.77504
G1 X178.585 Y142.88 E0.77848
G1 X178.77 Y143.642 E0.78826
G1 X178.824 Y143.877 E0.79127
G1 X178.95 Y144.452 E0.79861
G1 X179.003 Y144.709 E0.80188
G1 X179.151 Y145.473 E0.81159
G1 X179.2 Y145.744 E0.81502
G1 X179.308 Y146.39 E0.82319
G1 X179.341 Y146.601 E0.82585
G1 X179.436 Y147.248 E0.83401
G1 X179.472 Y147.516 E0.83738
G1 X179.577 Y148.382 E0.84826
G1 X179.607 Y148.666 E0.85183
G1 X179.637 Y148.984 E0.85581
G1 X179.685 Y149.91 E0.86737
G1 X179.636 Y151.018 E0.88121
G1 X179.596 Y151.436 E0.88645
G1 X179.561 Y151.752 E0.89041
G1 X179.486 Y152.349 E0.89792
G1 X179.459 Y152.553 E0.90048
G1 X179.358 Y153.249 E0.90925
G1 X179.321 Y153.484 E0.91222
G1 X179.2 Y154.205 E0.92134
G1 X179.152 Y154.467 E0.92466
G1 X178.999 Y155.258 E0.93471
G1 X178.951 Y155.496 E0.93774
G1 X178.841 Y156.003 E0.94421
G1 X178.786 Y156.243 E0.94728
G1 X178.592 Y157.048 E0.95761
G1 X178.521 Y157.326 E0.96119
G1 X178.369 Y157.89 E0.96847
G1 X178.299 Y158.139 E0.9717
G1 X178.112 Y158.772 E0.97993
G1 X178.021 Y159.062 E0.98372
G1 X177.786 Y159.782 E0.99317
G1 X177.687 Y160.072 E0.99699
G1 X177.515 Y160.552 E1.00335
G1 X177.413 Y160.826 E1.007
G1 X177.172 Y161.445 E1.01528
G1 X177.053 Y161.738 E1.01923
G1 X176.787 Y162.366 E1.02773
G1 X176.667 Y162.637 E1.03143
G1 X176.431 Y163.154 E1.03852
G1 X176.291 Y163.45 E1.0426
G1 X176.051 Y163.936 E1.04936
G1 X175.89 Y164.249 E1.05375
G1 X175.548 Y164.888 E1.06279
G1 X175.37 Y165.207 E1.06735
G1 X175.152 Y165.583 E1.07277
G1 X174.984 Y165.862 E1.07683
G1 X174.576 Y166.519 E1.08648
G1 X174.378 Y166.827 E1.09104
G1 X174.119 Y167.214 E1.09685
G1 X173.909 Y167.516 E1.10144
G1 X173.58 Y167.973 E1.10846
G1 X173.377 Y168.246 E1.11271
G1 X172.984 Y168.757 E1.12075
G1 X172.749 Y169.051 E1.12544
G1 X172.449 Y169.414 E1.13131
G1 X172.193 Y169.713 E1.13622
G1 X171.732 Y170.231 E1.14487
G1 X171.471 Y170.514 E1.14967
G1 X171.142 Y170.858 E1.15561
G1 X170.876 Y171.127 E1.16033
G1 X170.365 Y171.625 E1.16923
G1 X170.11 Y171.865 E1.1736
G1 X169.869 Y172.085 E1.17767
G1 X169.579 Y172.341 E1.18249
G1 X169.049 Y172.791 E1.19116
G1 X168.751 Y173.034 E1.19596
G1 X168.248 Y173.431 E1.20395
G1 X167.919 Y173.681 E1.20911
G1 X167.521 Y173.971 E1.21525
G1 X167.249 Y174.163 E1.2194
G1 X166.739 Y174.511 E1.2271
G1 X166.424 Y174.718 E1.2318
G1 X166.038 Y174.962 E1.2375
G1 X165.734 Y175.147 E1.24194
G1 X165.105 Y175.516 E1.25103
G1 X164.788 Y175.695 E1.25557
G1 X164.325 Y175.946 E1.26214
G1 X164.002 Y176.114 E1.26668
G1 X163.457 Y176.386 E1.27428
G1 X163.175 Y176.522 E1.27818
G1 X162.646 Y176.767 E1.28546
G1 X162.41 Y176.873 E1.28868
G1 X161.954 Y177.071 E1.29488
G1 X161.662 Y177.192 E1.29882
G1 X160.979 Y177.465 E1.308
G1 X160.687 Y177.577 E1.3119
G1 X160.193 Y177.758 E1.31846
G1 X159.923 Y177.853 E1.32203
G1 X159.284 Y178.068 E1.33044
G1 X159.015 Y178.154 E1.33396
G1 X158.371 Y178.352 E1.34237
G1 X158.073 Y178.439 E1.34624
G1 X157.508 Y178.595 E1.35355
G1 X157.246 Y178.664 E1.35693
G1 X156.668 Y178.808 E1.36436
G1 X156.355 Y178.881 E1.36837
G1 X155.652 Y179.034 E1.37734
G1 X155.302 Y179.104 E1.38179
G1 X154.712 Y179.212 E1.38927
G1 X154.414 Y179.262 E1.39304
G1 X153.921 Y179.338 E1.39926
G1 X153.539 Y179.39 E1.40407
G1 X152.706 Y179.488 E1.41453
G1 X152.314 Y179.527 E1.41945
G1 X151.632 Y179.582 E1.42798
G1 X151.279 Y179.605 E1.43239
G1 X150.838 Y179.626 E1.4379
G1 X150.572 Y179.635 E1.44122
G1 X150.309 Y179.641 E1.4445
G1 X149.92 Y179.643 E1.44935
G1 X149.547 Y179.638 E1.454
G1 X149.162 Y179.626 E1.45881
G1 X148.736 Y179.605 E1.46413
G1 X148.398 Y179.583 E1.46835
G1 X147.545 Y179.514 E1.47903
G1 X147.17 Y179.477 E1.48373
G1 X146.68 Y179.42 E1.48988
G1 X146.302 Y179.369 E1.49464
G1 X145.495 Y179.246 E1.50482
G1 X145.142 Y179.186 E1.50928
G1 X144.692 Y179.102 E1.51499
G1 X144.391 Y179.042 E1.51882
G1 X143.661 Y178.884 E1.52814
G1 X143.328 Y178.806 E1.5324
G1 X142.748 Y178.661 E1.53986
G1 X142.502 Y178.596 E1.54303
G1 X141.939 Y178.441 E1.55032
G1 X141.637 Y178.354 E1.55424
G1 X140.992 Y178.156 E1.56265
G1 X140.714 Y178.066 E1.5663
G1 X140.076 Y177.851 E1.57469
G1 X139.793 Y177.751 E1.57844
G1 X139.299 Y177.569 E1.585
G1 X139.038 Y177.469 E1.58849
G1 X138.355 Y177.197 E1.59766
G1 X138.048 Y177.07 E1.6018
G1 X137.59 Y176.871 E1.60803
G1 X137.361 Y176.768 E1.61116
G1 X136.801 Y176.509 E1.61886
G1 X136.524 Y176.376 E1.62269
G1 X136.094 Y176.162 E1.62868
G1 X135.757 Y175.987 E1.63342
G1 X135.112 Y175.637 E1.64257
G1 X134.784 Y175.451 E1.64727
G1 X134.317 Y175.176 E1.65403
G1 X134.051 Y175.014 E1.65792
G1 X133.596 Y174.728 E1.66462
G1 X133.266 Y174.512 E1.66954
G1 X132.78 Y174.181 E1.67687
G1 X132.479 Y173.969 E1.68147
G1 X131.967 Y173.594 E1.68938
G1 X131.659 Y173.359 E1.69421
G1 X131.36 Y173.123 E1.69897
G1 X131.072 Y172.888 E1.7036
G1 X130.418 Y172.334 E1.71429
G1 X130.115 Y172.067 E1.71933
G1 X129.837 Y171.813 E1.72403
G1 X129.592 Y171.582 E1.72823
G1 X129.187 Y171.188 E1.73527
G1 X128.916 Y170.915 E1.74007
G1 X128.517 Y170.498 E1.74727
G1 X128.252 Y170.211 E1.75214
G1 X127.809 Y169.713 E1.76045
G1 X127.557 Y169.419 E1.76528
G1 X127.256 Y169.055 E1.77118
G1 X127.017 Y168.755 E1.77596
G1 X126.625 Y168.245 E1.78398
G1 X126.421 Y167.971 E1.78824
G1 X126.093 Y167.515 E1.79525
G1 X125.89 Y167.222 E1.79969
G1 X125.63 Y166.834 E1.80552
G1 X125.432 Y166.527 E1.81008
G1 X125.024 Y165.871 E1.81971
G1 X124.848 Y165.579 E1.82396
G1 X124.635 Y165.211 E1.82927
G1 X124.459 Y164.895 E1.83378
G1 X124.112 Y164.246 E1.84296
G1 X123.961 Y163.953 E1.84707
G1 X123.722 Y163.471 E1.85378
G1 X123.58 Y163.172 E1.85791
G1 X123.334 Y162.635 E1.86527
G1 X123.203 Y162.338 E1.86932
G1 X122.946 Y161.729 E1.87757
G1 X122.835 Y161.456 E1.88124
G1 X122.606 Y160.869 E1.8891
G1 X122.497 Y160.577 E1.89299
G1 X122.291 Y160 E1.90063
G1 X122.197 Y159.725 E1.90426
G1 X121.994 Y159.104 E1.91241
G1 X121.907 Y158.826 E1.91604
G1 X121.71 Y158.163 E1.92466
G1 X121.632 Y157.887 E1.92824
G1 X121.467 Y157.272 E1.93618
G1 X121.403 Y157.018 E1.93945
G1 X121.244 Y156.362 E1.94787
G1 X121.189 Y156.126 E1.95089
G1 X121.032 Y155.408 E1.96006
G1 X120.98 Y155.157 E1.96326
G1 X120.856 Y154.517 E1.97139
G1 X120.807 Y154.244 E1.97485
G1 X120.679 Y153.478 E1.98453
G1 X120.645 Y153.259 E1.9873
G1 X120.565 Y152.711 E1.9942
G1 X120.53 Y152.45 E1.99749
G1 X120.425 Y151.583 E2.00838
G1 X120.396 Y151.313 E2.01177
G1 X120.364 Y150.978 E2.01597
G1 X120.315 Y150.052 E2.02753
G1 X120.365 Y148.921 E2.04165
G1 X120.406 Y148.497 E2.04697
G1 X120.439 Y148.196 E2.05074
G1 X120.513 Y147.605 E2.05817
G1 X120.543 Y147.39 E2.06088
G1 X120.648 Y146.67 E2.06995
G1 X120.683 Y146.441 E2.07284
G1 X120.8 Y145.744 E2.08166
G1 X120.847 Y145.485 E2.08494
G1 X121 Y144.693 E2.095
G1 X121.05 Y144.452 E2.09807
G1 X121.162 Y143.936 E2.10466
G1 X121.218 Y143.69 E2.1078
G1 X121.409 Y142.9 E2.11794
G1 X121.477 Y142.634 E2.12137
G1 X121.633 Y142.054 E2.12886
G1 X121.705 Y141.799 E2.13216
G1 X121.885 Y141.19 E2.14008
G1 X121.974 Y140.905 E2.14381
G1 X122.213 Y140.172 E2.15342
G1 X122.313 Y139.878 E2.1573
G1 X122.485 Y139.398 E2.16366
G1 X122.587 Y139.124 E2.1673
G1 X122.828 Y138.505 E2.17559
G1 X122.947 Y138.212 E2.17953
G1 X123.213 Y137.584 E2.18804
G1 X123.333 Y137.313 E2.19173
G1 X123.569 Y136.796 E2.19882
G1 X123.709 Y136.5 E2.20291
G1 X123.949 Y136.014 E2.20967
G1 X124.11 Y135.701 E2.21406
G1 X124.452 Y135.062 E2.2231
G1 X124.63 Y134.743 E2.22765
G1 X124.848 Y134.367 E2.23307
G1 X125.016 Y134.088 E2.23714
G1 X125.424 Y133.431 E2.24678
G1 X125.622 Y133.123 E2.25135
G1 X125.881 Y132.736 E2.25716
G1 X126.091 Y132.434 E2.26175
G1 X126.42 Y131.977 E2.26877
G1 X126.624 Y131.703 E2.27303
G1 X127.021 Y131.187 E2.28115
G1 X127.256 Y130.892 E2.28585
G1 X127.552 Y130.534 E2.29165
G1 X127.807 Y130.237 E2.29653
G1 X128.268 Y129.719 E2.30518
G1 X128.529 Y129.436 E2.30998
G1 X128.858 Y129.092 E2.31592
G1 X129.124 Y128.823 E2.32064
G0 F6000 X129.334 Y129.038
G1 F1200 X129.845 Y128.54 E2.32954
G1 X130.092 Y128.307 E2.33377
G1 X130.322 Y128.097 E2.33765
G1 X130.607 Y127.846 E2.34239
G1 X131.168 Y127.37 E2.35157
G1 X131.467 Y127.125 E2.35639
G1 X131.983 Y126.719 E2.36458
G1 X132.287 Y126.489 E2.36933
G1 X132.579 Y126.276 E2.37384
G1 X132.844 Y126.089 E2.37789
G1 X133.462 Y125.667 E2.38722
G1 X133.769 Y125.465 E2.3918
G1 X134.12 Y125.243 E2.39698
G1 X134.418 Y125.062 E2.40133
G1 X135.047 Y124.693 E2.41043
G1 X135.359 Y124.517 E2.4149
G1 X135.793 Y124.282 E2.42105
G1 X136.096 Y124.124 E2.42531
G1 X136.726 Y123.809 E2.4341
G1 X137.018 Y123.669 E2.43814
G1 X137.423 Y123.482 E2.4437
G1 X137.643 Y123.383 E2.44671
G1 X138.212 Y123.136 E2.45445
G1 X138.495 Y123.018 E2.45827
G1 X139.133 Y122.763 E2.46684
G1 X139.416 Y122.655 E2.47062
G1 X139.91 Y122.474 E2.47718
G1 X140.173 Y122.382 E2.48066
G1 X140.812 Y122.167 E2.48907
G1 X141.073 Y122.082 E2.49249
G1 X141.717 Y121.884 E2.50089
G1 X142.007 Y121.8 E2.50466
G1 X142.572 Y121.644 E2.51197
G1 X142.827 Y121.577 E2.51526
G1 X143.405 Y121.433 E2.52269
G1 X143.709 Y121.362 E2.52658
G1 X144.412 Y121.209 E2.53555
G1 X144.752 Y121.141 E2.53988
G1 X145.342 Y121.033 E2.54736
G1 X145.632 Y120.984 E2.55103
G1 X146.125 Y120.908 E2.55725
G1 X146.496 Y120.858 E2.56192
G1 X147.329 Y120.76 E2.57238
G1 X147.709 Y120.722 E2.57714
G1 X148.378 Y120.668 E2.58551
G1 X148.724 Y120.646 E2.58984
G1 X149.272 Y120.62 E2.59668
G1 X149.74 Y120.608 E2.60252
G1 X150.133 Y120.607 E2.60742
G1 X150.565 Y120.615 E2.61281
G1 X151.081 Y120.635 E2.61925
G1 X151.518 Y120.661 E2.62471
G1 X152.47 Y120.738 E2.63662
G1 X152.828 Y120.773 E2.64111
G1 X153.278 Y120.825 E2.64676
G1 X153.653 Y120.875 E2.65148
G1 X154.46 Y120.998 E2.66166
G1 X154.803 Y121.056 E2.666
G1 X155.253 Y121.14 E2.67171
G1 X155.546 Y121.199 E2.67544
G1 X156.276 Y121.357 E2.68475
G1 X156.608 Y121.435 E2.68901
G1 X157.198 Y121.583 E2.69659
G1 X157.422 Y121.642 E2.69948
G1 X157.972 Y121.793 E2.7066
G1 X158.276 Y121.881 E2.71054
G1 X158.907 Y122.075 E2.71878
G1 X159.167 Y122.159 E2.72219
G1 X159.842 Y122.386 E2.73107
G1 X160.123 Y122.485 E2.73478
G1 X160.571 Y122.65 E2.74074
G1 X160.835 Y122.752 E2.74427
G1 X161.566 Y123.044 E2.75409
G1 X161.834 Y123.155 E2.7577
G1 X162.26 Y123.339 E2.76349
G1 X162.507 Y123.449 E2.76686
G1 X163.062 Y123.706 E2.77449
G1 X163.344 Y123.842 E2.7784
G1 X163.852 Y124.096 E2.78548
G1 X164.164 Y124.259 E2.78987
G1 X164.678 Y124.538 E2.79717
G1 X164.975 Y124.705 E2.80142
G1 X165.523 Y125.026 E2.80934
G1 X165.793 Y125.19 E2.81328
G1 X166.198 Y125.444 E2.81924
G1 X166.523 Y125.656 E2.82408
G1 X167.142 Y126.077 E2.83342
G1 X167.438 Y126.286 E2.83794
G1 X167.718 Y126.491 E2.84226
G1 X168.005 Y126.709 E2.84676
G1 X168.525 Y127.118 E2.85501
G1 X168.832 Y127.369 E2.85996
G1 X169.371 Y127.827 E2.86878
G1 X169.65 Y128.073 E2.87342
G1 X169.972 Y128.367 E2.87886
G1 X170.206 Y128.587 E2.88286
G1 X170.586 Y128.956 E2.88947
G1 X170.859 Y129.231 E2.8943
G1 X171.273 Y129.664 E2.90177
G1 X171.528 Y129.94 E2.90646
G1 X171.947 Y130.411 E2.91432
G1 X172.196 Y130.703 E2.91911
G1 X172.528 Y131.105 E2.92561
G1 X172.734 Y131.362 E2.92972
G1 X173.087 Y131.818 E2.93691
G1 X173.319 Y132.129 E2.94175
G1 X173.688 Y132.644 E2.94966
G1 X173.871 Y132.908 E2.95366
G1 X174.132 Y133.297 E2.9595
G1 X174.323 Y133.593 E2.9639
