;FLAVOR:Marlin
;TIME:301
;Filament used: 0.111281m
;Layer height: 0.2
;MINX:129.515
;MINY:134.522
;MINZ:0.2
;MAXX:170.499
;MAXY:165.491
;MAXZ:4
;Generated with Cura_SteamEngine 4.3.0
M140 S60
M105
M190 S60
M104 S200
M105
M109 S200
M82 ;absolute extrusion mode
M201 X500.00 Y500.00 Z100.00 E5000.00 ;Setup machine max acceleration
M203 X500.00 Y500.00 Z10.00 E50.00 ;Setup machine max feedrate
M204 P500.00 R1000.00 T500.00 ;Setup Print/Retract/Travel acceleration
M205 X8.00 Y8.00 Z0.40 E5.00 ;Setup Jerk
M220 S100 ;Reset Feedrate
M221 S100 ;Reset Flowrate

G28 ;Home

G92 E0 ;Reset Extruder
G1 Z2.0 F3000 ;Move Z Axis up
G1 X10.1 Y20 Z0.28 F5000.0 ;Move to start position
G1 X10.1 Y200.0 Z0.28 F1500.0 E15 ;Draw the first line
G1 X10.4 Y200.0 Z0.28 F5000.0 ;Move to side a little
G1 X10.4 Y20 Z0.28 F1500.0 E30 ;Draw the second line
G92 E0 ;Reset Extruder
G1 Z2.0 F3000 ;Move Z Axis up

G92 E0
G92 E0
G1 F1500 E-6.5
;LAYER_COUNT:20
;LAYER:0
M107
G0 F6000 X134.035 Y139.067 Z0.2
;TYPE:SKIRT
G1 F1500 E0
G1 F1200 X134.89 Y138.272 E0.03883
G1 X135.254 Y137.968 E0.0546
G1 X136.171 Y137.28 E0.09273
G1 X136.558 Y137.02 E0.10824
G1 X137.382 Y136.517 E0.14035
G1 X137.558 Y136.42 E0.14703
G1 X137.923 Y136.228 E0.16075
G1 X138.227 Y136.075 E0.17207
G1 X139.14 Y135.667 E0.20533
G1 X139.536 Y135.511 E0.21949
G1 X140.64 Y135.142 E0.2582
G1 X141.071 Y135.023 E0.27307
G1 X142.129 Y134.786 E0.30914
G1 X142.587 Y134.707 E0.32459
G1 X143.721 Y134.572 E0.36258
G1 X144.228 Y134.538 E0.37948
G1 X145.415 Y134.522 E0.41896
G1 X145.902 Y134.542 E0.43517
G1 X146.419 Y134.576 E0.45241
G1 X147.561 Y134.677 E0.49054
G1 X150.11 Y134.864 E0.57554
G1 X152.668 Y134.979 E0.66071
G1 X155.143 Y135.021 E0.74304
G1 X155.786 Y135.023 E0.76443
G1 X156.601 Y135.056 E0.79156
G1 X156.86 Y135.076 E0.8002
G1 X157.807 Y135.19 E0.83192
G1 X158.182 Y135.252 E0.84456
G1 X158.496 Y135.309 E0.85518
G1 X159.09 Y135.425 E0.87531
G1 X159.178 Y135.442 E0.87829
G1 X160.989 Y135.811 E0.93976
G1 X161.146 Y135.845 E0.9451
G1 X161.831 Y135.995 E0.96843
G1 X162.738 Y136.234 E0.99962
G1 X163.621 Y136.55 E1.03082
G1 X164.474 Y136.94 E1.06201
G1 X165.29 Y137.401 E1.09318
G1 X166.065 Y137.93 E1.12439
G1 X166.791 Y138.523 E1.15557
G1 X167.465 Y139.176 E1.18678
G1 X168.08 Y139.884 E1.21797
G1 X168.633 Y140.642 E1.24918
G1 X169.119 Y141.444 E1.28037
G1 X169.535 Y142.284 E1.31155
G1 X169.878 Y143.157 E1.34275
G1 X170.146 Y144.056 E1.37395
G1 X170.335 Y144.974 E1.40512
G1 X170.446 Y145.906 E1.43634
G1 X170.476 Y146.511 E1.45649
G1 X170.497 Y147.521 E1.49009
G1 X170.499 Y147.75 E1.4977
G1 X170.499 Y152.53 E1.65669
G1 X170.498 Y152.683 E1.66177
G1 X170.488 Y153.401 E1.68566
G1 X170.435 Y154.338 E1.71687
G1 X170.302 Y155.266 E1.74805
G1 X170.091 Y156.18 E1.77925
G1 X169.803 Y157.072 E1.81043
G1 X169.44 Y157.937 E1.84163
G1 X169.004 Y158.768 E1.87284
G1 X168.499 Y159.558 E1.90403
G1 X167.929 Y160.303 E1.93523
G1 X167.297 Y160.996 E1.96642
G1 X166.609 Y161.633 E1.99761
G1 X165.869 Y162.209 E2.0288
G1 X165.082 Y162.72 E2.06001
G1 X164.255 Y163.162 E2.09119
G1 X163.393 Y163.532 E2.12239
G1 X162.503 Y163.827 E2.15358
G1 X161.899 Y163.981 E2.17431
G1 X160.915 Y164.202 E2.20785
G1 X160.703 Y164.247 E2.21506
G1 X159.227 Y164.548 E2.26516
G1 X159.078 Y164.578 E2.27022
G1 X158.408 Y164.705 E2.2929
G1 X158.05 Y164.766 E2.30498
G1 X157.555 Y164.843 E2.32164
G1 X156.428 Y164.96 E2.35933
G1 X156.175 Y164.973 E2.36775
G1 X155.715 Y164.987 E2.38306
G1 X154.391 Y165 E2.4271
G1 X151.827 Y165.06 E2.5124
G1 X149.288 Y165.193 E2.59696
G1 X146.998 Y165.375 E2.67337
G1 X146.301 Y165.44 E2.69665
G1 X145.46 Y165.486 E2.72467
G1 X145.149 Y165.491 E2.73501
G1 X144.768 Y165.49 E2.74768
G1 X144.552 Y165.486 E2.75487
G1 X143.617 Y165.429 E2.78602
G1 X143.156 Y165.381 E2.80144
G1 X142.006 Y165.199 E2.84017
G1 X141.55 Y165.102 E2.85567
G1 X140.409 Y164.795 E2.89497
G1 X139.958 Y164.647 E2.91076
G1 X138.932 Y164.252 E2.94732
G1 X138.51 Y164.065 E2.96268
G1 X137.431 Y163.514 E3.00297
G1 X136.981 Y163.252 E3.02029
G1 X136.009 Y162.615 E3.05894
G1 X135.81 Y162.469 E3.06715
G1 X135.085 Y161.889 E3.09803
G1 X134.536 Y161.41 E3.12227
G1 X133.856 Y160.763 E3.15349
G1 X133.488 Y160.363 E3.17156
G1 X133.188 Y160.02 E3.18672
G1 X132.468 Y159.103 E3.2255
G1 X132.196 Y158.716 E3.24123
G1 X131.571 Y157.717 E3.28042
G1 X131.343 Y157.305 E3.29609
G1 X130.859 Y156.315 E3.33274
G1 X130.666 Y155.865 E3.34902
G1 X130.231 Y154.663 E3.39154
G1 X130.094 Y154.202 E3.40753
G1 X129.831 Y153.121 E3.44454
G1 X129.74 Y152.642 E3.46075
G1 X129.579 Y151.429 E3.50145
G1 X129.543 Y150.959 E3.51713
G1 X129.515 Y149.824 E3.55489
G1 X129.527 Y149.376 E3.5698
G1 X129.613 Y148.267 E3.60679
G1 X129.678 Y147.762 E3.62373
G1 X129.906 Y146.541 E3.66504
G1 X130.021 Y146.073 E3.68107
G1 X130.364 Y144.943 E3.72035
G1 X130.526 Y144.497 E3.73613
G1 X130.966 Y143.454 E3.77378
G1 X131.172 Y143.029 E3.78949
G1 X131.733 Y142.013 E3.82809
G1 X131.987 Y141.605 E3.84408
G1 X132.694 Y140.599 E3.88497
G1 X132.984 Y140.232 E3.90053
G1 X133.709 Y139.404 E3.93713
G1 X134.035 Y139.067 E3.95273
G0 F6000 X134.322 Y139.345
G1 F1200 X135.146 Y138.579 E3.99015
G1 X135.51 Y138.275 E4.00592
G1 X136.394 Y137.612 E4.04267
G1 X136.781 Y137.352 E4.05818
G1 X137.576 Y136.868 E4.08914
G1 X137.752 Y136.771 E4.09582
G1 X138.103 Y136.586 E4.10902
G1 X138.407 Y136.433 E4.12034
G1 X139.287 Y136.039 E4.15241
G1 X139.683 Y135.883 E4.16656
G1 X140.747 Y135.527 E4.20388
G1 X141.178 Y135.408 E4.21875
G1 X142.197 Y135.18 E4.25348
G1 X142.655 Y135.101 E4.26894
G1 X143.748 Y134.971 E4.30555
G1 X144.255 Y134.937 E4.32245
G1 X145.399 Y134.922 E4.3605
G1 X145.886 Y134.942 E4.37671
G1 X146.384 Y134.974 E4.39331
G1 X147.496 Y135.072 E4.43044
G1 X150.134 Y135.266 E4.51842
G1 X152.643 Y135.379 E4.60195
G1 X155.136 Y135.421 E4.68488
G1 X155.785 Y135.423 E4.70647
G1 X156.57 Y135.454 E4.7326
G1 X156.829 Y135.474 E4.74124
G1 X157.742 Y135.585 E4.77183
G1 X158.117 Y135.647 E4.78447
G1 X158.42 Y135.702 E4.79471
G1 X159.014 Y135.818 E4.81484
G1 X159.098 Y135.834 E4.81768
G1 X160.909 Y136.203 E4.87916
G1 X161.06 Y136.235 E4.88429
G1 X161.745 Y136.385 E4.90761
G1 X162.635 Y136.621 E4.93824
G1 X163.502 Y136.933 E4.96889
G1 X164.337 Y137.319 E4.99948
G1 X165.136 Y137.777 E5.03011
G1 X165.893 Y138.301 E5.06073
G1 X166.601 Y138.89 E5.09137
G1 X167.255 Y139.538 E5.12199
G1 X167.851 Y140.24 E5.15262
G1 X168.383 Y140.991 E5.18323
G1 X168.849 Y141.785 E5.21385
G1 X169.243 Y142.617 E5.24447
G1 X169.564 Y143.48 E5.27509
G1 X169.809 Y144.367 E5.3057
G1 X169.976 Y145.273 E5.33634
G1 X170.076 Y146.52 E5.37795
G1 X170.097 Y147.53 E5.41155
G1 X170.099 Y147.75 E5.41886
G1 X170.099 Y152.53 E5.57785
G1 X170.098 Y152.678 E5.58277
G1 X170.088 Y153.396 E5.60665
G1 X170.035 Y154.315 E5.63727
G1 X169.903 Y155.226 E5.66789
G1 X169.692 Y156.122 E5.6985
G1 X169.404 Y156.997 E5.72914
G1 X169.041 Y157.843 E5.75976
G1 X168.607 Y158.654 E5.79035
G1 X168.103 Y159.425 E5.82099
G1 X167.535 Y160.149 E5.8516
G1 X166.906 Y160.821 E5.88221
G1 X166.22 Y161.436 E5.91285
G1 X165.484 Y161.99 E5.94349
G1 X164.703 Y162.477 E5.97411
G1 X163.883 Y162.894 E6.0047
G1 X163.029 Y163.239 E6.03534
G1 X161.812 Y163.59 E6.07746
G1 X160.828 Y163.811 E6.11101
G1 X160.623 Y163.855 E6.11798
G1 X159.147 Y164.156 E6.16808
G1 X159.003 Y164.185 E6.17297
G1 X158.333 Y164.312 E6.19565
G1 X157.988 Y164.371 E6.20729
G1 X157.493 Y164.448 E6.22395
G1 X156.408 Y164.56 E6.26023
G1 X156.155 Y164.573 E6.26866
G1 X155.711 Y164.587 E6.28343
G1 X154.377 Y164.6 E6.3278
G1 X151.797 Y164.661 E6.41364
G1 X149.309 Y164.791 E6.4965
G1 X146.932 Y164.98 E6.57581
G1 X146.264 Y165.042 E6.59813
G1 X145.453 Y165.086 E6.62514
G1 X145.142 Y165.091 E6.63548
G1 X144.776 Y165.09 E6.64766
G1 X144.56 Y165.086 E6.65484
G1 X143.658 Y165.031 E6.6849
G1 X143.197 Y164.983 E6.70032
G1 X142.09 Y164.808 E6.73759
G1 X141.634 Y164.711 E6.7531
G1 X140.534 Y164.415 E6.79099
G1 X140.083 Y164.267 E6.80677
G1 X139.094 Y163.886 E6.84202
G1 X138.672 Y163.699 E6.85738
G1 X137.633 Y163.168 E6.89618
G1 X137.183 Y162.906 E6.9135
G1 X136.246 Y162.293 E6.95075
G1 X136.047 Y162.147 E6.95895
G1 X135.348 Y161.587 E6.98874
G1 X134.799 Y161.108 E7.01298
G1 X134.132 Y160.473 E7.04361
G1 X133.789 Y160.1 E7.06046
G1 X133.489 Y159.757 E7.07562
G1 X132.796 Y158.873 E7.11298
G1 X132.524 Y158.486 E7.12871
G1 X131.921 Y157.524 E7.16647
G1 X131.693 Y157.112 E7.18213
G1 X131.226 Y156.157 E7.21749
G1 X131.033 Y155.707 E7.23378
G1 X130.614 Y154.549 E7.27474
G1 X130.477 Y154.088 E7.29073
G1 X130.224 Y153.046 E7.3264
G1 X130.133 Y152.567 E7.34261
G1 X129.978 Y151.399 E7.3818
G1 X129.942 Y150.929 E7.39748
G1 X129.915 Y149.835 E7.43388
G1 X129.927 Y149.387 E7.44878
G1 X130.01 Y148.318 E7.48444
G1 X130.075 Y147.813 E7.50138
G1 X130.294 Y146.637 E7.54117
G1 X130.409 Y146.169 E7.55719
G1 X130.74 Y145.079 E7.59508
G1 X130.902 Y144.633 E7.61086
G1 X131.326 Y143.629 E7.64711
G1 X131.532 Y143.204 E7.66282
G1 X132.072 Y142.225 E7.70001
G1 X132.326 Y141.817 E7.71599
G1 X133.008 Y140.847 E7.75543
G1 X133.298 Y140.48 E7.77099
G1 X133.996 Y139.682 E7.80625
G1 X134.322 Y139.345 E7.82185
G0 F6000 X134.61 Y139.623
G1 F1200 X135.403 Y138.886 E7.85785
G1 X135.767 Y138.582 E7.87363
G1 X136.617 Y137.944 E7.90898
G1 X137.004 Y137.684 E7.92448
G1 X137.769 Y137.218 E7.95428
G1 X137.945 Y137.121 E7.96096
G1 X138.282 Y136.943 E7.97364
G1 X138.586 Y136.79 E7.98496
G1 X139.433 Y136.411 E8.01582
G1 X139.829 Y136.255 E8.02998
G1 X140.853 Y135.913 E8.06588
G1 X141.284 Y135.794 E8.08075
G1 X142.265 Y135.574 E8.11419
G1 X142.723 Y135.495 E8.12965
G1 X143.775 Y135.37 E8.16489
G1 X144.282 Y135.336 E8.18179
G1 X145.383 Y135.322 E8.21841
G1 X145.87 Y135.342 E8.23462
G1 X146.349 Y135.373 E8.25059
G1 X147.432 Y135.469 E8.28675
G1 X150.088 Y135.664 E8.37532
G1 X152.618 Y135.777 E8.45956
G1 X155.199 Y135.821 E8.54541
G1 X155.784 Y135.823 E8.56487
G1 X156.539 Y135.853 E8.59
G1 X156.798 Y135.873 E8.59864
G1 X157.677 Y135.98 E8.62809
G1 X158.052 Y136.042 E8.64074
G1 X158.343 Y136.094 E8.65057
G1 X158.937 Y136.21 E8.6707
G1 X159.018 Y136.226 E8.67344
G1 X160.829 Y136.595 E8.73492
G1 X160.975 Y136.626 E8.73988
G1 X161.66 Y136.776 E8.7632
G1 X162.533 Y137.008 E8.79325
G1 X163.382 Y137.316 E8.82329
G1 X164.2 Y137.699 E8.85333
G1 X164.981 Y138.152 E8.88336
G1 X165.719 Y138.672 E8.91338
G1 X166.408 Y139.256 E8.94342
G1 X167.043 Y139.898 E8.97346
G1 X167.619 Y140.594 E9.00351
G1 X168.13 Y141.338 E9.03353
G1 X168.574 Y142.125 E9.06358
G1 X168.947 Y142.947 E9.0936
G1 X169.245 Y143.8 E9.12366
G1 X169.467 Y144.675 E9.15368
G1 X169.61 Y145.567 E9.18373
G1 X169.676 Y146.528 E9.21576
G1 X169.697 Y147.538 E9.24936
G1 X169.699 Y147.75 E9.25642
G1 X169.699 Y152.53 E9.4154
G1 X169.698 Y152.672 E9.42012
G1 X169.688 Y153.39 E9.44401
G1 X169.635 Y154.292 E9.47406
G1 X169.503 Y155.185 E9.50408
G1 X169.293 Y156.063 E9.53411
G1 X169.005 Y156.919 E9.56415
G1 X168.643 Y157.747 E9.5942
G1 X168.21 Y158.539 E9.62423
G1 X167.707 Y159.289 E9.65426
G1 X167.141 Y159.993 E9.68431
G1 X166.514 Y160.643 E9.71434
G1 X165.833 Y161.235 E9.74436
G1 X165.101 Y161.765 E9.77441
G1 X164.326 Y162.228 E9.80444
G1 X163.512 Y162.621 E9.8345
G1 X162.668 Y162.94 E9.86451
G1 X161.724 Y163.2 E9.89708
G1 X160.74 Y163.421 E9.93062
G1 X160.543 Y163.463 E9.93732
G1 X159.067 Y163.764 E9.98743
G1 X158.929 Y163.792 E9.99211
G1 X158.259 Y163.919 E10.01479
G1 X157.927 Y163.976 E10.02599
G1 X157.432 Y164.053 E10.04266
G1 X156.387 Y164.161 E10.0776
G1 X156.134 Y164.174 E10.08602
G1 X155.707 Y164.187 E10.10023
G1 X154.364 Y164.2 E10.1449
G1 X151.801 Y164.26 E10.23017
G1 X149.258 Y164.394 E10.31487
G1 X146.859 Y164.584 E10.39491
G1 X146.227 Y164.643 E10.41602
G1 X145.447 Y164.686 E10.442
G1 X145.136 Y164.691 E10.45235
G1 X144.783 Y164.69 E10.46409
G1 X144.567 Y164.686 E10.47128
G1 X143.7 Y164.633 E10.50017
G1 X143.239 Y164.585 E10.51558
G1 X142.173 Y164.417 E10.55148
G1 X141.717 Y164.32 E10.56698
G1 X140.659 Y164.035 E10.60342
G1 X140.208 Y163.887 E10.61921
G1 X139.256 Y163.52 E10.65315
G1 X138.834 Y163.333 E10.6685
G1 X137.834 Y162.823 E10.70584
G1 X137.384 Y162.561 E10.72315
G1 X136.482 Y161.97 E10.75902
G1 X136.283 Y161.824 E10.76723
G1 X135.611 Y161.286 E10.79586
G1 X135.062 Y160.807 E10.82009
G1 X134.409 Y160.184 E10.85011
G1 X134.09 Y159.836 E10.86581
G1 X133.79 Y159.493 E10.88097
G1 X133.123 Y158.643 E10.91691
G1 X132.851 Y158.256 E10.93264
G1 X132.271 Y157.33 E10.96898
G1 X132.043 Y156.918 E10.98464
G1 X131.594 Y155.999 E11.01866
G1 X131.401 Y155.549 E11.03495
G1 X130.998 Y154.435 E11.07435
G1 X130.861 Y153.974 E11.09034
G1 X130.617 Y152.972 E11.12464
G1 X130.526 Y152.493 E11.14086
G1 X130.377 Y151.368 E11.17861
G1 X130.341 Y150.898 E11.19428
G1 X130.315 Y149.846 E11.22928
G1 X130.327 Y149.398 E11.24419
G1 X130.406 Y148.369 E11.27852
G1 X130.471 Y147.864 E11.29545
G1 X130.683 Y146.732 E11.33376
G1 X130.798 Y146.264 E11.34978
G1 X131.116 Y145.216 E11.38621
G1 X131.278 Y144.77 E11.40199
G1 X131.686 Y143.803 E11.4369
G1 X131.892 Y143.378 E11.45261
G1 X132.412 Y142.436 E11.4884
G1 X132.666 Y142.028 E11.50438
G1 X133.322 Y141.095 E11.54232
G1 X133.612 Y140.728 E11.55787
G1 X134.284 Y139.96 E11.59182
G1 X134.61 Y139.623 E11.60741
G1 F1500 E5.10741
G0 F6000 X152.587 Y145.835
G0 X153.225 Y148.964
;TYPE:SUPPORT-INTERFACE
G1 F1500 E11.60741
G1 F1200 X153.357 Y148.718 E11.6167
G1 X153.427 Y148.606 E11.62109
G1 X153.612 Y148.362 E11.63127
G1 X153.643 Y148.328 E11.6328
G1 X153.874 Y148.108 E11.64341
G1 X153.888 Y148.093 E11.6441
G1 X154.07 Y147.952 E11.65175
G1 X154.178 Y147.884 E11.656
G1 X154.221 Y147.855 E11.65772
G1 X154.276 Y147.824 E11.65982
G1 X154.525 Y147.703 E11.66903
G1 X154.956 Y147.562 E11.68411
G1 X154.972 Y147.558 E11.68466
G1 X155.097 Y147.536 E11.68888
G1 X155.376 Y147.505 E11.69822
G1 X155.506 Y147.503 E11.70254
G1 X155.825 Y147.524 E11.71318
G1 X156.18 Y147.596 E11.72523
G1 X156.424 Y147.679 E11.7338
G1 X156.611 Y147.762 E11.7406
G1 X156.783 Y147.854 E11.74709
G1 X156.883 Y147.919 E11.75106
G1 X157.123 Y148.101 E11.76107
G1 X157.281 Y148.25 E11.7683
G1 X157.41 Y148.388 E11.77458
G1 X157.569 Y148.598 E11.78334
G1 X157.709 Y148.829 E11.79233
G1 X157.811 Y149.049 E11.80039
G1 X157.883 Y149.25 E11.80749
G1 X157.889 Y149.264 E11.808
G1 X157.936 Y149.441 E11.81409
G1 X157.983 Y149.705 E11.82301
G1 X157.993 Y149.811 E11.82655
G1 X158 Y149.993 E11.83261
G1 X157.988 Y150.216 E11.84004
G1 X157.945 Y150.521 E11.85028
G1 X157.941 Y150.545 E11.85109
G1 X157.899 Y150.705 E11.85659
G1 X157.827 Y150.914 E11.86394
G1 X157.74 Y151.104 E11.87089
G1 X157.736 Y151.114 E11.87125
G1 X157.609 Y151.342 E11.87993
G1 X157.502 Y151.499 E11.88625
G1 X157.42 Y151.602 E11.89063
G1 X157.248 Y151.784 E11.89896
G1 X157.249 Y151.784 E11.89899
G1 X157.214 Y151.819 E11.90064
G1 X157.037 Y151.969 E11.90836
G1 X156.791 Y152.139 E11.9183
G1 X156.606 Y152.24 E11.92531
G1 X156.373 Y152.34 E11.93375
G1 X156.144 Y152.414 E11.94175
G1 X155.907 Y152.465 E11.94981
G1 X155.676 Y152.492 E11.95755
G1 X155.505 Y152.5 E11.96324
G1 X155.316 Y152.491 E11.96954
G1 X155.096 Y152.467 E11.9769
G1 X154.989 Y152.447 E11.98052
G1 X154.704 Y152.367 E11.99036
G1 X154.518 Y152.296 E11.99698
G1 X154.329 Y152.206 E12.00395
G1 X154.217 Y152.145 E12.00819
G1 X153.984 Y151.986 E12.01757
G1 X153.852 Y151.877 E12.02326
G1 X153.685 Y151.716 E12.03098
G1 X153.533 Y151.54 E12.03871
G1 X153.364 Y151.295 E12.04861
G1 X153.358 Y151.286 E12.04897
G1 X153.257 Y151.095 E12.05616
G1 X153.173 Y150.907 E12.06301
G1 X153.107 Y150.716 E12.06973
G1 X153.053 Y150.489 E12.07749
G1 X153.042 Y150.437 E12.07926
G1 X153.021 Y150.291 E12.08416
G1 X153.009 Y150.117 E12.08996
G1 X153.005 Y149.876 E12.09798
G1 X153.025 Y149.68 E12.10453
G1 X153.028 Y149.646 E12.10567
G1 X153.061 Y149.452 E12.11221
G1 X153.107 Y149.281 E12.1181
G1 X153.181 Y149.067 E12.12564
G1 X153.225 Y148.964 E12.12936
G0 F6000 X153.21 Y149.816
G1 F1200 X155.682 Y152.288 E12.24564
G0 F6000 X153.861 Y151.608
G1 F1200 X157.107 Y148.362 E12.39832
G0 F6000 X154.658 Y147.87
G1 F1200 X157.637 Y150.849 E12.53844
G1 F1500 E6.03844
;MESH:0.5mm Servo Horn.stl
G0 F6000 X160.164 Y150.849
G0 X160.161 Y153.409
G0 X159.773 Y153.887
G0 X155.968 Y154.642
G0 X155.133 Y154.633
