;FLAVOR:Marlin
;TIME:2368
;Filament used: 2.78113m
;Layer height: 0.32
;MINX:120.072
;MINY:120.058
;MINZ:0.32
;MAXX:179.929
;MAXY:179.783
;MAXZ:37.64
;Generated with Cura_SteamEngine 4.3.0
M140 S60
M105
M190 S60
M104 S200
M105
M109 S200
M82 ;absolute extrusion mode
M201 X500.00 Y500.00 Z100.00 E5000.00 ;Setup machine max acceleration
M203 X500.00 Y500.00 Z10.00 E50.00 ;Setup machine max feedrate
M204 P500.00 R1000.00 T500.00 ;Setup Print/Retract/Travel acceleration
M205 X8.00 Y8.00 Z0.40 E5.00 ;Setup Jerk
M220 S100 ;Reset Feedrate
M221 S100 ;Reset Flowrate

G28 ;Home

G92 E0 ;Reset Extruder
G1 Z2.0 F3000 ;Move Z Axis up
G1 X10.1 Y20 Z0.28 F5000.0 ;Move to start position
G1 X10.1 Y200.0 Z0.28 F1500.0 E15 ;Draw the first line
G1 X10.4 Y200.0 Z0.28 F5000.0 ;Move to side a little
G1 X10.4 Y20 Z0.28 F1500.0 E30 ;Draw the second line
G92 E0 ;Reset Extruder
G1 Z2.0 F3000 ;Move Z Axis up

G92 E0
G92 E0
G1 F1500 E-6.5
;LAYER_COUNT:119
;LAYER:0
M107
G1 F300 Z0.52
G0 F6000 X128.958 Y128.636 Z0.52
;TYPE:SKIRT
G1 F300 Z0.32
G1 F1500 E0
G1 F1200 X129.417 Y128.188 E0.03584
G1 X129.694 Y127.927 E0.05711
G1 X129.985 Y127.662 E0.0791
G1 X130.27 Y127.411 E0.10032
G1 X130.808 Y126.954 E0.13976
G1 X131.129 Y126.691 E0.16295
G1 X131.644 Y126.286 E0.19956
G1 X131.953 Y126.052 E0.22122
G1 X132.228 Y125.851 E0.24025
G1 X132.521 Y125.644 E0.2603
G1 X133.194 Y125.185 E0.30581
G1 X133.523 Y124.969 E0.32781
G1 X133.802 Y124.793 E0.34624
G1 X134.104 Y124.61 E0.36597
G1 X134.743 Y124.235 E0.40737
G1 X135.08 Y124.045 E0.42899
G1 X135.611 Y123.758 E0.46271
G1 X135.914 Y123.6 E0.48181
G1 X136.419 Y123.347 E0.51337
G1 X136.705 Y123.209 E0.53111
G1 X137.21 Y122.974 E0.56224
G1 X137.487 Y122.85 E0.57919
G1 X137.922 Y122.662 E0.60567
G1 X138.212 Y122.541 E0.62323
G1 X139.022 Y122.218 E0.67196
G1 X139.302 Y122.111 E0.68871
G1 X139.634 Y121.989 E0.70847
G1 X139.906 Y121.893 E0.72459
G1 X140.696 Y121.626 E0.77118
G1 X141.001 Y121.528 E0.78909
G1 X141.534 Y121.365 E0.82023
G1 X141.806 Y121.286 E0.83606
G1 X142.353 Y121.134 E0.86778
G1 X142.641 Y121.058 E0.88442
G1 X143.36 Y120.879 E0.92582
G1 X143.689 Y120.802 E0.9447
G1 X144.22 Y120.687 E0.97506
G1 X144.546 Y120.622 E0.99364
G1 X145.286 Y120.485 E1.03569
G1 X145.646 Y120.424 E1.05609
G1 X146.103 Y120.355 E1.08192
G1 X146.444 Y120.309 E1.10114
G1 X147.149 Y120.225 E1.14082
G1 X147.551 Y120.185 E1.16339
G1 X148.368 Y120.118 E1.20919
G1 X148.762 Y120.093 E1.23125
G1 X149.262 Y120.07 E1.25922
G1 X149.823 Y120.058 E1.29058
G1 X150.417 Y120.061 E1.32377
G1 X150.897 Y120.074 E1.3506
G1 X151.184 Y120.088 E1.36665
G1 X151.532 Y120.111 E1.38614
G1 X152.512 Y120.19 E1.44108
G1 X152.896 Y120.227 E1.46263
G1 X153.344 Y120.279 E1.48784
G1 X153.742 Y120.333 E1.51028
G1 X154.558 Y120.458 E1.55641
G1 X154.895 Y120.515 E1.5755
G1 X155.3 Y120.59 E1.59852
G1 X155.619 Y120.654 E1.6167
G1 X156.411 Y120.825 E1.66197
G1 X156.757 Y120.905 E1.68182
G1 X157.321 Y121.046 E1.7143
G1 X157.565 Y121.111 E1.72841
G1 X158.115 Y121.262 E1.76028
G1 X158.436 Y121.355 E1.77895
G1 X159.067 Y121.549 E1.81584
G1 X159.34 Y121.637 E1.83187
G1 X160.015 Y121.864 E1.87166
G1 X160.311 Y121.968 E1.88919
G1 X160.759 Y122.133 E1.91587
G1 X161.037 Y122.24 E1.93251
G1 X161.768 Y122.532 E1.9765
G1 X162.038 Y122.644 E1.99283
G1 X162.463 Y122.827 E2.01869
G1 X162.743 Y122.952 E2.03582
G1 X163.284 Y123.203 E2.06915
G1 X163.566 Y123.339 E2.08664
G1 X164.105 Y123.608 E2.1203
G1 X164.443 Y123.784 E2.14159
G1 X164.964 Y124.067 E2.17472
G1 X165.28 Y124.245 E2.19499
G1 X165.73 Y124.509 E2.22414
G1 X166.019 Y124.685 E2.24305
G1 X166.582 Y125.039 E2.28021
G1 X166.918 Y125.258 E2.30262
G1 X167.435 Y125.61 E2.33757
G1 X167.73 Y125.818 E2.35774
G1 X168.03 Y126.037 E2.37849
G1 X168.344 Y126.276 E2.40054
G1 X168.864 Y126.685 E2.43751
G1 X169.185 Y126.947 E2.46066
G1 X169.716 Y127.398 E2.49959
G1 X170.008 Y127.655 E2.52132
G1 X170.338 Y127.956 E2.54628
G1 X170.594 Y128.197 E2.56593
G1 X170.994 Y128.586 E2.59711
G1 X171.269 Y128.863 E2.61892
G1 X171.632 Y129.242 E2.64824
G1 X171.898 Y129.53 E2.67015
G1 X172.359 Y130.047 E2.70885
G1 X172.633 Y130.367 E2.73239
G1 X172.954 Y130.756 E2.76057
G1 X173.168 Y131.023 E2.77969
G1 X173.521 Y131.479 E2.81191
G1 X173.76 Y131.8 E2.83428
G1 X174.141 Y132.331 E2.87079
G1 X174.344 Y132.624 E2.89071
G1 X174.575 Y132.969 E2.91391
G1 X174.769 Y133.269 E2.93387
G1 X175.155 Y133.888 E2.97464
G1 X175.342 Y134.199 E2.99491
G1 X175.618 Y134.676 E3.02571
G1 X175.798 Y134.999 E3.04637
G1 X176.076 Y135.519 E3.07932
G1 X176.221 Y135.8 E3.09699
G1 X176.491 Y136.342 E3.13082
G1 X176.644 Y136.662 E3.15064
G1 X176.882 Y137.181 E3.18254
G1 X177.017 Y137.489 E3.20133
G1 X177.304 Y138.169 E3.24258
G1 X177.418 Y138.447 E3.25937
G1 X177.617 Y138.957 E3.28996
G1 X177.732 Y139.266 E3.30838
G1 X177.962 Y139.912 E3.34669
G1 X178.054 Y140.182 E3.36263
G1 X178.229 Y140.717 E3.39409
G1 X178.321 Y141.014 E3.41146
G1 X178.528 Y141.713 E3.45219
G1 X178.6 Y141.966 E3.46689
G1 X178.763 Y142.569 E3.5018
G1 X178.834 Y142.847 E3.51783
G1 X179.003 Y143.544 E3.5579
G1 X179.055 Y143.766 E3.57064
G1 X179.19 Y144.378 E3.60566
G1 X179.25 Y144.671 E3.62237
G1 X179.395 Y145.425 E3.66528
G1 X179.44 Y145.674 E3.67942
G1 X179.563 Y146.404 E3.72078
G1 X179.603 Y146.661 E3.73531
G1 X179.717 Y147.451 E3.77991
G1 X179.748 Y147.678 E3.79272
G1 X179.806 Y148.149 E3.81923
G1 X179.833 Y148.391 E3.83284
G1 X179.875 Y148.808 E3.85626
G1 X179.929 Y149.744 E3.90865
G1 X179.873 Y151.032 E3.98068
G1 X179.817 Y151.578 E4.01135
G1 X179.787 Y151.833 E4.0257
G1 X179.722 Y152.348 E4.0547
G1 X179.693 Y152.563 E4.06683
G1 X179.583 Y153.315 E4.10929
G1 X179.543 Y153.568 E4.12361
G1 X179.461 Y154.05 E4.15093
G1 X179.422 Y154.267 E4.16324
G1 X179.251 Y155.163 E4.21421
G1 X179.197 Y155.427 E4.22927
G1 X179.083 Y155.954 E4.2594
G1 X179.027 Y156.202 E4.27361
G1 X178.839 Y156.983 E4.31849
G1 X178.763 Y157.279 E4.33557
G1 X178.61 Y157.845 E4.36833
G1 X178.54 Y158.093 E4.38273
G1 X178.334 Y158.79 E4.42334
G1 X178.236 Y159.102 E4.44161
G1 X178.043 Y159.69 E4.47619
G1 X177.958 Y159.94 E4.49095
G1 X177.761 Y160.495 E4.52386
G1 X177.648 Y160.799 E4.54198
G1 X177.404 Y161.427 E4.57963
G1 X177.283 Y161.725 E4.5976
G1 X177.029 Y162.326 E4.63405
G1 X176.895 Y162.63 E4.65262
G1 X176.645 Y163.175 E4.68612
G1 X176.502 Y163.475 E4.70469
G1 X176.269 Y163.945 E4.734
G1 X176.123 Y164.231 E4.75195
G1 X175.797 Y164.843 E4.79069
G1 X175.61 Y165.178 E4.81213
G1 X175.359 Y165.612 E4.84015
G1 X175.177 Y165.915 E4.8599
G1 X174.782 Y166.55 E4.90168
G1 X174.587 Y166.853 E4.92182
G1 X174.343 Y167.218 E4.94635
G1 X174.134 Y167.519 E4.96682
G1 X173.783 Y168.008 E5.00046
G1 X173.557 Y168.313 E5.02167
G1 X173.169 Y168.816 E5.05717
G1 X172.939 Y169.104 E5.07776
G1 X172.644 Y169.461 E5.10364
G1 X172.38 Y169.768 E5.12626
G1 X171.918 Y170.287 E5.16509
G1 X171.655 Y170.572 E5.18676
G1 X171.312 Y170.931 E5.2145
G1 X171.042 Y171.204 E5.23596
G1 X170.583 Y171.652 E5.2718
G1 X170.307 Y171.912 E5.29298
G1 X170.004 Y172.188 E5.31588
G1 X169.72 Y172.438 E5.33703
G1 X169.214 Y172.868 E5.37413
G1 X168.904 Y173.122 E5.39652
G1 X168.402 Y173.518 E5.43225
G1 X168.078 Y173.764 E5.45498
G1 X167.692 Y174.046 E5.48169
G1 X167.388 Y174.261 E5.5025
G1 X166.832 Y174.639 E5.54007
G1 X166.524 Y174.84 E5.56062
G1 X166.206 Y175.041 E5.58164
G1 X165.892 Y175.233 E5.6022
G1 X165.254 Y175.607 E5.64353
G1 X164.931 Y175.789 E5.66424
G1 X164.368 Y176.094 E5.70002
G1 X164.056 Y176.256 E5.71967
G1 X163.625 Y176.472 E5.7466
G1 X163.346 Y176.607 E5.76392
G1 X162.782 Y176.87 E5.7987
G1 X162.479 Y177.006 E5.81725
G1 X162.021 Y177.203 E5.84511
G1 X161.753 Y177.314 E5.86132
G1 X161.069 Y177.587 E5.90247
G1 X160.794 Y177.693 E5.91894
G1 X160.3 Y177.875 E5.94836
G1 X160.01 Y177.977 E5.96553
G1 X159.372 Y178.192 E6.00315
G1 X159.087 Y178.284 E6.01989
G1 X158.442 Y178.482 E6.05759
G1 X158.146 Y178.568 E6.07481
G1 X157.582 Y178.724 E6.10751
G1 X157.309 Y178.796 E6.12329
G1 X156.731 Y178.94 E6.15657
G1 X156.396 Y179.018 E6.17579
G1 X155.665 Y179.176 E6.21758
G1 X155.35 Y179.239 E6.23553
G1 X154.844 Y179.333 E6.26429
G1 X154.503 Y179.391 E6.28361
G1 X153.923 Y179.48 E6.3164
G1 X153.546 Y179.531 E6.33766
G1 X152.742 Y179.626 E6.3829
G1 X152.337 Y179.666 E6.40564
G1 X151.656 Y179.721 E6.44381
G1 X151.308 Y179.744 E6.4633
G1 X150.838 Y179.767 E6.4896
G1 X150.519 Y179.778 E6.50743
G1 X150.318 Y179.782 E6.51866
G1 X149.937 Y179.783 E6.53995
G1 X149.529 Y179.777 E6.56275
G1 X149.176 Y179.766 E6.58249
G1 X148.728 Y179.745 E6.60755
G1 X148.357 Y179.721 E6.62832
G1 X147.577 Y179.658 E6.67205
G1 X147.161 Y179.617 E6.69541
G1 X146.49 Y179.537 E6.73316
G1 X146.145 Y179.49 E6.75262
G1 X145.597 Y179.407 E6.78359
G1 X145.243 Y179.347 E6.80365
G1 X144.67 Y179.241 E6.83621
G1 X144.338 Y179.175 E6.85513
G1 X143.541 Y179.002 E6.9007
G1 X143.231 Y178.93 E6.91848
G1 X142.718 Y178.803 E6.94801
G1 X142.411 Y178.722 E6.96575
G1 X141.908 Y178.582 E6.99493
G1 X141.644 Y178.505 E7.01029
G1 X140.865 Y178.267 E7.05581
G1 X140.55 Y178.166 E7.07429
G1 X140.051 Y177.997 E7.10373
G1 X139.796 Y177.907 E7.11884
G1 X139.13 Y177.663 E7.15847
G1 X138.839 Y177.551 E7.1759
G1 X138.34 Y177.352 E7.20591
G1 X138.062 Y177.237 E7.22273
G1 X137.519 Y177.003 E7.25576
G1 X137.243 Y176.88 E7.27265
G1 X136.661 Y176.61 E7.3085
G1 X136.361 Y176.465 E7.32712
G1 X135.942 Y176.255 E7.3533
G1 X135.638 Y176.097 E7.37245
G1 X135.026 Y175.766 E7.41133
G1 X134.711 Y175.588 E7.43154
G1 X134.295 Y175.345 E7.45846
G1 X133.967 Y175.146 E7.4799
G1 X133.372 Y174.77 E7.51923
G1 X133.063 Y174.568 E7.53986
G1 X132.66 Y174.294 E7.56709
G1 X132.337 Y174.065 E7.58921
G1 X131.811 Y173.679 E7.62567
G1 X131.508 Y173.448 E7.64696
G1 X131.21 Y173.213 E7.66816
G1 X130.908 Y172.966 E7.68996
G1 X130.251 Y172.409 E7.73809
G1 X129.948 Y172.144 E7.76058
G1 X129.673 Y171.893 E7.78139
G1 X129.417 Y171.651 E7.80107
G1 X129.005 Y171.25 E7.8332
G1 X128.724 Y170.966 E7.85552
G1 X128.359 Y170.584 E7.88505
G1 X128.105 Y170.31 E7.90592
G1 X127.615 Y169.761 E7.94704
G1 X127.34 Y169.44 E7.97066
G1 X127.065 Y169.107 E7.99479
G1 X126.833 Y168.816 E8.01559
G1 X126.434 Y168.298 E8.05212
G1 X126.22 Y168.011 E8.07213
G1 X125.881 Y167.54 E8.10455
G1 X125.669 Y167.234 E8.12535
G1 X125.438 Y166.889 E8.14855
G1 X125.245 Y166.59 E8.16844
G1 X124.814 Y165.899 E8.21394
G1 X124.61 Y165.559 E8.2361
G1 X124.383 Y165.164 E8.26156
G1 X124.231 Y164.891 E8.27902
G1 X123.916 Y164.305 E8.31619
G1 X123.744 Y163.971 E8.33718
G1 X123.483 Y163.443 E8.37009
G1 X123.354 Y163.174 E8.38676
G1 X123.147 Y162.725 E8.41439
G1 X123.001 Y162.394 E8.4346
G1 X122.697 Y161.673 E8.47833
G1 X122.578 Y161.379 E8.49605
G1 X122.37 Y160.843 E8.52818
G1 X122.266 Y160.563 E8.54486
G1 X122.056 Y159.975 E8.57975
G1 X121.961 Y159.697 E8.59617
G1 X121.76 Y159.083 E8.63227
G1 X121.67 Y158.794 E8.64918
G1 X121.476 Y158.141 E8.68725
G1 X121.4 Y157.873 E8.70281
G1 X121.233 Y157.254 E8.73864
G1 X121.165 Y156.99 E8.75387
G1 X121.009 Y156.349 E8.79073
G1 X120.953 Y156.108 E8.80456
G1 X120.799 Y155.407 E8.84466
G1 X120.738 Y155.108 E8.86171
G1 X120.602 Y154.395 E8.90227
G1 X120.559 Y154.154 E8.91595
G1 X120.437 Y153.427 E8.95714
G1 X120.398 Y153.182 E8.971
G1 X120.274 Y152.325 E9.01939
G1 X120.245 Y152.108 E9.03162
G1 X120.196 Y151.714 E9.05381
G1 X120.165 Y151.435 E9.06949
G1 X120.124 Y151.019 E9.09285
G1 X120.072 Y150.082 E9.14529
G1 X120.123 Y148.872 E9.21296
G1 X120.178 Y148.308 E9.24462
G1 X120.215 Y147.977 E9.26323
G1 X120.28 Y147.47 E9.29179
G1 X120.307 Y147.277 E9.30268
G1 X120.417 Y146.525 E9.34515
G1 X120.457 Y146.272 E9.35946
G1 X120.539 Y145.79 E9.38678
G1 X120.578 Y145.573 E9.3991
G1 X120.749 Y144.677 E9.45007
G1 X120.803 Y144.413 E9.46513
G1 X120.917 Y143.886 E9.49526
G1 X120.975 Y143.631 E9.50987
G1 X121.165 Y142.844 E9.55511
G1 X121.237 Y142.561 E9.57142
G1 X121.381 Y142.027 E9.60233
G1 X121.456 Y141.764 E9.61761
G1 X121.676 Y141.022 E9.66086
G1 X121.766 Y140.731 E9.67788
G1 X121.952 Y140.162 E9.71133
G1 X122.042 Y139.9 E9.7268
G1 X122.239 Y139.345 E9.75971
G1 X122.352 Y139.041 E9.77783
G1 X122.596 Y138.413 E9.81548
G1 X122.714 Y138.12 E9.83313
G1 X122.971 Y137.511 E9.87007
G1 X123.114 Y137.189 E9.88975
G1 X123.363 Y136.648 E9.92303
G1 X123.499 Y136.362 E9.94073
G1 X123.73 Y135.896 E9.96979
G1 X123.877 Y135.609 E9.98781
G1 X124.203 Y134.997 E10.02655
G1 X124.39 Y134.662 E10.04799
G1 X124.641 Y134.228 E10.076
G1 X124.823 Y133.925 E10.09575
G1 X125.218 Y133.29 E10.13754
G1 X125.413 Y132.987 E10.15767
G1 X125.657 Y132.622 E10.18221
G1 X125.866 Y132.321 E10.20268
G1 X126.217 Y131.832 E10.23632
G1 X126.443 Y131.527 E10.25753
G1 X126.831 Y131.024 E10.29302
G1 X127.061 Y130.736 E10.31362
G1 X127.356 Y130.379 E10.3395
G1 X127.62 Y130.072 E10.36212
G1 X128.082 Y129.553 E10.40095
G1 X128.345 Y129.268 E10.42262
G1 X128.688 Y128.909 E10.45036
G1 X128.958 Y128.636 E10.47181
G0 F6000 X129.237 Y128.922
G1 F1200 X129.696 Y128.474 E10.50765
G1 X129.963 Y128.223 E10.52813
G1 X130.254 Y127.958 E10.55012
G1 X130.529 Y127.716 E10.57059
G1 X131.067 Y127.259 E10.61003
G1 X131.377 Y127.006 E10.63239
G1 X131.892 Y126.601 E10.669
G1 X132.189 Y126.375 E10.68986
G1 X132.464 Y126.174 E10.70889
G1 X132.746 Y125.975 E10.72818
G1 X133.419 Y125.516 E10.77369
G1 X133.737 Y125.308 E10.79493
G1 X134.016 Y125.132 E10.81336
G1 X134.306 Y124.955 E10.83234
G1 X134.945 Y124.58 E10.87374
G1 X135.27 Y124.397 E10.89458
G1 X135.801 Y124.11 E10.92831
G1 X136.093 Y123.958 E10.94671
G1 X136.598 Y123.705 E10.97827
G1 X136.874 Y123.572 E10.99539
G1 X137.379 Y123.337 E11.02651
G1 X137.646 Y123.217 E11.04287
G1 X138.081 Y123.029 E11.06935
G1 X138.36 Y122.913 E11.08623
G1 X139.17 Y122.59 E11.13495
G1 X139.44 Y122.486 E11.15112
G1 X139.772 Y122.364 E11.17089
G1 X140.034 Y122.272 E11.1864
G1 X140.824 Y122.005 E11.233
G1 X141.118 Y121.91 E11.25026
G1 X141.651 Y121.747 E11.28141
G1 X141.913 Y121.671 E11.29665
G1 X142.46 Y121.519 E11.32837
G1 X142.737 Y121.446 E11.34438
G1 X143.456 Y121.267 E11.38578
G1 X143.773 Y121.193 E11.40397
G1 X144.304 Y121.078 E11.43433
G1 X144.618 Y121.015 E11.45222
G1 X145.358 Y120.878 E11.49428
G1 X145.705 Y120.82 E11.51393
G1 X146.162 Y120.751 E11.53976
G1 X146.491 Y120.706 E11.55831
G1 X147.196 Y120.622 E11.59799
G1 X147.584 Y120.583 E11.61977
G1 X148.401 Y120.516 E11.66558
G1 X148.78 Y120.492 E11.6868
G1 X149.28 Y120.469 E11.71477
G1 X149.821 Y120.458 E11.745
G1 X150.415 Y120.461 E11.77819
G1 X150.877 Y120.474 E11.80402
G1 X151.164 Y120.488 E11.82008
G1 X151.5 Y120.509 E11.83889
G1 X152.48 Y120.588 E11.89382
G1 X152.85 Y120.625 E11.9146
G1 X153.298 Y120.677 E11.9398
G1 X153.681 Y120.728 E11.96139
G1 X154.497 Y120.853 E12.00752
G1 X154.822 Y120.908 E12.02594
G1 X155.227 Y120.983 E12.04895
G1 X155.534 Y121.045 E12.06645
G1 X156.326 Y121.216 E12.11173
G1 X156.66 Y121.293 E12.13088
G1 X157.224 Y121.434 E12.16337
G1 X157.459 Y121.496 E12.17695
G1 X158.009 Y121.647 E12.20882
G1 X158.318 Y121.737 E12.2268
G1 X158.949 Y121.931 E12.26369
G1 X159.213 Y122.016 E12.27918
G1 X159.888 Y122.243 E12.31898
G1 X160.172 Y122.343 E12.3358
G1 X160.62 Y122.508 E12.36248
G1 X160.889 Y122.611 E12.37857
G1 X161.62 Y122.903 E12.42256
G1 X161.88 Y123.011 E12.43829
G1 X162.305 Y123.194 E12.46414
G1 X162.574 Y123.314 E12.4806
G1 X163.115 Y123.565 E12.51393
G1 X163.387 Y123.697 E12.53082
G1 X163.926 Y123.966 E12.56448
G1 X164.253 Y124.135 E12.58505
G1 X164.774 Y124.418 E12.61818
G1 X165.078 Y124.59 E12.63769
G1 X165.528 Y124.854 E12.66685
G1 X165.806 Y125.023 E12.68503
G1 X166.369 Y125.377 E12.72219
G1 X166.693 Y125.589 E12.74382
G1 X167.21 Y125.941 E12.77877
G1 X167.494 Y126.142 E12.79821
G1 X167.794 Y126.361 E12.81897
G1 X168.097 Y126.59 E12.84019
G1 X168.617 Y126.999 E12.87716
G1 X168.926 Y127.252 E12.89947
G1 X169.457 Y127.703 E12.9384
G1 X169.738 Y127.95 E12.9593
G1 X170.068 Y128.251 E12.98426
G1 X170.315 Y128.484 E13.00324
G1 X170.715 Y128.873 E13.03441
G1 X170.98 Y129.14 E13.05543
G1 X171.343 Y129.519 E13.08476
G1 X171.6 Y129.796 E13.10587
G1 X172.061 Y130.313 E13.14458
G1 X172.325 Y130.621 E13.16724
G1 X172.646 Y131.01 E13.19542
G1 X172.852 Y131.268 E13.21387
G1 X173.205 Y131.724 E13.24609
G1 X173.435 Y132.033 E13.26762
G1 X173.816 Y132.564 E13.30414
