;FLAVOR:Marlin
;TIME:13438
;Filament used: 13.6428m
;Layer height: 0.32
;MINX:107.35
;MINY:101.635
;MINZ:0.32
;MAXX:192.65
;MAXY:198.365
;MAXZ:53.32
;Generated with Cura_SteamEngine 4.3.0
M140 S60
M105
M190 S60
M104 S205
M105
M109 S205
M82 ;absolute extrusion mode
M201 X500.00 Y500.00 Z100.00 E5000.00 ;Setup machine max acceleration
M203 X500.00 Y500.00 Z10.00 E50.00 ;Setup machine max feedrate
M204 P500.00 R1000.00 T500.00 ;Setup Print/Retract/Travel acceleration
M205 X8.00 Y8.00 Z0.40 E5.00 ;Setup Jerk
M220 S100 ;Reset Feedrate
M221 S100 ;Reset Flowrate

G28 ;Home

G92 E0 ;Reset Extruder
G1 Z2.0 F3000 ;Move Z Axis up
G1 X10.1 Y20 Z0.28 F5000.0 ;Move to start position
G1 X10.1 Y200.0 Z0.28 F1500.0 E15 ;Draw the first line
G1 X10.4 Y200.0 Z0.28 F5000.0 ;Move to side a little
G1 X10.4 Y20 Z0.28 F1500.0 E30 ;Draw the second line
G92 E0 ;Reset Extruder
G1 Z2.0 F3000 ;Move Z Axis up

G92 E0
G92 E0
G1 F1500 E-6.5
;LAYER_COUNT:166
;LAYER:0
M107
G1 F300 Z0.52
G0 F6000 X110.555 Y117.593 Z0.52
;TYPE:SKIRT
G1 F300 Z0.32
G1 F1500 E0
G1 F1200 X111.243 Y116.956 E0.0499
G1 X111.984 Y116.381 E0.09981
G1 X112.422 Y116.084 E0.12797
G1 X113.091 Y115.655 E0.17026
G1 X115.21 Y114.264 E0.30515
G1 X117.311 Y112.798 E0.44149
G1 X119.312 Y111.317 E0.57397
G1 X121.275 Y109.775 E0.70681
G1 X123.229 Y108.149 E0.84209
G1 X125.161 Y106.446 E0.97914
G1 X126.221 Y105.47 E1.05582
G1 X127.131 Y104.618 E1.12216
G1 X127.842 Y104.007 E1.17205
G1 X128.603 Y103.458 E1.22198
G1 X129.408 Y102.977 E1.27189
G1 X130.251 Y102.565 E1.32182
G1 X131.125 Y102.227 E1.37169
G1 X132.026 Y101.965 E1.42162
G1 X132.945 Y101.78 E1.47151
G1 X133.877 Y101.674 E1.52143
G1 X134.483 Y101.648 E1.5537
G1 X135.274 Y101.636 E1.5958
G1 X135.441 Y101.635 E1.60469
G1 X138.126 Y101.635 E1.74758
G1 X138.284 Y101.636 E1.75598
G1 X138.982 Y101.646 E1.79313
G1 X139.897 Y101.697 E1.8419
G1 X141.03 Y101.808 E1.90248
G1 X141.193 Y101.826 E1.91121
G1 X141.628 Y101.875 E1.93451
G1 X144.157 Y102.09 E2.06958
G1 X146.676 Y102.231 E2.20384
G1 X149.197 Y102.302 E2.33805
G1 X151.721 Y102.3 E2.47237
G1 X154.21 Y102.229 E2.60487
G1 X156.743 Y102.084 E2.73989
G1 X159.268 Y101.869 E2.87475
G1 X160.622 Y101.724 E2.94722
G1 X161.184 Y101.678 E2.97722
G1 X161.65 Y101.652 E3.00206
G1 X162.263 Y101.635 E3.0347
G1 X165.412 Y101.635 E3.20227
G1 X165.57 Y101.636 E3.21068
G1 X166.268 Y101.646 E3.24783
G1 X167.204 Y101.7 E3.29772
G1 X168.132 Y101.832 E3.3476
G1 X169.046 Y102.044 E3.39754
G1 X169.938 Y102.333 E3.44743
G1 X170.803 Y102.696 E3.49736
G1 X171.633 Y103.132 E3.54725
G1 X172.424 Y103.637 E3.59719
G1 X173.168 Y104.208 E3.6471
G1 X173.794 Y104.774 E3.69201
G1 X174.307 Y105.275 E3.73017
G1 X176.242 Y107.128 E3.87274
G1 X178.096 Y108.805 E4.00578
G1 X180.042 Y110.47 E4.14207
G1 X181.969 Y112.022 E4.27374
G1 X183.974 Y113.548 E4.40783
G1 X186.03 Y115.022 E4.54245
G1 X187.354 Y115.917 E4.6275
G1 X187.471 Y115.997 E4.63504
G1 X187.913 Y116.304 E4.66368
G1 X188.66 Y116.872 E4.71362
G1 X189.356 Y117.501 E4.76354
G1 X189.995 Y118.187 E4.81343
G1 X190.574 Y118.925 E4.86335
G1 X191.088 Y119.709 E4.91324
G1 X191.533 Y120.535 E4.96317
G1 X191.907 Y121.395 E5.01308
G1 X192.205 Y122.284 E5.06297
G1 X192.427 Y123.195 E5.11287
G1 X192.57 Y124.122 E5.16279
G1 X192.631 Y124.934 E5.20612
G1 X192.643 Y125.26 E5.22348
G1 X192.65 Y125.665 E5.24504
G1 X192.65 Y186.629 E8.48931
G1 X192.649 Y186.765 E8.49655
G1 X192.64 Y187.492 E8.53524
G1 X192.589 Y188.429 E8.58518
G1 X192.457 Y189.357 E8.63506
G1 X192.248 Y190.271 E8.68495
G1 X191.961 Y191.164 E8.73487
G1 X191.599 Y192.03 E8.78482
G1 X191.165 Y192.861 E8.83471
G1 X190.661 Y193.652 E8.88462
G1 X190.092 Y194.397 E8.93451
G1 X189.461 Y195.092 E8.98446
G1 X188.774 Y195.73 E9.03436
G1 X188.035 Y196.307 E9.08425
G1 X187.249 Y196.819 E9.13417
G1 X186.423 Y197.262 E9.18405
G1 X185.561 Y197.634 E9.23401
G1 X184.672 Y197.93 E9.28387
G1 X183.76 Y198.15 E9.3338
G1 X182.833 Y198.291 E9.3837
G1 X181.949 Y198.352 E9.43085
G1 X181.628 Y198.361 E9.44794
G1 X181.32 Y198.365 E9.46433
G1 X119.057 Y198.365 E12.77774
G1 X118.915 Y198.364 E12.78529
G1 X118.217 Y198.355 E12.82244
G1 X117.281 Y198.303 E12.87233
G1 X116.352 Y198.171 E12.92226
G1 X115.438 Y197.961 E12.97217
G1 X114.545 Y197.674 E13.02209
G1 X113.68 Y197.311 E13.07201
G1 X112.849 Y196.877 E13.1219
G1 X112.058 Y196.373 E13.17181
G1 X111.313 Y195.803 E13.22173
G1 X110.619 Y195.172 E13.27164
G1 X109.982 Y194.485 E13.3215
G1 X109.405 Y193.745 E13.37144
G1 X108.893 Y192.959 E13.42136
G1 X108.45 Y192.132 E13.47128
G1 X108.079 Y191.271 E13.52117
G1 X107.783 Y190.381 E13.57109
G1 X107.564 Y189.469 E13.621
G1 X107.423 Y188.542 E13.6709
G1 X107.363 Y187.653 E13.71832
G1 X107.354 Y187.32 E13.73604
G1 X107.35 Y187.023 E13.75185
G1 X107.35 Y126.042 E16.99703
G1 X107.351 Y125.884 E17.00544
G1 X107.361 Y125.186 E17.04259
G1 X107.415 Y124.25 E17.09248
G1 X107.547 Y123.322 E17.14236
G1 X107.759 Y122.408 E17.19229
G1 X108.048 Y121.516 E17.24219
G1 X108.411 Y120.651 E17.29211
G1 X108.847 Y119.821 E17.342
G1 X109.352 Y119.03 E17.39194
G1 X109.923 Y118.286 E17.44185
G1 X110.555 Y117.593 E17.49177
G0 F6000 X110.947 Y117.768
G1 F1200 X111.632 Y117.153 E17.54076
G1 X112.638 Y116.421 E17.60696
G1 X113.283 Y116.008 E17.64772
G1 X115.437 Y114.594 E17.78484
G1 X117.532 Y113.131 E17.92082
G1 X119.552 Y111.637 E18.05453
G1 X121.554 Y110.064 E18.19002
G1 X123.483 Y108.458 E18.32359
G1 X125.414 Y106.757 E18.46054
G1 X126.484 Y105.772 E18.53793
G1 X127.404 Y104.91 E18.60502
G1 X128.103 Y104.31 E18.65404
G1 X128.851 Y103.774 E18.70301
G1 X129.643 Y103.304 E18.75202
G1 X130.473 Y102.905 E18.80103
G1 X131.334 Y102.579 E18.85003
G1 X132.22 Y102.329 E18.89902
G1 X133.124 Y102.157 E18.94799
G1 X134.489 Y102.048 E19.02086
G1 X135.28 Y102.036 E19.06296
G1 X135.441 Y102.035 E19.07153
G1 X138.126 Y102.035 E19.21441
G1 X138.278 Y102.036 E19.2225
G1 X138.976 Y102.046 E19.25965
G1 X139.858 Y102.096 E19.30666
G1 X140.991 Y102.207 E19.36724
G1 X141.148 Y102.223 E19.37564
G1 X141.62 Y102.276 E19.40092
G1 X144.135 Y102.49 E19.53524
G1 X146.643 Y102.631 E19.66892
G1 X149.186 Y102.702 E19.8043
G1 X151.697 Y102.7 E19.93792
G1 X154.245 Y102.627 E20.07358
G1 X156.764 Y102.484 E20.20784
G1 X159.345 Y102.264 E20.34569
G1 X160.665 Y102.122 E20.41634
G1 X161.207 Y102.077 E20.44528
G1 X161.673 Y102.051 E20.47012
G1 X162.263 Y102.035 E20.50153
G1 X165.412 Y102.035 E20.66911
G1 X165.564 Y102.036 E20.6772
G1 X166.262 Y102.046 E20.71435
G1 X167.181 Y102.099 E20.76333
G1 X168.092 Y102.232 E20.81233
G1 X168.988 Y102.443 E20.86131
G1 X169.862 Y102.731 E20.91028
G1 X170.709 Y103.094 E20.95932
G1 X171.52 Y103.529 E21.0083
G1 X172.29 Y104.033 E21.05727
G1 X173.014 Y104.602 E21.10628
G1 X173.515 Y105.06 E21.1424
G1 X174.095 Y105.626 E21.18553
G1 X175.961 Y107.412 E21.32298
G1 X177.833 Y109.106 E21.45734
G1 X179.777 Y110.769 E21.59348
G1 X181.744 Y112.354 E21.72791
G1 X183.738 Y113.871 E21.86124
G1 X185.802 Y115.352 E21.99643
G1 X187.13 Y116.249 E22.08171
G1 X187.243 Y116.326 E22.08899
G1 X187.685 Y116.633 E22.11762
G1 X188.418 Y117.191 E22.16665
G1 X189.099 Y117.81 E22.21562
G1 X189.724 Y118.485 E22.26458
G1 X190.288 Y119.213 E22.31359
G1 X190.787 Y119.987 E22.36259
G1 X191.217 Y120.801 E22.41158
G1 X191.575 Y121.649 E22.46057
G1 X191.858 Y122.525 E22.50956
G1 X192.063 Y123.423 E22.55857
G1 X192.19 Y124.334 E22.60752
G1 X192.231 Y124.949 E22.64032
G1 X192.243 Y125.275 E22.65768
G1 X192.25 Y125.665 E22.67844
G1 X192.25 Y186.629 E25.92272
G1 X192.249 Y186.76 E25.92969
G1 X192.24 Y187.487 E25.96838
G1 X192.189 Y188.406 E26.01736
G1 X192.058 Y189.318 E26.06639
G1 X191.848 Y190.214 E26.11536
G1 X191.562 Y191.089 E26.16435
G1 X191.201 Y191.936 E26.21335
G1 X190.767 Y192.748 E26.26235
G1 X190.265 Y193.52 E26.31135
G1 X189.697 Y194.245 E26.36036
G1 X189.069 Y194.918 E26.40935
G1 X188.385 Y195.534 E26.45833
G1 X187.65 Y196.088 E26.50731
G1 X186.87 Y196.577 E26.55631
G1 X186.05 Y196.996 E26.60531
G1 X185.197 Y197.342 E26.6543
G1 X184.317 Y197.613 E26.7033
G1 X183.417 Y197.806 E26.75228
G1 X182.503 Y197.921 E26.8013
G1 X181.938 Y197.952 E26.83141
G1 X181.617 Y197.961 E26.8485
G1 X181.32 Y197.965 E26.86431
G1 X119.057 Y197.965 E30.17771
G1 X118.92 Y197.964 E30.185
G1 X118.222 Y197.955 E30.22215
G1 X117.303 Y197.903 E30.27113
G1 X116.392 Y197.772 E30.32011
G1 X115.496 Y197.562 E30.36909
G1 X114.621 Y197.275 E30.41809
G1 X113.774 Y196.913 E30.46711
G1 X112.962 Y196.479 E30.51611
G1 X112.191 Y195.977 E30.56507
G1 X111.466 Y195.409 E30.61408
G1 X110.793 Y194.78 E30.6631
G1 X110.178 Y194.096 E30.71205
G1 X109.624 Y193.361 E30.76103
G1 X109.136 Y192.58 E30.81004
G1 X108.717 Y191.76 E30.85904
G1 X108.371 Y190.907 E30.90803
G1 X108.101 Y190.027 E30.95701
G1 X107.908 Y189.126 E31.00605
G1 X107.794 Y188.213 E31.05501
G1 X107.763 Y187.642 E31.08544
G1 X107.754 Y187.309 E31.10317
G1 X107.75 Y187.023 E31.11839
G1 X107.75 Y126.042 E34.36357
G1 X107.751 Y125.89 E34.37166
G1 X107.761 Y125.192 E34.40881
G1 X107.814 Y124.273 E34.4578
G1 X107.947 Y123.362 E34.50679
G1 X108.158 Y122.466 E34.55578
G1 X108.446 Y121.592 E34.60475
G1 X108.809 Y120.745 E34.65379
G1 X109.244 Y119.934 E34.70276
G1 X109.748 Y119.164 E34.75173
G1 X110.317 Y118.44 E34.80074
G1 X110.947 Y117.768 E34.84976
G0 F6000 X111.338 Y117.946
G1 F1200 X112.02 Y117.354 E34.89782
G1 X112.854 Y116.758 E34.95237
G1 X113.431 Y116.388 E34.98884
G1 X115.679 Y114.912 E35.13196
G1 X117.776 Y113.449 E35.26802
G1 X119.791 Y111.957 E35.40145
G1 X121.79 Y110.388 E35.53668
G1 X123.74 Y108.764 E35.67173
G1 X125.689 Y107.047 E35.80996
G1 X126.811 Y106.014 E35.89112
G1 X127.678 Y105.202 E35.95433
G1 X128.364 Y104.614 E36.00241
G1 X129.099 Y104.09 E36.05045
G1 X129.877 Y103.632 E36.09849
G1 X130.694 Y103.246 E36.14658
G1 X131.541 Y102.932 E36.19465
G1 X132.412 Y102.696 E36.24267
G1 X133.301 Y102.537 E36.29073
G1 X134.495 Y102.448 E36.35445
G1 X135.286 Y102.436 E36.39655
G1 X135.441 Y102.435 E36.4048
G1 X138.126 Y102.435 E36.54768
G1 X138.272 Y102.436 E36.55545
G1 X138.97 Y102.446 E36.5926
G1 X139.819 Y102.494 E36.63785
G1 X140.952 Y102.605 E36.69844
G1 X141.103 Y102.621 E36.70652
G1 X141.539 Y102.67 E36.72987
G1 X144.117 Y102.889 E36.86755
G1 X146.644 Y103.031 E37.00224
G1 X149.175 Y103.102 E37.13698
G1 X151.709 Y103.1 E37.27183
G1 X154.277 Y103.027 E37.40855
G1 X156.786 Y102.883 E37.54229
G1 X159.333 Y102.667 E37.67832
G1 X160.708 Y102.519 E37.75191
G1 X161.229 Y102.477 E37.77973
G1 X161.695 Y102.451 E37.80456
G1 X162.263 Y102.435 E37.8348
G1 X165.412 Y102.435 E38.00238
G1 X165.558 Y102.436 E38.01015
G1 X166.256 Y102.446 E38.0473
G1 X167.158 Y102.499 E38.09538
G1 X168.051 Y102.631 E38.14342
G1 X168.929 Y102.842 E38.19148
G1 X169.785 Y103.13 E38.23954
G1 X170.612 Y103.492 E38.28758
G1 X171.404 Y103.927 E38.33566
G1 X172.155 Y104.429 E38.38374
G1 X172.858 Y104.996 E38.4318
G1 X173.235 Y105.346 E38.45918
G1 X173.754 Y105.853 E38.49779
G1 X175.699 Y107.715 E38.64108
G1 X177.568 Y109.406 E38.7752
G1 X179.512 Y111.069 E38.91134
G1 X181.496 Y112.668 E39.04695
G1 X183.508 Y114.199 E39.18149
G1 X185.567 Y115.675 E39.31631
G1 X186.906 Y116.58 E39.40231
G1 X187.015 Y116.655 E39.40936
G1 X187.457 Y116.962 E39.43799
G1 X188.175 Y117.509 E39.48603
G1 X188.842 Y118.118 E39.53409
G1 X189.452 Y118.783 E39.58212
G1 X190.002 Y119.5 E39.63021
G1 X190.485 Y120.263 E39.67826
G1 X190.9 Y121.065 E39.72632
G1 X191.241 Y121.901 E39.77436
G1 X191.508 Y122.764 E39.82244
G1 X191.697 Y123.647 E39.87049
G1 X191.831 Y124.964 E39.94094
G1 X191.843 Y125.29 E39.9583
G1 X191.85 Y125.665 E39.97826
G1 X191.85 Y186.629 E43.22253
G1 X191.849 Y186.755 E43.22924
G1 X191.84 Y187.482 E43.26793
G1 X191.789 Y188.384 E43.31601
G1 X191.658 Y189.278 E43.36409
G1 X191.449 Y190.156 E43.41212
G1 X191.163 Y191.013 E43.4602
G1 X190.802 Y191.841 E43.50827
G1 X190.37 Y192.633 E43.55628
G1 X189.869 Y193.385 E43.60436
G1 X189.303 Y194.089 E43.65243
G1 X188.678 Y194.74 E43.70046
G1 X187.997 Y195.334 E43.74855
G1 X187.266 Y195.865 E43.79663
G1 X186.492 Y196.329 E43.84465
G1 X185.679 Y196.723 E43.89273
G1 X184.835 Y197.043 E43.94076
G1 X183.965 Y197.288 E43.98886
G1 X183.078 Y197.454 E44.03689
G1 X181.927 Y197.552 E44.09836
G1 X181.606 Y197.561 E44.11545
G1 X181.32 Y197.565 E44.13067
G1 X119.057 Y197.565 E47.44407
G1 X118.925 Y197.564 E47.4511
G1 X118.227 Y197.555 E47.48824
G1 X117.326 Y197.504 E47.53627
G1 X116.432 Y197.372 E47.58436
G1 X115.554 Y197.163 E47.63239
G1 X114.697 Y196.876 E47.68048
G1 X113.87 Y196.515 E47.7285
G1 X113.077 Y196.082 E47.77659
G1 X112.326 Y195.581 E47.82463
G1 X111.622 Y195.015 E47.8727
G1 X110.971 Y194.389 E47.92076
G1 X110.378 Y193.708 E47.96882
G1 X109.848 Y192.977 E48.01687
G1 X109.384 Y192.202 E48.06493
G1 X108.99 Y191.389 E48.11301
G1 X108.67 Y190.545 E48.16105
G1 X108.426 Y189.675 E48.20913
G1 X108.26 Y188.787 E48.25721
G1 X108.163 Y187.632 E48.31889
G1 X108.154 Y187.299 E48.33661
G1 X108.15 Y187.023 E48.3513
G1 X108.15 Y126.042 E51.59648
G1 X108.151 Y125.896 E51.60425
G1 X108.161 Y125.198 E51.6414
G1 X108.214 Y124.296 E51.68948
G1 X108.346 Y123.403 E51.73752
G1 X108.557 Y122.525 E51.78558
G1 X108.845 Y121.669 E51.83364
G1 X109.207 Y120.842 E51.88168
G1 X109.642 Y120.05 E51.92977
G1 X110.144 Y119.299 E51.97784
G1 X110.711 Y118.596 E52.0259
G1 X111.338 Y117.946 E52.07396
G1 F1500 E45.57396
G1 F300 Z0.52
;MESH:Base mk3.stl
G0 F6000 X149.284 Y164.859 Z0.52
;TYPE:WALL-INNER
G1 F300 Z0.32
G1 F1500 E52.07396
G1 F1200 X156.653 Y160.604 E52.52679
G1 X156.653 Y152.095 E52.97961
G1 X149.284 Y147.841 E53.43241
G1 X141.915 Y152.095 E53.88521
G1 X141.915 Y160.604 E54.33803
G1 X149.284 Y164.859 E54.79086
G0 F6000 X149.284 Y164.397
G1 F1200 X156.253 Y160.373 E55.21911
G1 X156.253 Y152.326 E55.64734
G1 X149.284 Y148.303 E56.07556
G1 X142.315 Y152.326 E56.50378
G1 X142.315 Y160.373 E56.93201
G1 X149.284 Y164.397 E57.36026
G0 F6000 X149.284 Y163.935
;TYPE:WALL-OUTER
G1 F1200 X155.853 Y160.142 E57.76393
G1 X155.853 Y152.557 E58.16758
G1 X149.284 Y148.765 E58.57122
G1 X142.715 Y152.557 E58.97486
G1 X142.715 Y160.142 E59.3785
G1 X149.284 Y163.935 E59.78217
G1 F1500 E53.28217
G1 F300 Z0.52
G0 F6000 X180.65 Y186.365 Z0.52
;TYPE:WALL-INNER
G1 F300 Z0.32
G1 F1500 E59.78217
G1 F1200 X119.35 Y186.365 E63.04432
G1 X119.35 Y126.335 E66.23889
G1 X129.362 Y126.335 E66.77169
G1 X135.284 Y113.635 E67.5174
G1 X137.833 Y113.635 E67.65305
G1 X137.833 Y126.335 E68.3289
G1 X162.933 Y126.335 E69.66463
G1 X162.933 Y113.635 E70.34047
G1 X165.482 Y113.635 E70.47612
G1 X171.403 Y126.335 E71.22181
G1 X180.65 Y126.335 E71.7139
G1 X180.65 Y186.365 E74.90847
G0 F6000 X181.05 Y186.765
G1 F1200 X118.95 Y186.765 E78.2132
G1 X118.95 Y125.935 E81.45034
G1 X129.107 Y125.935 E81.99085
G1 X135.029 Y113.235 E82.73657
G1 X138.233 Y113.235 E82.90707
G1 X138.233 Y125.935 E83.58292
G1 X162.533 Y125.935 E84.87607
G1 X162.533 Y113.235 E85.55192
G1 X165.737 Y113.235 E85.72242
G1 X171.658 Y125.935 E86.46811
G1 X181.05 Y125.935 E86.96792
G1 X181.05 Y186.765 E90.20506
G0 F6000 X181.45 Y187.165
;TYPE:WALL-OUTER
G1 F1200 X118.55 Y187.165 E93.55236
G1 X118.55 Y125.535 E96.83207
G1 X128.852 Y125.535 E97.38031
G1 X134.774 Y112.835 E98.12602
G1 X138.633 Y112.835 E98.33138
G1 X138.633 Y125.535 E99.00723
G1 X162.133 Y125.535 E100.25781
G1 X162.133 Y112.835 E100.93365
G1 X165.992 Y112.835 E101.13901
G1 X171.913 Y125.535 E101.8847
G1 X181.45 Y125.535 E102.39223
G1 X181.45 Y187.165 E105.67194
G1 F1500 E99.17194
G1 F300 Z0.52
G0 F6000 X180.26 Y185.975 Z0.52
;TYPE:SKIN
G1 F300 Z0.32
G1 F1500 E105.67194
G1 F1200 X119.74 Y185.975 E108.89259
G1 X119.74 Y126.725 E112.04565
G1 X129.61 Y126.725 E112.57089
G1 X135.532 Y114.025 E113.3166
G1 X137.443 Y114.025 E113.4183
G1 X137.443 Y126.725 E114.09415
G1 X163.323 Y126.725 E115.47138
G1 X163.323 Y114.025 E116.14723
G1 X165.234 Y114.025 E116.24892
G1 X171.155 Y126.725 E116.99461
G1 X180.26 Y126.725 E117.47915
G1 X180.26 Y185.975 E120.63221
G1 F1500 E114.13221
G1 F300 Z0.52
G0 F6000 X157.043 Y160.829 Z0.52
G1 F300 Z0.32
G1 F1500 E120.63221
G1 F1200 X157.043 Y151.87 E121.10897
G1 X149.284 Y147.391 E121.58573
G1 X141.525 Y151.87 E122.0625
G1 X141.525 Y160.829 E122.53926
G1 X149.284 Y165.309 E123.01605
G1 X157.043 Y160.829 E123.49284
