;FLAVOR:Marlin
;TIME:12631
;Filament used: 13.2918m
;Layer height: 0.32
;MINX:69.985
;MINY:69.12
;MINZ:0.32
;MAXX:218.3
;MAXY:259.355
;MAXZ:47.56
;Generated with Cura_SteamEngine 4.3.0
M140 S60
M105
M190 S60
M104 S210
M105
M109 S210
M82 ;absolute extrusion mode
M201 X500.00 Y500.00 Z100.00 E5000.00 ;Setup machine max acceleration
M203 X500.00 Y500.00 Z10.00 E50.00 ;Setup machine max feedrate
M204 P500.00 R1000.00 T500.00 ;Setup Print/Retract/Travel acceleration
M205 X8.00 Y8.00 Z0.40 E5.00 ;Setup Jerk
M220 S100 ;Reset Feedrate
M221 S100 ;Reset Flowrate

G28 ;Home

G92 E0 ;Reset Extruder
G1 Z2.0 F3000 ;Move Z Axis up
G1 X10.1 Y20 Z0.28 F5000.0 ;Move to start position
G1 X10.1 Y200.0 Z0.28 F1500.0 E15 ;Draw the first line
G1 X10.4 Y200.0 Z0.28 F5000.0 ;Move to side a little
G1 X10.4 Y20 Z0.28 F1500.0 E30 ;Draw the second line
G92 E0 ;Reset Extruder
G1 Z2.0 F3000 ;Move Z Axis up

G92 E0
G92 E0
G1 F1500 E-6.5
;LAYER_COUNT:148
;LAYER:0
M107
G1 F300 Z0.52
G0 F6000 X78.735 Y72.495 Z0.52
;TYPE:SKIRT
G1 F300 Z0.32
G1 F1500 E0
G1 F1200 X79.423 Y71.858 E0.0499
G1 X80.163 Y71.281 E0.09983
G1 X80.661 Y70.947 E0.13174
G1 X80.833 Y70.838 E0.14258
G1 X81.646 Y70.37 E0.1925
G1 X82.495 Y69.973 E0.24238
G1 X83.376 Y69.65 E0.29231
G1 X84.281 Y69.403 E0.34223
G1 X85.203 Y69.234 E0.39212
G1 X86.488 Y69.131 E0.46072
G1 X86.912 Y69.122 E0.48329
G1 X87.145 Y69.12 E0.49569
G1 X92.017 Y69.12 E0.75496
G1 X92.173 Y69.121 E0.76326
G1 X92.879 Y69.131 E0.80083
G1 X93.207 Y69.141 E0.8183
G1 X93.434 Y69.151 E0.83039
G1 X93.574 Y69.158 E0.83785
G1 X95.698 Y69.279 E0.95106
G1 X98.253 Y69.351 E1.08708
G1 X100.747 Y69.352 E1.2198
G1 X103.302 Y69.281 E1.35582
G1 X105.688 Y69.149 E1.48299
G1 X106.111 Y69.134 E1.50552
G1 X106.836 Y69.122 E1.5441
G1 X107.018 Y69.12 E1.55379
G1 X116.958 Y69.12 E2.08276
G1 X117.114 Y69.121 E2.09106
G1 X117.82 Y69.131 E2.12864
G1 X118.27 Y69.147 E2.1526
G1 X120.671 Y69.279 E2.28056
G1 X123.17 Y69.351 E2.41361
G1 X125.694 Y69.351 E2.54792
G1 X128.251 Y69.28 E2.68405
G1 X130.02 Y69.187 E2.77832
G1 X130.625 Y69.149 E2.81058
G1 X131.097 Y69.13 E2.83572
G1 X131.507 Y69.122 E2.85754
G1 X131.722 Y69.12 E2.86898
G1 X136.594 Y69.12 E3.12825
G1 X136.751 Y69.121 E3.13661
G1 X137.452 Y69.131 E3.17391
G1 X138.388 Y69.184 E3.2238
G1 X139.317 Y69.317 E3.27375
G1 X140.23 Y69.529 E3.32363
G1 X141.123 Y69.817 E3.37356
G1 X141.987 Y70.181 E3.42345
G1 X142.818 Y70.617 E3.47339
G1 X143.565 Y71.092 E3.5205
G1 X143.725 Y71.203 E3.53086
G1 X144.472 Y71.77 E3.58077
G1 X145.168 Y72.398 E3.63066
G1 X145.808 Y73.084 E3.68058
G1 X146.525 Y74.017 E3.7432
G1 X146.724 Y74.307 E3.76192
G1 X148.205 Y76.39 E3.89793
G1 X149.736 Y78.42 E4.03324
G1 X151.309 Y80.389 E4.16735
G1 X152.919 Y82.29 E4.29992
G1 X154.618 Y84.184 E4.43532
G1 X156.332 Y85.992 E4.5679
G1 X158.149 Y87.799 E4.70427
G1 X159.956 Y89.502 E4.83641
G1 X161.827 Y91.164 E4.96959
G1 X163.788 Y92.811 E5.10587
G1 X165.725 Y94.345 E5.23736
G1 X167.768 Y95.873 E5.37312
G1 X169.82 Y97.317 E5.50665
G1 X171.897 Y98.695 E5.63929
G1 X174.05 Y100.035 E5.77425
G1 X176.223 Y101.304 E5.90816
G1 X178.451 Y102.523 E6.04331
G1 X180.076 Y103.362 E6.14064
G1 X181.016 Y103.907 E6.19846
G1 X181.929 Y104.499 E6.25637
G1 X182.102 Y104.614 E6.26742
G1 X182.501 Y104.884 E6.29306
G1 X184.614 Y106.227 E6.42629
G1 X186.776 Y107.517 E6.56027
G1 X189.009 Y108.764 E6.69638
G1 X191.206 Y109.912 E6.82829
G1 X193.466 Y111.012 E6.96205
G1 X195.771 Y112.054 E7.09667
G1 X198.093 Y113.027 E7.23064
G1 X200.465 Y113.944 E7.36598
G1 X202.8 Y114.767 E7.49773
G1 X205.226 Y115.548 E7.63336
G1 X207.767 Y116.287 E7.77418
G1 X208.815 Y116.575 E7.83202
G1 X209.708 Y116.862 E7.88194
G1 X210.574 Y117.223 E7.93187
G1 X211.405 Y117.657 E7.98176
G1 X212.196 Y118.161 E8.03167
G1 X212.942 Y118.73 E8.0816
G1 X213.613 Y119.338 E8.12978
G1 X213.731 Y119.454 E8.13859
G1 X214.372 Y120.139 E8.18851
G1 X214.951 Y120.876 E8.23839
G1 X215.466 Y121.661 E8.28835
G1 X215.911 Y122.486 E8.33824
G1 X216.285 Y123.346 E8.38814
G1 X216.585 Y124.235 E8.43807
G1 X216.807 Y125.146 E8.48797
G1 X216.952 Y126.072 E8.53785
G1 X217.018 Y127.091 E8.59219
G1 X217.028 Y127.623 E8.62051
G1 X217.03 Y127.83 E8.63152
G1 X217.03 Y130.276 E8.76169
G1 X217.067 Y132.884 E8.90049
G1 X217.174 Y135.405 E9.03477
G1 X217.351 Y137.9 E9.16788
G1 X217.599 Y140.398 E9.30147
G1 X217.919 Y142.903 E9.43586
G1 X217.985 Y143.322 E9.45843
G1 X218.007 Y143.47 E9.46639
G1 X218.178 Y144.661 E9.53042
G1 X218.285 Y145.892 E9.59618
G1 X218.295 Y146.223 E9.6138
G1 X218.3 Y146.555 E9.63147
G1 X218.3 Y193.038 E12.10512
G1 X218.299 Y193.19 E12.11321
G1 X218.288 Y193.984 E12.15547
G1 X218.215 Y195.107 E12.21535
G1 X218.152 Y195.647 E12.24429
G1 X218.004 Y196.573 E12.29419
G1 X217.72 Y197.668 E12.35439
G1 X217.562 Y198.171 E12.38245
G1 X217.125 Y199.332 E12.44846
G1 X216.973 Y199.675 E12.46843
G1 X216.557 Y200.515 E12.51831
G1 X216.003 Y201.416 E12.5746
G1 X215.664 Y201.913 E12.60661
G1 X215.103 Y202.665 E12.65654
G1 X214.273 Y203.575 E12.72208
G1 X213.842 Y203.997 E12.75418
G1 X213.144 Y204.624 E12.80412
G1 X212.168 Y205.342 E12.86859
G1 X211.662 Y205.673 E12.90077
G1 X210.856 Y206.153 E12.95069
G1 X209.714 Y206.686 E13.01776
G1 X209.265 Y206.865 E13.04348
G1 X208.113 Y207.252 E13.10815
G1 X207.761 Y207.349 E13.12759
G1 X206.716 Y207.583 E13.18457
G1 X206.485 Y207.623 E13.19705
G1 X205.583 Y207.741 E13.24546
G1 X203.092 Y207.963 E13.37855
G1 X200.594 Y208.256 E13.51239
G1 X198.093 Y208.622 E13.6469
G1 X195.641 Y209.053 E13.77939
G1 X193.147 Y209.563 E13.91486
G1 X190.744 Y210.126 E14.0462
G1 X188.279 Y210.778 E14.18189
G1 X185.855 Y211.493 E14.31638
G1 X183.475 Y212.268 E14.44958
G1 X181.1 Y213.118 E14.58382
G1 X178.736 Y214.039 E14.71883
G1 X176.46 Y215.002 E14.85035
G1 X174.133 Y216.064 E14.98647
G1 X171.882 Y217.169 E15.11991
G1 X169.67 Y218.334 E15.25296
G1 X167.471 Y219.574 E15.3873
G1 X165.298 Y220.879 E15.52219
G1 X163.177 Y222.239 E15.65627
G1 X161.129 Y223.633 E15.78811
G1 X159.054 Y225.135 E15.92443
G1 X157.08 Y226.649 E16.05682
G1 X155.116 Y228.245 E16.19149
G1 X153.205 Y229.892 E16.32574
G1 X151.356 Y231.579 E16.45894
G1 X149.527 Y233.344 E16.5942
G1 X147.772 Y235.135 E16.72765
G1 X146.08 Y236.966 E16.86032
G1 X144.406 Y238.882 E16.99571
G1 X142.815 Y240.808 E17.12866
G1 X141.253 Y242.814 E17.26395
G1 X139.787 Y244.81 E17.39575
G1 X138.336 Y246.909 E17.53154
G1 X136.962 Y249.021 E17.66562
G1 X135.675 Y251.127 E17.79697
G1 X134.863 Y252.56 E17.88462
G1 X134.814 Y252.646 E17.88988
G1 X134.115 Y253.854 E17.96416
G1 X133.611 Y254.645 E18.01407
G1 X133.042 Y255.39 E18.06395
G1 X132.411 Y256.084 E18.11387
G1 X131.723 Y256.722 E18.1638
G1 X130.984 Y257.299 E18.2137
G1 X130.198 Y257.811 E18.26362
G1 X129.371 Y258.254 E18.31354
G1 X128.509 Y258.625 E18.36348
G1 X127.62 Y258.921 E18.41335
G1 X126.708 Y259.14 E18.46326
G1 X125.781 Y259.281 E18.51316
G1 X124.933 Y259.34 E18.55839
G1 X124.609 Y259.35 E18.57564
G1 X124.27 Y259.355 E18.59369
G1 X121.714 Y259.355 E18.72971
G1 X121.556 Y259.354 E18.73812
G1 X120.859 Y259.344 E18.77521
G1 X120.245 Y259.318 E18.80792
G1 X119.477 Y259.264 E18.84889
G1 X119.309 Y259.251 E18.85785
G1 X118.198 Y259.156 E18.91719
G1 X115.705 Y259.015 E19.05007
G1 X113.206 Y258.943 E19.18311
G1 X110.682 Y258.941 E19.31743
G1 X108.161 Y259.012 E19.45164
G1 X105.578 Y259.157 E19.58932
G1 X104.149 Y259.269 E19.6656
G1 X103.637 Y259.297 E19.69288
G1 X102.406 Y259.336 E19.75843
G1 X102.113 Y259.342 E19.77402
G1 X100.129 Y259.352 E19.8796
G1 X99.973 Y259.352 E19.88791
G1 X99.318 Y259.346 E19.92276
G1 X98.382 Y259.297 E19.97264
G1 X97.453 Y259.169 E20.02255
G1 X96.538 Y258.962 E20.07247
G1 X95.644 Y258.678 E20.12239
G1 X94.778 Y258.319 E20.17228
G1 X93.945 Y257.887 E20.22221
G1 X93.152 Y257.386 E20.27213
G1 X92.405 Y256.82 E20.322
G1 X91.708 Y256.191 E20.37197
G1 X91.068 Y255.506 E20.42186
G1 X90.489 Y254.769 E20.47173
G1 X89.974 Y253.984 E20.52169
G1 X89.528 Y253.159 E20.5716
G1 X89.154 Y252.299 E20.62151
G1 X88.855 Y251.411 E20.67137
G1 X88.632 Y250.5 E20.72128
G1 X88.453 Y249.21 E20.79059
G1 X88.437 Y249.007 E20.80143
G1 X88.403 Y248.248 E20.84186
G1 X88.4 Y247.933 E20.85862
G1 X88.4 Y231.482 E21.73408
G1 X88.401 Y231.324 E21.74249
G1 X88.411 Y230.627 E21.77958
G1 X88.465 Y229.691 E21.82948
G1 X88.598 Y228.762 E21.87942
G1 X88.809 Y227.849 E21.92929
G1 X89.034 Y227.134 E21.96918
G1 X89.918 Y224.621 E22.11094
G1 X90.689 Y222.224 E22.24494
G1 X91.395 Y219.798 E22.3794
G1 X92.027 Y217.367 E22.51306
G1 X92.597 Y214.894 E22.64812
G1 X93.094 Y212.423 E22.78225
G1 X93.512 Y209.97 E22.91467
G1 X93.868 Y207.475 E23.04879
G1 X94.155 Y204.942 E23.18445
G1 X94.367 Y202.458 E23.31712
G1 X94.508 Y199.974 E23.44952
G1 X94.581 Y197.386 E23.5873
G1 X94.59 Y196.087 E23.65643
G1 X94.589 Y173.784 E24.84331
G1 X94.552 Y171.173 E24.98227
G1 X94.445 Y168.652 E25.11655
G1 X94.269 Y166.173 E25.2488
G1 X94.018 Y163.646 E25.38394
G1 X93.698 Y161.147 E25.51802
G1 X93.311 Y158.679 E25.65096
G1 X92.849 Y156.201 E25.7851
G1 X92.321 Y153.745 E25.91879
G1 X91.717 Y151.28 E26.05385
G1 X91.05 Y148.857 E26.18758
G1 X90.312 Y146.446 E26.32176
G1 X89.519 Y144.095 E26.4538
G1 X88.633 Y141.695 E26.58995
G1 X87.698 Y139.366 E26.7235
G1 X86.701 Y137.074 E26.85651
G1 X85.615 Y134.76 E26.99254
G1 X84.494 Y132.533 E27.12522
G1 X83.296 Y130.314 E27.25942
G1 X82.046 Y128.148 E27.3925
G1 X80.708 Y125.973 E27.5284
G1 X79.359 Y123.914 E27.65939
G1 X77.886 Y121.799 E27.79655
G1 X76.432 Y119.832 E27.92672
G1 X74.843 Y117.804 E28.06383
G1 X73.137 Y115.751 E28.20588
G1 X72.65 Y115.183 E28.24569
G1 X72.071 Y114.445 E28.29561
G1 X71.557 Y113.661 E28.3455
G1 X71.112 Y112.835 E28.39543
G1 X70.739 Y111.975 E28.44531
G1 X70.44 Y111.086 E28.49523
G1 X70.218 Y110.175 E28.54513
G1 X70.075 Y109.248 E28.59504
G1 X70.03 Y108.74 E28.62218
G1 X70.008 Y108.4 E28.64031
G1 X69.985 Y107.69 E28.67812
G1 X69.985 Y105.752 E28.78125
G1 X69.986 Y105.594 E28.78966
G1 X69.996 Y104.897 E28.82675
G1 X70.05 Y103.961 E28.87665
G1 X70.183 Y103.032 E28.92659
G1 X70.394 Y102.119 E28.97645
G1 X70.558 Y101.582 E29.00633
G1 X70.743 Y101.026 E29.03752
G1 X70.809 Y100.833 E29.04837
G1 X71.305 Y99.429 E29.12761
G1 X72.08 Y97.02 E29.26228
G1 X72.775 Y94.63 E29.39474
G1 X73.415 Y92.169 E29.53006
G1 X73.988 Y89.69 E29.66546
G1 X74.472 Y87.27 E29.79679
G1 X74.9 Y84.773 E29.93161
G1 X75.253 Y82.293 E30.06492
G1 X75.549 Y79.693 E30.20417
G1 X75.602 Y79.156 E30.23289
G1 X75.734 Y78.227 E30.28282
G1 X75.945 Y77.313 E30.33274
G1 X76.233 Y76.421 E30.38262
G1 X76.595 Y75.556 E30.43253
G1 X77.03 Y74.725 E30.48244
G1 X77.535 Y73.934 E30.53238
G1 X78.104 Y73.189 E30.58227
G1 X78.735 Y72.495 E30.63218
G0 F6000 X79.115 Y72.681
G1 F1200 X79.799 Y72.065 E30.68117
G1 X80.875 Y71.284 E30.75192
G1 X81.047 Y71.175 E30.76276
G1 X81.845 Y70.717 E30.81172
G1 X82.68 Y70.329 E30.86072
G1 X83.546 Y70.016 E30.90973
G1 X84.435 Y69.778 E30.9587
G1 X85.342 Y69.619 E31.0077
G1 X86.496 Y69.531 E31.06929
G1 X86.92 Y69.522 E31.09186
G1 X87.145 Y69.52 E31.10384
G1 X92.017 Y69.52 E31.36311
G1 X92.167 Y69.521 E31.37109
G1 X92.873 Y69.531 E31.40866
G1 X93.19 Y69.54 E31.42554
G1 X93.417 Y69.55 E31.43763
G1 X93.552 Y69.557 E31.44482
G1 X95.7 Y69.679 E31.55932
G1 X98.242 Y69.751 E31.69465
G1 X100.758 Y69.752 E31.82854
G1 X103.298 Y69.681 E31.96376
G1 X105.71 Y69.548 E32.09231
G1 X106.118 Y69.533 E32.11404
G1 X106.843 Y69.521 E32.15263
G1 X107.018 Y69.52 E32.16194
G1 X116.958 Y69.52 E32.69091
G1 X117.108 Y69.521 E32.69889
G1 X117.814 Y69.531 E32.73647
G1 X118.248 Y69.546 E32.75958
G1 X120.637 Y69.678 E32.8869
G1 X123.194 Y69.751 E33.02303
G1 X125.705 Y69.751 E33.15666
G1 X128.284 Y69.679 E33.29396
G1 X130.066 Y69.586 E33.38892
G1 X130.65 Y69.549 E33.42006
G1 X131.105 Y69.53 E33.44429
G1 X131.515 Y69.522 E33.46612
G1 X131.722 Y69.52 E33.47713
G1 X136.594 Y69.52 E33.7364
G1 X136.745 Y69.521 E33.74444
G1 X137.446 Y69.531 E33.78175
G1 X138.365 Y69.584 E33.83073
G1 X139.276 Y69.717 E33.87973
G1 X140.172 Y69.928 E33.92871
G1 X141.047 Y70.216 E33.97773
G1 X141.893 Y70.579 E34.02672
G1 X142.704 Y71.014 E34.0757
G1 X143.337 Y71.421 E34.11575
G1 X143.497 Y71.532 E34.12611
G1 X144.23 Y72.089 E34.1751
G1 X144.912 Y72.707 E34.22408
G1 X145.537 Y73.383 E34.27307
G1 X146.195 Y74.243 E34.3307
G1 X146.382 Y74.515 E34.34826
G1 X147.905 Y76.657 E34.48813
G1 X149.419 Y78.665 E34.62196
G1 X150.99 Y80.631 E34.75588
G1 X152.617 Y82.553 E34.88989
G1 X154.33 Y84.463 E35.02642
G1 X156.042 Y86.268 E35.15881
G1 X157.857 Y88.073 E35.29503
G1 X159.699 Y89.809 E35.42973
G1 X161.55 Y91.453 E35.56147
G1 X163.528 Y93.114 E35.69893
G1 X165.483 Y94.663 E35.83166
G1 X167.544 Y96.205 E35.96864
G1 X169.591 Y97.645 E36.10183
G1 X171.695 Y99.04 E36.23617
G1 X173.832 Y100.371 E36.37015
G1 X176.035 Y101.657 E36.5059
G1 X178.255 Y102.872 E36.64057
G1 X179.892 Y103.717 E36.73861
G1 X180.798 Y104.243 E36.79436
G1 X181.711 Y104.835 E36.85227
G1 X181.878 Y104.946 E36.86294
G1 X182.259 Y105.203 E36.88739
G1 X184.425 Y106.581 E37.02401
G1 X186.597 Y107.876 E37.15858
G1 X188.765 Y109.087 E37.29073
G1 X191.025 Y110.268 E37.42643
G1 X193.333 Y111.392 E37.56305
G1 X195.6 Y112.416 E37.69542
G1 X197.931 Y113.393 E37.82993
G1 X200.325 Y114.318 E37.9665
G1 X202.693 Y115.153 E38.10013
G1 X205.097 Y115.927 E38.23452
G1 X207.677 Y116.677 E38.37751
G1 X208.709 Y116.961 E38.43447
G1 X209.586 Y117.243 E38.48349
G1 X210.434 Y117.6 E38.53245
G1 X211.249 Y118.029 E38.58147
G1 X212.023 Y118.528 E38.63047
G1 X212.751 Y119.092 E38.67948
G1 X213.333 Y119.623 E38.72141
G1 X213.451 Y119.739 E38.73021
G1 X214.079 Y120.412 E38.7792
G1 X214.646 Y121.137 E38.82818
G1 X215.148 Y121.909 E38.87718
G1 X215.581 Y122.722 E38.9262
G1 X215.942 Y123.568 E38.97515
G1 X216.228 Y124.444 E39.02419
G1 X216.438 Y125.34 E39.07316
G1 X216.568 Y126.251 E39.12213
G1 X216.618 Y127.099 E39.16734
G1 X216.628 Y127.631 E39.19565
G1 X216.63 Y127.83 E39.20625
G1 X216.63 Y130.253 E39.33519
G1 X216.667 Y132.907 E39.47644
G1 X216.774 Y135.415 E39.61003
G1 X216.952 Y137.931 E39.74425
G1 X217.202 Y140.455 E39.87923
G1 X217.521 Y142.945 E40.01282
G1 X217.59 Y143.384 E40.03647
G1 X217.611 Y143.527 E40.04416
G1 X217.782 Y144.718 E40.10819
G1 X217.885 Y145.904 E40.17154
G1 X217.895 Y146.235 E40.18916
G1 X217.9 Y146.555 E40.2062
G1 X217.9 Y193.038 E42.67984
G1 X217.899 Y193.185 E42.68767
G1 X217.888 Y193.979 E42.72993
G1 X217.818 Y195.06 E42.78757
G1 X217.755 Y195.6 E42.8165
G1 X217.608 Y196.509 E42.86551
G1 X217.339 Y197.549 E42.92267
G1 X217.181 Y198.052 E42.95073
G1 X216.759 Y199.17 E43.01432
G1 X216.607 Y199.513 E43.03429
G1 X216.198 Y200.337 E43.08324
G1 X215.673 Y201.191 E43.13659
G1 X215.334 Y201.688 E43.16861
G1 X214.783 Y202.425 E43.21757
G1 X213.993 Y203.289 E43.27988
G1 X213.562 Y203.711 E43.31198
G1 X212.877 Y204.326 E43.36097
G1 X211.949 Y205.008 E43.42225
G1 X211.443 Y205.339 E43.45443
G1 X210.651 Y205.809 E43.50344
G1 X209.565 Y206.314 E43.56717
G1 X209.116 Y206.493 E43.5929
G1 X208.007 Y206.866 E43.65516
G1 X207.655 Y206.963 E43.67459
G1 X206.648 Y207.189 E43.72952
G1 X206.417 Y207.229 E43.74199
G1 X205.547 Y207.342 E43.78868
G1 X203.081 Y207.561 E43.92043
G1 X200.526 Y207.862 E44.05733
G1 X198.038 Y208.226 E44.19114
G1 X195.563 Y208.661 E44.32487
G1 X193.082 Y209.168 E44.45963
G1 X190.614 Y209.746 E44.59452
G1 X188.178 Y210.391 E44.72863
G1 X185.756 Y211.105 E44.863
G1 X183.333 Y211.894 E44.99861
G1 X180.945 Y212.749 E45.13359
G1 X178.613 Y213.657 E45.26676
G1 X176.287 Y214.641 E45.40116
G1 X173.97 Y215.699 E45.53671
G1 X171.684 Y216.82 E45.6722
G1 X169.481 Y217.981 E45.80472
G1 X167.274 Y219.225 E45.93954
G1 X165.082 Y220.542 E46.07563
G1 X162.983 Y221.888 E46.20832
G1 X160.875 Y223.323 E46.34403
G1 X158.839 Y224.797 E46.47779
G1 X156.808 Y226.355 E46.61401
G1 X154.869 Y227.93 E46.74695
G1 X152.921 Y229.609 E46.88381
G1 X151.091 Y231.278 E47.01561
G1 X149.263 Y233.042 E47.1508
G1 X147.476 Y234.867 E47.28672
G1 X145.77 Y236.712 E47.42045
G1 X144.113 Y238.609 E47.55449
G1 X142.508 Y240.553 E47.68864
G1 X140.944 Y242.56 E47.82405
G1 X139.452 Y244.592 E47.9582
G1 X138.005 Y246.685 E48.09361
G1 X136.629 Y248.8 E48.22789
G1 X135.324 Y250.936 E48.36109
G1 X134.515 Y252.363 E48.44839
