;FLAVOR:Marlin
;TIME:11438
;Filament used: 11.8036m
;Layer height: 0.32
;MINX:107.985
;MINY:55.12
;MINZ:0.32
;MAXX:192.015
;MAXY:245.355
;MAXZ:98.44
;Generated with Cura_SteamEngine 4.3.0
M140 S60
M105
M190 S60
M104 S205
M105
M109 S205
M82 ;absolute extrusion mode
M201 X500.00 Y500.00 Z100.00 E5000.00 ;Setup machine max acceleration
M203 X500.00 Y500.00 Z10.00 E50.00 ;Setup machine max feedrate
M204 P500.00 R1000.00 T500.00 ;Setup Print/Retract/Travel acceleration
M205 X8.00 Y8.00 Z0.40 E5.00 ;Setup Jerk
M220 S100 ;Reset Feedrate
M221 S100 ;Reset Flowrate

G28 ;Home

G92 E0 ;Reset Extruder
G1 Z2.0 F3000 ;Move Z Axis up
G1 X10.1 Y20 Z0.28 F5000.0 ;Move to start position
G1 X10.1 Y200.0 Z0.28 F1500.0 E15 ;Draw the first line
G1 X10.4 Y200.0 Z0.28 F5000.0 ;Move to side a little
G1 X10.4 Y20 Z0.28 F1500.0 E30 ;Draw the second line
G92 E0 ;Reset Extruder
G1 Z2.0 F3000 ;Move Z Axis up

G92 E0
G92 E0
G1 F1500 E-6.5
;LAYER_COUNT:307
;LAYER:0
M107
G1 F300 Z0.52
G0 F6000 X115.03 Y60.725 Z0.52
;TYPE:SKIRT
G1 F300 Z0.32
G1 F1500 E0
G1 F1200 X115.535 Y59.934 E0.04994
G1 X116.104 Y59.189 E0.09983
G1 X116.735 Y58.495 E0.14974
G1 X117.423 Y57.858 E0.19964
G1 X118.163 Y57.281 E0.24958
G1 X118.661 Y56.947 E0.28149
G1 X118.833 Y56.838 E0.29232
G1 X119.646 Y56.37 E0.34224
G1 X120.495 Y55.973 E0.39212
G1 X121.376 Y55.65 E0.44205
G1 X122.281 Y55.403 E0.49198
G1 X123.203 Y55.234 E0.54186
G1 X124.488 Y55.131 E0.61046
G1 X124.912 Y55.122 E0.63303
G1 X125.145 Y55.12 E0.64543
G1 X130.017 Y55.12 E0.9047
G1 X130.173 Y55.121 E0.913
G1 X130.879 Y55.131 E0.95058
G1 X131.207 Y55.141 E0.96804
G1 X131.434 Y55.151 E0.98013
G1 X131.574 Y55.158 E0.98759
G1 X133.698 Y55.279 E1.10081
G1 X136.253 Y55.351 E1.23683
G1 X138.747 Y55.352 E1.36955
G1 X141.302 Y55.281 E1.50557
G1 X143.688 Y55.149 E1.63274
G1 X144.111 Y55.134 E1.65526
G1 X144.836 Y55.122 E1.69385
G1 X145.018 Y55.12 E1.70353
G1 X154.958 Y55.12 E2.2325
G1 X155.114 Y55.121 E2.2408
G1 X155.82 Y55.131 E2.27838
G1 X156.27 Y55.147 E2.30234
G1 X158.671 Y55.279 E2.43031
G1 X161.17 Y55.351 E2.56335
G1 X163.694 Y55.351 E2.69767
G1 X166.251 Y55.28 E2.83379
G1 X168.02 Y55.187 E2.92806
G1 X168.625 Y55.149 E2.96032
G1 X169.097 Y55.13 E2.98546
G1 X169.507 Y55.122 E3.00728
G1 X169.722 Y55.12 E3.01872
G1 X174.594 Y55.12 E3.27799
G1 X174.751 Y55.121 E3.28635
G1 X175.452 Y55.131 E3.32366
G1 X176.388 Y55.184 E3.37355
G1 X177.317 Y55.317 E3.42349
G1 X178.23 Y55.529 E3.47337
G1 X179.123 Y55.817 E3.5233
G1 X179.987 Y56.181 E3.57319
G1 X180.818 Y56.617 E3.62313
G1 X181.608 Y57.122 E3.67303
G1 X182.252 Y57.609 E3.716
G1 X182.41 Y57.738 E3.72685
G1 X183.11 Y58.362 E3.77676
G1 X183.755 Y59.043 E3.82667
G1 X184.34 Y59.776 E3.87658
G1 X184.86 Y60.557 E3.92651
G1 X185.311 Y61.379 E3.9764
G1 X185.691 Y62.236 E4.02629
G1 X185.997 Y63.123 E4.07623
G1 X186.225 Y64.033 E4.12615
G1 X186.389 Y65.072 E4.18213
G1 X186.695 Y67.891 E4.33302
G1 X187.042 Y70.402 E4.46792
G1 X187.452 Y72.852 E4.60011
G1 X187.942 Y75.351 E4.73563
G1 X188.498 Y77.81 E4.86979
G1 X189.112 Y80.211 E5.00168
G1 X189.817 Y82.674 E5.13801
G1 X190.576 Y85.07 E5.27176
G1 X191.117 Y86.645 E5.36039
G1 X191.36 Y87.331 E5.39912
G1 X191.635 Y88.228 E5.44904
G1 X191.833 Y89.144 E5.49891
G1 X191.968 Y90.294 E5.56053
G1 X191.992 Y90.665 E5.58032
G1 X192.015 Y91.375 E5.61812
G1 X192.015 Y93.294 E5.72024
G1 X192.014 Y93.447 E5.72839
G1 X192.004 Y94.164 E5.76655
G1 X191.951 Y95.101 E5.81649
G1 X191.818 Y96.029 E5.86638
G1 X191.607 Y96.943 E5.9163
G1 X191.319 Y97.835 E5.96618
G1 X190.955 Y98.7 E6.01612
G1 X190.52 Y99.531 E6.06604
G1 X190.015 Y100.321 E6.11593
G1 X189.538 Y100.952 E6.15803
G1 X189.272 Y101.279 E6.18046
G1 X189.098 Y101.489 E6.19497
G1 X187.953 Y102.827 E6.28869
G1 X186.358 Y104.804 E6.42387
G1 X184.844 Y106.792 E6.55685
G1 X183.386 Y108.824 E6.68994
G1 X181.964 Y110.928 E6.82508
G1 X180.634 Y113.022 E6.95709
G1 X179.327 Y115.214 E7.0929
G1 X178.104 Y117.404 E7.22639
G1 X176.937 Y119.64 E7.36061
G1 X175.826 Y121.924 E7.49577
G1 X174.811 Y124.17 E7.62694
G1 X173.81 Y126.561 E7.76488
G1 X172.923 Y128.866 E7.89631
G1 X172.088 Y131.225 E8.02948
G1 X171.311 Y133.642 E8.16458
G1 X170.616 Y136.032 E8.29704
G1 X169.974 Y138.497 E8.43259
G1 X169.402 Y140.972 E8.56778
G1 X168.917 Y143.399 E8.69948
G1 X168.489 Y145.885 E8.83373
G1 X168.132 Y148.396 E8.9687
G1 X167.849 Y150.879 E9.10169
G1 X167.636 Y153.383 E9.23542
G1 X167.491 Y155.916 E9.37044
G1 X167.419 Y158.422 E9.50385
G1 X167.41 Y159.779 E9.57607
G1 X167.411 Y183.332 E10.82947
G1 X167.448 Y185.942 E10.96838
G1 X167.555 Y188.462 E11.10261
G1 X167.731 Y190.945 E11.23507
G1 X167.982 Y193.465 E11.36984
G1 X168.303 Y195.974 E11.50445
G1 X168.687 Y198.425 E11.63647
G1 X169.154 Y200.936 E11.77239
G1 X169.683 Y203.389 E11.90593
G1 X170.273 Y205.797 E12.03787
G1 X170.952 Y208.264 E12.17403
G1 X171.684 Y210.656 E12.30715
G1 X172.547 Y213.211 E12.45067
G1 X172.95 Y214.348 E12.51486
G1 X173.226 Y215.244 E12.56475
G1 X173.423 Y216.161 E12.61467
G1 X173.568 Y217.462 E12.68433
G1 X173.586 Y217.815 E12.70314
G1 X173.6 Y218.375 E12.73295
G1 X173.6 Y233.619 E13.54418
G1 X173.599 Y233.755 E13.55142
G1 X173.59 Y234.482 E13.59011
G1 X173.539 Y235.419 E13.64004
G1 X173.407 Y236.347 E13.68993
G1 X173.198 Y237.261 E13.73982
G1 X172.911 Y238.154 E13.78974
G1 X172.549 Y239.02 E13.83969
G1 X172.115 Y239.851 E13.88958
G1 X171.611 Y240.642 E13.93949
G1 X171.042 Y241.387 E13.98938
G1 X170.411 Y242.082 E14.03933
G1 X169.724 Y242.72 E14.08923
G1 X168.985 Y243.297 E14.13912
G1 X168.199 Y243.809 E14.18904
G1 X167.373 Y244.252 E14.23892
G1 X166.511 Y244.624 E14.28888
G1 X165.622 Y244.92 E14.33874
G1 X164.71 Y245.14 E14.38867
G1 X163.783 Y245.281 E14.43857
G1 X162.899 Y245.342 E14.48572
G1 X162.578 Y245.351 E14.50281
G1 X162.27 Y245.355 E14.5192
G1 X159.714 Y245.355 E14.65522
G1 X159.556 Y245.354 E14.66363
G1 X158.859 Y245.344 E14.70073
G1 X158.245 Y245.318 E14.73343
G1 X157.477 Y245.264 E14.7744
G1 X157.309 Y245.251 E14.78337
G1 X156.198 Y245.156 E14.84271
G1 X153.705 Y245.015 E14.97559
G1 X151.206 Y244.943 E15.10863
G1 X148.682 Y244.941 E15.24295
G1 X146.161 Y245.012 E15.37716
G1 X143.578 Y245.157 E15.51483
G1 X142.149 Y245.269 E15.59111
G1 X141.637 Y245.297 E15.6184
G1 X140.406 Y245.336 E15.68394
G1 X140.113 Y245.342 E15.69954
G1 X138.131 Y245.352 E15.80501
G1 X137.975 Y245.352 E15.81332
G1 X137.322 Y245.346 E15.84807
G1 X136.385 Y245.297 E15.898
G1 X135.456 Y245.169 E15.9479
G1 X134.541 Y244.962 E15.99783
G1 X133.648 Y244.678 E16.0477
G1 X132.781 Y244.319 E16.09763
G1 X131.949 Y243.887 E16.14752
G1 X131.156 Y243.386 E16.19744
G1 X130.409 Y242.819 E16.24735
G1 X129.712 Y242.191 E16.29727
G1 X129.072 Y241.506 E16.34716
G1 X128.492 Y240.768 E16.39711
G1 X127.978 Y239.984 E16.447
G1 X127.532 Y239.159 E16.49691
G1 X127.158 Y238.299 E16.54681
G1 X126.858 Y237.41 E16.59674
G1 X126.636 Y236.499 E16.64664
G1 X126.466 Y235.318 E16.71014
G1 X126.448 Y235.115 E16.72098
G1 X126.406 Y234.249 E16.76712
G1 X126.403 Y233.939 E16.78362
G1 X126.402 Y233.834 E16.78921
G1 X126.4 Y218.759 E17.59144
G1 X126.401 Y218.603 E17.59975
G1 X126.411 Y217.892 E17.63759
G1 X126.464 Y216.956 E17.68748
G1 X126.597 Y216.028 E17.73737
G1 X126.808 Y215.114 E17.78728
G1 X127.038 Y214.382 E17.82812
G1 X127.914 Y211.904 E17.96798
G1 X128.695 Y209.474 E18.10381
G1 X129.384 Y207.106 E18.23506
G1 X130.026 Y204.641 E18.37061
G1 X130.598 Y202.166 E18.50579
G1 X131.085 Y199.733 E18.63783
G1 X131.51 Y197.258 E18.77147
G1 X131.868 Y194.741 E18.90677
G1 X132.151 Y192.261 E19.0396
G1 X132.365 Y189.752 E19.1736
G1 X132.509 Y187.221 E19.30851
G1 X132.581 Y184.716 E19.44187
G1 X132.59 Y183.359 E19.51409
G1 X132.589 Y159.779 E20.76893
G1 X132.552 Y157.174 E20.90757
G1 X132.445 Y154.653 E21.04185
G1 X132.269 Y152.174 E21.1741
G1 X132.018 Y149.647 E21.30924
G1 X131.698 Y147.147 E21.44337
G1 X131.312 Y144.686 E21.57593
G1 X130.848 Y142.186 E21.71125
G1 X130.316 Y139.72 E21.8455
G1 X129.727 Y137.319 E21.97706
G1 X129.045 Y134.841 E22.11383
G1 X128.322 Y132.476 E22.24544
G1 X127.5 Y130.041 E22.3822
G1 X126.643 Y127.719 E22.51392
G1 X125.701 Y125.374 E22.6484
G1 X124.701 Y123.076 E22.78177
G1 X123.619 Y120.766 E22.91752
G1 X122.494 Y118.532 E23.05063
G1 X121.299 Y116.322 E23.18433
G1 X120.039 Y114.137 E23.31855
G1 X118.708 Y111.973 E23.45375
G1 X117.341 Y109.887 E23.58647
G1 X115.926 Y107.853 E23.71833
G1 X114.393 Y105.78 E23.85554
G1 X112.854 Y103.816 E23.98832
G1 X111.158 Y101.777 E24.12946
G1 X110.65 Y101.183 E24.17105
G1 X110.071 Y100.445 E24.22097
G1 X109.557 Y99.661 E24.27086
G1 X109.112 Y98.835 E24.32079
G1 X108.739 Y97.975 E24.37067
G1 X108.44 Y97.086 E24.42058
G1 X108.218 Y96.175 E24.47048
G1 X108.075 Y95.248 E24.5204
G1 X108.029 Y94.728 E24.54818
G1 X108.007 Y94.382 E24.56663
G1 X107.985 Y93.684 E24.60379
G1 X107.985 Y91.752 E24.70661
G1 X107.986 Y91.594 E24.71501
G1 X107.996 Y90.897 E24.75211
G1 X108.05 Y89.961 E24.802
G1 X108.183 Y89.032 E24.85195
G1 X108.394 Y88.119 E24.90181
G1 X108.558 Y87.582 E24.93169
G1 X108.743 Y87.026 E24.96288
G1 X108.809 Y86.833 E24.97373
G1 X109.305 Y85.429 E25.05297
G1 X110.08 Y83.02 E25.18764
G1 X110.775 Y80.63 E25.32009
G1 X111.415 Y78.169 E25.45542
G1 X111.988 Y75.69 E25.59082
G1 X112.472 Y73.27 E25.72215
G1 X112.9 Y70.773 E25.85697
G1 X113.253 Y68.293 E25.99028
G1 X113.549 Y65.693 E26.12953
G1 X113.602 Y65.156 E26.15825
G1 X113.734 Y64.227 E26.20818
G1 X113.945 Y63.313 E26.2581
G1 X114.233 Y62.421 E26.30798
G1 X114.595 Y61.556 E26.35788
G1 X115.03 Y60.725 E26.4078
G0 F6000 X115.419 Y60.852
G1 F1200 X115.921 Y60.08 E26.4568
G1 X116.488 Y59.355 E26.50578
G1 X117.115 Y58.681 E26.55477
G1 X117.799 Y58.065 E26.60376
G1 X118.875 Y57.284 E26.67451
G1 X119.047 Y57.175 E26.68535
G1 X119.845 Y56.717 E26.73431
G1 X120.68 Y56.329 E26.78331
G1 X121.546 Y56.016 E26.83231
G1 X122.435 Y55.778 E26.88129
G1 X123.342 Y55.619 E26.93029
G1 X124.496 Y55.531 E26.99188
G1 X124.92 Y55.522 E27.01445
G1 X125.145 Y55.52 E27.02642
G1 X130.017 Y55.52 E27.28569
G1 X130.167 Y55.521 E27.29368
G1 X130.873 Y55.531 E27.33125
G1 X131.19 Y55.54 E27.34813
G1 X131.417 Y55.55 E27.36022
G1 X131.552 Y55.557 E27.36741
G1 X133.7 Y55.679 E27.4819
G1 X136.242 Y55.751 E27.61723
G1 X138.758 Y55.752 E27.75113
G1 X141.298 Y55.681 E27.88635
G1 X143.71 Y55.548 E28.0149
G1 X144.118 Y55.533 E28.03663
G1 X144.843 Y55.521 E28.07521
G1 X145.018 Y55.52 E28.08453
G1 X154.958 Y55.52 E28.6135
G1 X155.108 Y55.521 E28.62148
G1 X155.814 Y55.531 E28.65905
G1 X156.248 Y55.546 E28.68216
G1 X158.637 Y55.678 E28.80949
G1 X161.194 Y55.751 E28.94562
G1 X163.705 Y55.751 E29.07925
G1 X166.284 Y55.679 E29.21654
G1 X168.066 Y55.586 E29.3115
G1 X168.65 Y55.549 E29.34265
G1 X169.105 Y55.53 E29.36688
G1 X169.515 Y55.522 E29.3887
G1 X169.722 Y55.52 E29.39972
G1 X174.594 Y55.52 E29.65899
G1 X174.745 Y55.521 E29.66702
G1 X175.446 Y55.531 E29.70433
G1 X176.365 Y55.584 E29.75332
G1 X177.276 Y55.717 E29.80231
G1 X178.172 Y55.928 E29.8513
G1 X179.047 Y56.216 E29.90032
G1 X179.893 Y56.579 E29.94931
G1 X180.704 Y57.014 E29.99829
G1 X181.475 Y57.518 E30.0473
G1 X181.999 Y57.919 E30.08242
G1 X182.157 Y58.048 E30.09327
G1 X182.844 Y58.661 E30.14227
G1 X183.475 Y59.331 E30.19125
G1 X184.046 Y60.053 E30.24023
G1 X184.552 Y60.822 E30.28922
G1 X184.99 Y61.632 E30.33823
G1 X185.355 Y62.477 E30.38721
G1 X185.646 Y63.351 E30.43623
G1 X185.86 Y64.246 E30.4852
G1 X185.991 Y65.115 E30.53197
G1 X186.299 Y67.956 E30.68404
G1 X186.639 Y70.418 E30.8163
G1 X187.065 Y72.958 E30.95336
G1 X187.547 Y75.419 E31.08681
G1 X188.105 Y77.884 E31.22131
G1 X188.737 Y80.357 E31.35714
G1 X189.424 Y82.758 E31.49004
G1 X190.196 Y85.194 E31.62603
G1 X190.74 Y86.779 E31.71521
G1 X190.983 Y87.465 E31.75394
G1 X191.252 Y88.345 E31.80291
G1 X191.444 Y89.245 E31.85188
G1 X191.569 Y90.32 E31.90947
G1 X191.593 Y90.691 E31.92926
G1 X191.615 Y91.375 E31.96568
G1 X191.615 Y93.294 E32.0678
G1 X191.614 Y93.442 E32.07567
G1 X191.604 Y94.159 E32.11383
G1 X191.551 Y95.078 E32.16282
G1 X191.419 Y95.989 E32.21181
G1 X191.208 Y96.885 E32.26079
G1 X190.92 Y97.76 E32.30982
G1 X190.557 Y98.606 E32.35881
G1 X190.123 Y99.417 E32.40776
G1 X189.619 Y100.188 E32.45677
G1 X189.228 Y100.7 E32.49106
G1 X188.962 Y101.027 E32.51349
G1 X188.794 Y101.229 E32.52747
G1 X187.622 Y102.599 E32.62341
G1 X186.061 Y104.533 E32.75568
G1 X184.529 Y106.545 E32.89025
G1 X183.045 Y108.613 E33.02571
G1 X181.638 Y110.696 E33.15948
G1 X180.286 Y112.824 E33.29364
G1 X178.977 Y115.02 E33.42969
G1 X177.758 Y117.203 E33.56275
G1 X176.58 Y119.458 E33.69814
G1 X175.48 Y121.72 E33.83199
G1 X174.436 Y124.03 E33.96689
G1 X173.441 Y126.405 E34.10393
G1 X172.548 Y128.726 E34.23627
G1 X171.706 Y131.106 E34.37061
G1 X170.932 Y133.514 E34.50522
G1 X170.228 Y135.934 E34.63934
G1 X169.583 Y138.411 E34.77555
G1 X169.015 Y140.869 E34.9098
G1 X168.523 Y143.331 E35.04341
G1 X168.094 Y145.827 E35.17819
G1 X167.737 Y148.331 E35.31279
G1 X167.452 Y150.833 E35.4468
G1 X167.236 Y153.366 E35.58208
G1 X167.093 Y155.881 E35.71614
G1 X167.019 Y158.454 E35.85312
G1 X167.01 Y159.777 E35.92353
G1 X167.011 Y183.338 E37.17735
G1 X167.048 Y185.965 E37.31717
G1 X167.155 Y188.472 E37.4507
G1 X167.332 Y190.976 E37.58429
G1 X167.585 Y193.519 E37.72028
G1 X167.905 Y196.02 E37.85446
G1 X168.297 Y198.522 E37.98923
G1 X168.756 Y200.988 E38.12272
G1 X169.291 Y203.472 E38.25794
G1 X169.891 Y205.918 E38.39196
G1 X170.56 Y208.349 E38.52614
G1 X171.309 Y210.795 E38.66227
G1 X172.164 Y213.326 E38.80444
G1 X172.573 Y214.481 E38.86965
G1 X172.843 Y215.362 E38.91868
G1 X173.035 Y216.262 E38.96766
G1 X173.168 Y217.482 E39.03296
G1 X173.186 Y217.835 E39.05177
G1 X173.2 Y218.375 E39.08052
G1 X173.2 Y233.619 E39.89175
G1 X173.199 Y233.75 E39.89872
G1 X173.19 Y234.477 E39.93741
G1 X173.139 Y235.396 E39.98639
G1 X173.008 Y236.308 E40.03542
G1 X172.798 Y237.204 E40.0844
G1 X172.512 Y238.079 E40.13338
G1 X172.151 Y238.926 E40.18238
G1 X171.717 Y239.738 E40.23138
G1 X171.215 Y240.51 E40.28038
G1 X170.647 Y241.235 E40.3294
G1 X170.019 Y241.908 E40.37838
G1 X169.335 Y242.524 E40.42737
G1 X168.6 Y243.078 E40.47635
G1 X167.82 Y243.567 E40.52534
G1 X167 Y243.986 E40.57434
G1 X166.147 Y244.332 E40.62333
G1 X165.267 Y244.603 E40.67233
G1 X164.367 Y244.796 E40.72131
G1 X163.453 Y244.911 E40.77034
G1 X162.888 Y244.942 E40.80045
G1 X162.567 Y244.951 E40.81754
G1 X162.27 Y244.955 E40.83334
G1 X159.714 Y244.955 E40.96936
G1 X159.562 Y244.954 E40.97745
G1 X158.865 Y244.944 E41.01455
G1 X158.274 Y244.919 E41.04603
G1 X157.506 Y244.865 E41.087
G1 X157.344 Y244.852 E41.09565
G1 X156.258 Y244.759 E41.15365
G1 X153.738 Y244.616 E41.28797
G1 X151.182 Y244.543 E41.42405
G1 X148.671 Y244.541 E41.55767
G1 X146.128 Y244.612 E41.69306
G1 X143.611 Y244.754 E41.82721
G1 X142.117 Y244.871 E41.90696
G1 X141.625 Y244.898 E41.93318
G1 X140.394 Y244.937 E41.99873
G1 X140.111 Y244.942 E42.01379
G1 X138.129 Y244.952 E42.11926
G1 X137.979 Y244.952 E42.12725
G1 X137.326 Y244.946 E42.162
G1 X136.406 Y244.897 E42.21103
G1 X135.495 Y244.769 E42.25998
G1 X134.597 Y244.562 E42.30902
G1 X133.722 Y244.279 E42.35796
G1 X132.874 Y243.92 E42.40697
G1 X132.06 Y243.489 E42.45598
G1 X131.287 Y242.989 E42.50498
G1 X130.56 Y242.424 E42.55397
G1 X129.885 Y241.798 E42.60296
G1 X129.267 Y241.116 E42.65194
G1 X128.71 Y240.383 E42.70093
G1 X128.219 Y239.604 E42.74994
G1 X127.797 Y238.786 E42.79892
G1 X127.449 Y237.934 E42.8479
G1 X127.175 Y237.055 E42.89689
G1 X126.979 Y236.155 E42.94591
G1 X126.864 Y235.282 E42.99277
G1 X126.846 Y235.079 E43.00361
G1 X126.805 Y234.246 E43.048
G1 X126.802 Y233.936 E43.06449
G1 X126.802 Y233.834 E43.06992
G1 X126.8 Y218.759 E43.87216
G1 X126.801 Y218.609 E43.88014
G1 X126.811 Y217.898 E43.91798
G1 X126.864 Y216.979 E43.96697
G1 X126.996 Y216.068 E44.01595
G1 X127.207 Y215.172 E44.06494
G1 X127.416 Y214.515 E44.10163
G1 X128.289 Y212.044 E44.24109
G1 X129.071 Y209.613 E44.37699
G1 X129.772 Y207.204 E44.5105
G1 X130.417 Y204.727 E44.64672
G1 X130.985 Y202.269 E44.78097
G1 X131.479 Y199.801 E44.91491
G1 X131.905 Y197.316 E45.04908
G1 X132.263 Y194.806 E45.18401
G1 X132.548 Y192.304 E45.31802
G1 X132.764 Y189.772 E45.45325
G1 X132.907 Y187.256 E45.58736
G1 X132.981 Y184.684 E45.72429
