;FLAVOR:Marlin
;TIME:20303
;Filament used: 10.1973m
;Layer height: 0.2
;MINX:108.235
;MINY:55.48
;MINZ:0.1
;MAXX:191.765
;MAXY:245.105
;MAXZ:85.9
;Generated with Cura_SteamEngine 4.3.0
M140 S60
M105
M190 S60
M104 S200
M105
M109 S200
M82 ;absolute extrusion mode
M201 X500.00 Y500.00 Z100.00 E5000.00 ;Setup machine max acceleration
M203 X500.00 Y500.00 Z10.00 E50.00 ;Setup machine max feedrate
M204 P500.00 R1000.00 T500.00 ;Setup Print/Retract/Travel acceleration
M205 X8.00 Y8.00 Z0.40 E5.00 ;Setup Jerk
M220 S100 ;Reset Feedrate
M221 S100 ;Reset Flowrate

G28 ;Home

G92 E0 ;Reset Extruder
G1 Z2.0 F3000 ;Move Z Axis up
G1 X10.1 Y20 Z0.28 F5000.0 ;Move to start position
G1 X10.1 Y200.0 Z0.28 F1500.0 E15 ;Draw the first line
G1 X10.4 Y200.0 Z0.28 F5000.0 ;Move to side a little
G1 X10.4 Y20 Z0.28 F1500.0 E30 ;Draw the second line
G92 E0 ;Reset Extruder
G1 Z2.0 F3000 ;Move Z Axis up

G92 E0
G92 E0
G1 F1500 E-6.5
;LAYER_COUNT:429
;LAYER:0
M107
G1 F300 Z0.3
G0 F6000 X114.969 Y61.611 Z0.3
;TYPE:SKIRT
G1 F300 Z0.1
G1 F1500 E0
G1 F1200 X115.406 Y60.794 E0.01156
G1 X115.912 Y60.017 E0.02312
G1 X116.483 Y59.286 E0.03469
G1 X117.115 Y58.608 E0.04625
G1 X117.803 Y57.986 E0.05782
G1 X118.542 Y57.426 E0.06938
G1 X119.326 Y56.932 E0.08094
G1 X120.15 Y56.507 E0.09251
G1 X121.008 Y56.155 E0.10407
G1 X121.893 Y55.878 E0.11564
G1 X122.798 Y55.678 E0.1272
G1 X123.717 Y55.557 E0.13876
G1 X124.406 Y55.519 E0.14737
G1 X125.426 Y55.495 E0.16009
G1 X125.655 Y55.492 E0.16295
G1 X130.075 Y55.482 E0.21808
G1 X130.211 Y55.483 E0.21977
G1 X130.882 Y55.49 E0.22814
G1 X131.354 Y55.505 E0.23403
G1 X133.928 Y55.645 E0.26619
G1 X136.432 Y55.711 E0.29743
G1 X138.969 Y55.705 E0.32907
G1 X141.53 Y55.627 E0.36103
G1 X142.867 Y55.557 E0.37773
G1 X143.651 Y55.51 E0.38752
G1 X143.957 Y55.496 E0.39134
G1 X144.276 Y55.486 E0.39532
G1 X144.612 Y55.481 E0.39951
G1 X154.979 Y55.48 E0.52882
G1 X155.132 Y55.481 E0.53073
G1 X155.838 Y55.491 E0.53953
G1 X156.283 Y55.507 E0.54509
G1 X158.68 Y55.64 E0.57503
G1 X161.257 Y55.714 E0.60718
G1 X163.76 Y55.716 E0.6384
G1 X166.326 Y55.644 E0.67042
G1 X168.352 Y55.538 E0.69572
G1 X168.666 Y55.526 E0.69964
G1 X170.003 Y55.495 E0.71632
G1 X170.228 Y55.492 E0.71913
G1 X174.652 Y55.482 E0.77431
G1 X174.789 Y55.483 E0.77602
G1 X175.455 Y55.49 E0.78432
G1 X176.381 Y55.539 E0.79589
G1 X177.299 Y55.669 E0.80745
G1 X178.202 Y55.877 E0.81901
G1 X179.085 Y56.162 E0.83058
G1 X179.939 Y56.522 E0.84214
G1 X180.759 Y56.954 E0.8537
G1 X181.539 Y57.455 E0.86527
G1 X182.273 Y58.022 E0.87683
G1 X182.955 Y58.65 E0.8884
G1 X183.581 Y59.334 E0.89996
G1 X184.145 Y60.069 E0.91152
G1 X184.644 Y60.851 E0.92309
G1 X185.074 Y61.672 E0.93465
G1 X185.431 Y62.528 E0.94622
G1 X185.713 Y63.411 E0.95778
G1 X185.918 Y64.315 E0.96934
G1 X186.025 Y65.045 E0.97854
G1 X186.115 Y65.85 E0.98864
G1 X186.126 Y65.953 E0.98994
G1 X186.213 Y66.801 E1.00057
G1 X186.546 Y69.354 E1.03268
G1 X186.939 Y71.823 E1.06386
G1 X187.411 Y74.325 E1.09562
G1 X187.935 Y76.73 E1.12632
G1 X188.56 Y79.253 E1.15874
G1 X189.226 Y81.649 E1.18976
G1 X189.974 Y84.076 E1.22143
G1 X190.755 Y86.378 E1.25175
G1 X191.137 Y87.455 E1.266
G1 X191.408 Y88.341 E1.27756
G1 X191.603 Y89.248 E1.28913
G1 X191.718 Y90.168 E1.30069
G1 X191.748 Y90.687 E1.30718
G1 X191.759 Y91.017 E1.3113
G1 X191.765 Y91.375 E1.31576
G1 X191.765 Y93.294 E1.3397
G1 X191.764 Y93.444 E1.34157
G1 X191.754 Y94.161 E1.35051
G1 X191.701 Y95.087 E1.36208
G1 X191.569 Y96.004 E1.37364
G1 X191.358 Y96.907 E1.3852
G1 X191.07 Y97.788 E1.39676
G1 X190.707 Y98.641 E1.40833
G1 X190.272 Y99.46 E1.41989
G1 X189.768 Y100.238 E1.43145
G1 X189.377 Y100.755 E1.43954
G1 X189.203 Y100.971 E1.443
G1 X189.006 Y101.208 E1.44684
G1 X187.597 Y102.859 E1.47391
G1 X186.04 Y104.789 E1.50484
G1 X184.503 Y106.811 E1.53652
G1 X183.038 Y108.854 E1.56788
G1 X181.61 Y110.97 E1.59972
G1 X180.263 Y113.094 E1.63109
G1 X178.98 Y115.249 E1.66237
G1 X177.747 Y117.46 E1.69394
G1 X176.582 Y119.696 E1.72539
G1 X175.48 Y121.964 E1.75684
G1 X174.44 Y124.27 E1.78839
G1 X173.449 Y126.643 E1.82047
G1 X172.561 Y128.952 E1.85132
G1 X171.725 Y131.324 E1.88269
G1 X170.943 Y133.759 E1.91459
G1 X170.25 Y136.149 E1.94562
G1 X169.607 Y138.624 E1.97752
G1 X169.043 Y141.069 E2.00882
G1 X168.546 Y143.564 E2.04055
G1 X168.127 Y146.011 E2.07151
G1 X167.769 Y148.54 E2.10337
G1 X167.488 Y151.026 E2.13457
G1 X167.271 Y153.574 E2.16647
G1 X167.133 Y156.028 E2.19712
G1 X167.051 Y159.954 E2.2461
G1 X167.051 Y183.041 E2.53405
G1 X167.088 Y185.66 E2.56672
G1 X167.194 Y188.157 E2.5979
G1 X167.372 Y190.671 E2.62933
G1 X167.624 Y193.212 E2.66118
G1 X167.941 Y195.688 E2.69231
G1 X168.336 Y198.202 E2.72405
G1 X168.799 Y200.693 E2.75565
G1 X169.328 Y203.151 E2.78701
G1 X169.915 Y205.545 E2.81776
G1 X170.6 Y208.037 E2.84999
G1 X171.34 Y210.454 E2.88152
G1 X172.144 Y212.838 E2.9129
G1 X172.249 Y213.122 E2.91668
G1 X172.293 Y213.244 E2.91829
G1 X172.716 Y214.437 E2.93408
G1 X172.988 Y215.323 E2.94564
G1 X173.182 Y216.229 E2.9572
G1 X173.323 Y217.532 E2.97354
G1 X173.339 Y217.878 E2.97786
G1 X173.35 Y218.375 E2.98406
G1 X173.35 Y233.619 E3.1742
G1 X173.349 Y233.752 E3.17585
G1 X173.34 Y234.479 E3.18492
G1 X173.289 Y235.405 E3.19649
G1 X173.158 Y236.323 E3.20806
G1 X172.948 Y237.226 E3.21962
G1 X172.661 Y238.107 E3.23118
G1 X172.3 Y238.961 E3.24274
G1 X171.866 Y239.781 E3.25431
G1 X171.363 Y240.56 E3.26588
G1 X170.795 Y241.292 E3.27743
G1 X170.166 Y241.973 E3.289
G1 X169.481 Y242.598 E3.30056
G1 X168.744 Y243.161 E3.31213
G1 X167.962 Y243.658 E3.32369
G1 X167.139 Y244.086 E3.33526
G1 X166.283 Y244.442 E3.34682
G1 X165.4 Y244.723 E3.35838
G1 X164.495 Y244.926 E3.36994
G1 X163.576 Y245.051 E3.38151
G1 X162.892 Y245.092 E3.39006
G1 X162.571 Y245.101 E3.39406
G1 X162.27 Y245.105 E3.39782
G1 X159.703 Y245.105 E3.42984
G1 X159.549 Y245.104 E3.43176
G1 X158.852 Y245.094 E3.44045
G1 X158.249 Y245.068 E3.44798
G1 X157.328 Y245.003 E3.45949
G1 X157.175 Y244.991 E3.46141
G1 X156.3 Y244.917 E3.47236
G1 X153.76 Y244.773 E3.50409
G1 X151.223 Y244.701 E3.53575
G1 X148.72 Y244.701 E3.56697
G1 X146.202 Y244.772 E3.59838
G1 X142.79 Y244.981 E3.64102
G1 X141.953 Y245.048 E3.65149
G1 X141.296 Y245.08 E3.6597
G1 X140.335 Y245.098 E3.67169
G1 X140.155 Y245.1 E3.67393
G1 X138.089 Y245.104 E3.6997
G1 X137.934 Y245.103 E3.70163
G1 X137.29 Y245.095 E3.70967
G1 X136.365 Y245.044 E3.72122
G1 X135.447 Y244.913 E3.73279
G1 X134.544 Y244.703 E3.74435
G1 X133.662 Y244.416 E3.75592
G1 X132.808 Y244.055 E3.76748
G1 X131.989 Y243.621 E3.77904
G1 X131.21 Y243.118 E3.79061
G1 X130.477 Y242.55 E3.80217
G1 X129.796 Y241.921 E3.81374
G1 X129.172 Y241.235 E3.8253
G1 X128.609 Y240.499 E3.83686
G1 X128.112 Y239.716 E3.84843
G1 X127.683 Y238.894 E3.85999
G1 X127.328 Y238.038 E3.87155
G1 X127.047 Y237.154 E3.88312
G1 X126.844 Y236.249 E3.89469
G1 X126.707 Y235.191 E3.90799
G1 X126.685 Y234.912 E3.91149
G1 X126.652 Y234.163 E3.92084
G1 X126.65 Y233.94 E3.92362
G1 X126.65 Y218.752 E4.11305
G1 X126.651 Y218.598 E4.11497
G1 X126.661 Y217.901 E4.12367
G1 X126.714 Y216.975 E4.13523
G1 X126.847 Y216.058 E4.14679
G1 X127.059 Y215.155 E4.15836
G1 X127.288 Y214.435 E4.16778
G1 X127.391 Y214.147 E4.1716
G1 X128.262 Y211.68 E4.20423
G1 X129.043 Y209.253 E4.23603
G1 X129.747 Y206.835 E4.26744
G1 X130.376 Y204.416 E4.29861
G1 X130.955 Y201.903 E4.33078
G1 X131.445 Y199.463 E4.36182
G1 X131.87 Y196.973 E4.39333
G1 X132.23 Y194.446 E4.42516
G1 X132.512 Y191.968 E4.45627
G1 X132.725 Y189.465 E4.4876
G1 X132.868 Y186.932 E4.51924
G1 X132.941 Y184.367 E4.55125
G1 X132.95 Y183.064 E4.5675
G1 X132.95 Y159.912 E4.85627
G1 X132.913 Y157.293 E4.88893
G1 X132.807 Y154.795 E4.92012
G1 X132.629 Y152.281 E4.95155
G1 X132.377 Y149.74 E4.9834
G1 X132.06 Y147.265 E5.01452
G1 X131.665 Y144.751 E5.04626
G1 X131.202 Y142.26 E5.07787
G1 X130.68 Y139.834 E5.10882
G1 X130.073 Y137.36 E5.14059
G1 X129.406 Y134.932 E5.17199
G1 X128.661 Y132.499 E5.20373
G1 X127.86 Y130.125 E5.23498
G1 X126.985 Y127.752 E5.26653
G1 X126.042 Y125.405 E5.29807
G1 X125.032 Y123.084 E5.32964
G1 X123.961 Y120.801 E5.3611
G1 X122.833 Y118.559 E5.3924
G1 X121.622 Y116.315 E5.4242
G1 X120.372 Y114.148 E5.45541
G1 X119.045 Y111.993 E5.48697
G1 X117.663 Y109.882 E5.51844
G1 X116.235 Y107.832 E5.5496
G1 X114.712 Y105.77 E5.58157
G1 X113.168 Y103.799 E5.6128
G1 X111.421 Y101.699 E5.64687
G1 X110.833 Y101.012 E5.65815
G1 X110.261 Y100.283 E5.66971
G1 X109.753 Y99.507 E5.68128
G1 X109.315 Y98.69 E5.69284
G1 X108.948 Y97.838 E5.70441
G1 X108.656 Y96.958 E5.71597
G1 X108.441 Y96.057 E5.72753
G1 X108.305 Y95.139 E5.7391
G1 X108.252 Y94.378 E5.74862
G1 X108.241 Y94.051 E5.7527
G1 X108.235 Y93.69 E5.7572
G1 X108.235 Y91.752 E5.78137
G1 X108.236 Y91.598 E5.78329
G1 X108.246 Y90.901 E5.79199
G1 X108.299 Y89.975 E5.80356
G1 X108.432 Y89.058 E5.81511
G1 X108.644 Y88.155 E5.82668
G1 X108.851 Y87.497 E5.83529
G1 X109.699 Y85.079 E5.86725
G1 X110.483 Y82.642 E5.89918
G1 X111.176 Y80.252 E5.93021
G1 X111.823 Y77.768 E5.96223
G1 X112.385 Y75.326 E5.99348
G1 X112.88 Y72.85 E6.02498
G1 X113.303 Y70.374 E6.05631
G1 X113.661 Y67.859 E6.08799
G1 X113.958 Y65.246 E6.12079
G1 X113.966 Y65.164 E6.12182
G1 X114.1 Y64.246 E6.13339
G1 X114.314 Y63.344 E6.14495
G1 X114.604 Y62.463 E6.15652
G1 X114.969 Y61.611 E6.16808
G0 F6000 X115.262 Y61.695
G1 F1200 X115.697 Y60.891 E6.17948
G1 X116.201 Y60.128 E6.19089
G1 X116.77 Y59.413 E6.20228
G1 X117.399 Y58.75 E6.21368
G1 X118.084 Y58.144 E6.22509
G1 X118.819 Y57.6 E6.2365
G1 X119.598 Y57.123 E6.24789
G1 X120.417 Y56.716 E6.2593
G1 X121.267 Y56.382 E6.27069
G1 X122.144 Y56.123 E6.28209
G1 X123.04 Y55.942 E6.29349
G1 X123.949 Y55.84 E6.3049
G1 X124.413 Y55.819 E6.31069
G1 X125.433 Y55.795 E6.32342
G1 X125.655 Y55.792 E6.32619
G1 X130.075 Y55.782 E6.38132
G1 X130.208 Y55.783 E6.38298
G1 X130.879 Y55.79 E6.39135
G1 X131.338 Y55.804 E6.39707
G1 X133.94 Y55.946 E6.42958
G1 X136.425 Y56.011 E6.46058
G1 X138.979 Y56.005 E6.49244
G1 X141.51 Y55.928 E6.52402
G1 X142.961 Y55.852 E6.54214
G1 X143.669 Y55.81 E6.55099
G1 X143.967 Y55.796 E6.55471
G1 X144.286 Y55.786 E6.55869
G1 X144.612 Y55.781 E6.56276
G1 X154.979 Y55.78 E6.69206
G1 X155.128 Y55.781 E6.69392
G1 X155.834 Y55.791 E6.70272
G1 X156.266 Y55.806 E6.70811
G1 X158.691 Y55.941 E6.73841
G1 X161.248 Y56.014 E6.77031
G1 X163.768 Y56.016 E6.80174
G1 X166.31 Y55.945 E6.83346
G1 X168.368 Y55.837 E6.85916
G1 X168.673 Y55.826 E6.86297
G1 X170.01 Y55.795 E6.87965
G1 X170.228 Y55.792 E6.88237
G1 X174.652 Y55.782 E6.93755
G1 X174.786 Y55.783 E6.93922
G1 X175.452 Y55.79 E6.94753
G1 X176.365 Y55.839 E6.95893
G1 X177.27 Y55.968 E6.97033
G1 X178.16 Y56.176 E6.98173
G1 X179.028 Y56.461 E6.99313
G1 X179.869 Y56.82 E7.00453
G1 X180.675 Y57.252 E7.01594
G1 X181.44 Y57.752 E7.02734
G1 X182.158 Y58.318 E7.03874
G1 X182.824 Y58.944 E7.05014
G1 X183.433 Y59.625 E7.06154
G1 X183.98 Y60.358 E7.07294
G1 X184.461 Y61.135 E7.08434
G1 X184.872 Y61.952 E7.09575
G1 X185.21 Y62.801 E7.10715
G1 X185.473 Y63.676 E7.11854
G1 X185.658 Y64.572 E7.12995
G1 X185.727 Y65.078 E7.13632
G1 X185.817 Y65.883 E7.14643
G1 X185.828 Y65.983 E7.14768
G1 X185.918 Y66.868 E7.15878
G1 X186.245 Y69.372 E7.19027
G1 X186.646 Y71.888 E7.22205
G1 X187.115 Y74.379 E7.25366
G1 X187.642 Y76.793 E7.28448
G1 X188.271 Y79.332 E7.31711
G1 X188.941 Y81.744 E7.34833
G1 X189.684 Y84.154 E7.37978
G1 X190.481 Y86.502 E7.41071
G1 X190.854 Y87.555 E7.42464
G1 X191.121 Y88.429 E7.43604
G1 X191.311 Y89.323 E7.44744
G1 X191.422 Y90.231 E7.45885
G1 X191.448 Y90.697 E7.46467
G1 X191.459 Y91.027 E7.46879
G1 X191.465 Y91.375 E7.47313
G1 X191.465 Y93.294 E7.49707
G1 X191.464 Y93.44 E7.49889
G1 X191.454 Y94.157 E7.50783
G1 X191.401 Y95.069 E7.51923
G1 X191.269 Y95.974 E7.53063
G1 X191.058 Y96.863 E7.54203
G1 X190.77 Y97.731 E7.55344
G1 X190.408 Y98.57 E7.56483
G1 X189.974 Y99.374 E7.57623
G1 X189.471 Y100.138 E7.58764
G1 X189.143 Y100.567 E7.59437
G1 X188.969 Y100.783 E7.59783
G1 X188.778 Y101.013 E7.60156
G1 X187.38 Y102.65 E7.62841
G1 X185.799 Y104.611 E7.65983
G1 X184.247 Y106.651 E7.6918
G1 X182.79 Y108.685 E7.72301
G1 X181.369 Y110.791 E7.75469
G1 X180.022 Y112.914 E7.78605
G1 X178.697 Y115.14 E7.81836
G1 X177.496 Y117.294 E7.84912
G1 X176.307 Y119.575 E7.8812
G1 X175.213 Y121.828 E7.91244
G1 X174.158 Y124.166 E7.94444
G1 X173.173 Y126.525 E7.97632
G1 X172.283 Y128.839 E8.00724
G1 X171.434 Y131.25 E8.03912
G1 X170.664 Y133.647 E8.07053
G1 X169.965 Y136.053 E8.10177
G1 X169.316 Y138.554 E8.134
G1 X168.741 Y141.047 E8.16591
G1 X168.255 Y143.486 E8.19693
G1 X167.832 Y145.956 E8.22819
G1 X167.472 Y148.5 E8.26023
G1 X167.188 Y151.008 E8.29171
G1 X166.971 Y153.565 E8.32372
G1 X166.834 Y156.005 E8.3542
G1 X166.751 Y159.948 E8.40339
G1 X166.751 Y183.045 E8.69147
G1 X166.788 Y185.642 E8.72386
G1 X166.896 Y188.193 E8.75571
G1 X167.075 Y190.721 E8.78732
G1 X167.325 Y193.243 E8.81893
G1 X167.645 Y195.741 E8.85034
G1 X168.036 Y198.231 E8.88178
G1 X168.504 Y200.746 E8.91369
G1 X169.033 Y203.205 E8.94506
G1 X169.636 Y205.665 E8.97665
G1 X170.305 Y208.099 E9.00813
G1 X171.05 Y210.532 E9.03987
G1 X171.871 Y212.965 E9.0719
G1 X171.967 Y213.226 E9.07536
G1 X172.01 Y213.344 E9.07693
G1 X172.433 Y214.537 E9.09272
G1 X172.701 Y215.411 E9.10412
G1 X172.891 Y216.305 E9.11552
G1 X173.023 Y217.546 E9.13109
G1 X173.039 Y217.892 E9.13541
G1 X173.05 Y218.375 E9.14143
G1 X173.05 Y233.619 E9.33156
G1 X173.049 Y233.748 E9.33317
G1 X173.04 Y234.475 E9.34224
G1 X172.989 Y235.388 E9.35365
G1 X172.858 Y236.293 E9.36505
G1 X172.649 Y237.183 E9.37645
G1 X172.362 Y238.051 E9.38786
G1 X172.001 Y238.89 E9.39925
G1 X171.568 Y239.695 E9.41065
G1 X171.066 Y240.459 E9.42205
G1 X170.5 Y241.177 E9.43345
G1 X169.872 Y241.842 E9.44486
G1 X169.189 Y242.449 E9.45626
G1 X168.456 Y242.995 E9.46766
G1 X167.678 Y243.474 E9.47905
G1 X166.861 Y243.884 E9.49045
G1 X166.011 Y244.221 E9.50186
G1 X165.135 Y244.482 E9.51326
G1 X164.239 Y244.665 E9.52467
G1 X162.884 Y244.792 E9.54164
G1 X162.563 Y244.801 E9.54565
G1 X162.27 Y244.805 E9.5493
G1 X159.703 Y244.805 E9.58132
G1 X159.553 Y244.804 E9.58319
G1 X158.856 Y244.794 E9.59188
G1 X158.27 Y244.769 E9.5992
G1 X157.349 Y244.704 E9.61071
G1 X157.201 Y244.693 E9.61257
G1 X156.273 Y244.614 E9.62418
G1 X153.786 Y244.473 E9.65525
G1 X151.231 Y244.401 E9.68713
G1 X148.712 Y244.401 E9.71855
G1 X146.206 Y244.472 E9.74982
G1 X142.747 Y244.684 E9.79304
G1 X141.929 Y244.749 E9.80328
G1 X141.291 Y244.78 E9.81124
G1 X140.33 Y244.798 E9.82323
G1 X140.154 Y244.8 E9.82543
G1 X138.088 Y244.804 E9.85119
G1 X137.938 Y244.803 E9.85307
G1 X137.294 Y244.795 E9.8611
G1 X136.382 Y244.744 E9.87249
G1 X135.477 Y244.613 E9.8839
G1 X134.587 Y244.404 E9.8953
G1 X133.719 Y244.117 E9.9067
G1 X132.879 Y243.756 E9.91811
G1 X132.074 Y243.323 E9.92951
G1 X131.31 Y242.821 E9.94091
G1 X130.593 Y242.254 E9.95231
G1 X129.928 Y241.627 E9.96371
G1 X129.32 Y240.944 E9.97511
G1 X128.775 Y240.211 E9.98651
G1 X128.295 Y239.432 E9.99792
G1 X127.886 Y238.615 E10.00931
G1 X127.549 Y237.765 E10.02072
G1 X127.288 Y236.889 E10.03212
G1 X127.105 Y235.994 E10.04351
G1 X127.006 Y235.167 E10.0539
G1 X126.984 Y234.888 E10.05739
G1 X126.952 Y234.161 E10.06647
G1 X126.95 Y233.938 E10.06925
G1 X126.95 Y218.752 E10.25866
G1 X126.951 Y218.602 E10.26053
G1 X126.961 Y217.905 E10.26922
G1 X127.014 Y216.993 E10.28062
G1 X127.147 Y216.088 E10.29203
G1 X127.358 Y215.199 E10.30342
G1 X127.57 Y214.536 E10.3121
G1 X127.673 Y214.248 E10.31592
G1 X127.674 Y214.248 E10.31593
G1 X128.55 Y211.767 E10.34875
G1 X129.322 Y209.365 E10.38022
G1 X130.034 Y206.92 E10.41198
G1 X130.678 Y204.444 E10.44389
G1 X131.241 Y201.999 E10.47518
G1 X131.743 Y199.501 E10.50696
G1 X132.164 Y197.034 E10.53818
G1 X132.528 Y194.484 E10.5703
G1 X132.81 Y191.994 E10.60156
G1 X133.025 Y189.47 E10.63315
G1 X133.168 Y186.958 E10.66454
G1 X133.241 Y184.377 E10.69674
G1 X133.25 Y183.066 E10.71309
G1 X133.25 Y159.908 E11.00193
G1 X133.213 Y157.311 E11.03433
G1 X133.105 Y154.759 E11.06618
G1 X132.926 Y152.231 E11.09779
G1 X132.676 Y149.709 E11.1294
G1 X132.356 Y147.213 E11.16079
G1 X131.965 Y144.722 E11.19224
G1 X131.499 Y142.214 E11.22406
G1 X130.973 Y139.772 E11.25521
G1 X130.361 Y137.273 E11.2873
G1 X129.691 Y134.837 E11.31881
