;FLAVOR:Marlin
;TIME:23918
;Filament used: 24.7064m
;Layer height: 0.32
;MINX:45.009
;MINY:62.9
;MINZ:0.32
;MAXX:268.321
;MAXY:237.1
;MAXZ:50.76
;Generated with Cura_SteamEngine 4.3.0
M140 S60
M105
M190 S60
M104 S205
M105
M109 S205
M82 ;absolute extrusion mode
M201 X500.00 Y500.00 Z100.00 E5000.00 ;Setup machine max acceleration
M203 X500.00 Y500.00 Z10.00 E50.00 ;Setup machine max feedrate
M204 P500.00 R1000.00 T500.00 ;Setup Print/Retract/Travel acceleration
M205 X8.00 Y8.00 Z0.40 E5.00 ;Setup Jerk
M220 S100 ;Reset Feedrate
M221 S100 ;Reset Flowrate

G28 ;Home

G92 E0 ;Reset Extruder
G1 Z2.0 F3000 ;Move Z Axis up
G1 X10.1 Y20 Z0.28 F5000.0 ;Move to start position
G1 X10.1 Y200.0 Z0.28 F1500.0 E15 ;Draw the first line
G1 X10.4 Y200.0 Z0.28 F5000.0 ;Move to side a little
G1 X10.4 Y20 Z0.28 F1500.0 E30 ;Draw the second line
G92 E0 ;Reset Extruder
G1 Z2.0 F3000 ;Move Z Axis up

G92 E0
G92 E0
G1 F1500 E-6.5
;LAYER_COUNT:158
;LAYER:0
M107
G1 F300 Z0.52
G0 F6000 X78.88 Y102.145 Z0.52
;TYPE:SKIRT
G1 F300 Z0.32
G1 F1500 E0
G1 F1200 X79.38 Y101.767 E0.03336
G1 X79.59 Y101.612 E0.04725
G1 X79.843 Y101.43 E0.06383
G1 X80.089 Y101.259 E0.07977
G1 X80.637 Y100.887 E0.11502
G1 X80.868 Y100.734 E0.12977
G1 X81.173 Y100.538 E0.14906
G1 X81.445 Y100.369 E0.1661
G1 X81.978 Y100.048 E0.19921
G1 X82.22 Y99.906 E0.21414
G1 X82.558 Y99.714 E0.23483
G1 X82.823 Y99.569 E0.25091
G1 X83.428 Y99.247 E0.28738
G1 X83.692 Y99.111 E0.30318
G1 X83.955 Y98.98 E0.31882
G1 X84.179 Y98.871 E0.33207
G1 X84.781 Y98.588 E0.36747
G1 X85.11 Y98.44 E0.38667
G1 X85.456 Y98.291 E0.40672
G1 X85.692 Y98.193 E0.42032
G1 X86.334 Y97.934 E0.45716
G1 X86.625 Y97.821 E0.47377
G1 X86.892 Y97.722 E0.48892
G1 X87.153 Y97.629 E0.50367
G1 X87.784 Y97.413 E0.53916
G1 X88.053 Y97.325 E0.55422
G1 X88.429 Y97.207 E0.5752
G1 X88.715 Y97.121 E0.59109
G1 X89.299 Y96.955 E0.6234
G1 X89.583 Y96.879 E0.63904
G1 X89.986 Y96.776 E0.66118
G1 X90.288 Y96.703 E0.67771
G1 X91.398 Y96.452 E0.73827
G1 X93.944 Y95.838 E0.87765
G1 X96.364 Y95.179 E1.01112
G1 X98.778 Y94.45 E1.14531
G1 X101.178 Y93.649 E1.27996
G1 X103.51 Y92.798 E1.41206
G1 X105.891 Y91.851 E1.54843
G1 X108.19 Y90.86 E1.68165
G1 X110.469 Y89.802 E1.81536
G1 X112.707 Y88.683 E1.94852
G1 X114.945 Y87.485 E2.08361
G1 X117.114 Y86.243 E2.21662
G1 X119.261 Y84.933 E2.35046
G1 X121.396 Y83.545 E2.48598
G1 X123.421 Y82.145 E2.61699
G1 X125.505 Y80.616 E2.75454
G1 X127.465 Y79.091 E2.88669
G1 X129.399 Y77.495 E3.02013
G1 X131.313 Y75.824 E3.15534
G1 X133.158 Y74.119 E3.28903
G1 X134.945 Y72.371 E3.42206
G1 X136.701 Y70.553 E3.55657
G1 X138.395 Y68.696 E3.69033
G1 X139.646 Y67.239 E3.79253
G1 X139.73 Y67.142 E3.79936
G1 X140.151 Y66.663 E3.83329
G1 X140.799 Y65.986 E3.88316
G1 X141.503 Y65.366 E3.93309
G1 X142.257 Y64.809 E3.98297
G1 X143.056 Y64.317 E4.03291
G1 X143.894 Y63.896 E4.08281
G1 X144.765 Y63.548 E4.13273
G1 X145.662 Y63.274 E4.18264
G1 X146.58 Y63.079 E4.23258
G1 X147.604 Y62.955 E4.28747
G1 X147.943 Y62.93 E4.30556
G1 X148.752 Y62.9 E4.34864
G1 X160.537 Y62.9 E4.9758
G1 X160.695 Y62.901 E4.98421
G1 X161.393 Y62.911 E5.02135
G1 X162.329 Y62.965 E5.07125
G1 X163.257 Y63.097 E5.12113
G1 X164.171 Y63.309 E5.17106
G1 X165.063 Y63.598 E5.22096
G1 X165.928 Y63.961 E5.27088
G1 X166.758 Y64.397 E5.32077
G1 X167.549 Y64.902 E5.37071
G1 X168.293 Y65.473 E5.42062
G1 X168.914 Y66.034 E5.46516
G1 X169.514 Y66.619 E5.50975
G1 X169.663 Y66.767 E5.52093
G1 X170.32 Y67.432 E5.57068
G1 X172.155 Y69.189 E5.70587
G1 X174.028 Y70.885 E5.84034
G1 X175.904 Y72.488 E5.97165
G1 X177.884 Y74.087 E6.10709
G1 X179.893 Y75.616 E6.24144
G1 X181.941 Y77.087 E6.37563
G1 X183.999 Y78.477 E6.50779
G1 X186.15 Y79.842 E6.64336
G1 X188.302 Y81.126 E6.77672
G1 X190.521 Y82.366 E6.91199
G1 X192.722 Y83.513 E7.04407
G1 X195.003 Y84.623 E7.17907
G1 X197.32 Y85.67 E7.31437
G1 X199.602 Y86.625 E7.44602
G1 X201.987 Y87.545 E7.58205
G1 X204.332 Y88.372 E7.71438
G1 X206.734 Y89.144 E7.84864
G1 X209.15 Y89.847 E7.98255
G1 X211.583 Y90.481 E8.11635
G1 X214.034 Y91.046 E8.2502
G1 X216.545 Y91.551 E8.3865
G1 X218.977 Y91.966 E8.51779
G1 X221.493 Y92.325 E8.65304
G1 X223.983 Y92.608 E8.7864
G1 X226.489 Y92.822 E8.92025
G1 X229.006 Y92.964 E9.05441
G1 X231.522 Y93.037 E9.18835
G1 X232.87 Y93.046 E9.26009
G1 X244.023 Y93.046 E9.85361
G1 X244.186 Y93.047 E9.86229
G1 X245.266 Y93.063 E9.91977
G1 X245.575 Y93.072 E9.93622
G1 X245.878 Y93.085 E9.95236
G1 X246.218 Y93.105 E9.97048
G1 X246.691 Y93.14 E9.99572
G1 X247.022 Y93.17 E10.01341
G1 X247.357 Y93.205 E10.03133
G1 X247.64 Y93.238 E10.04649
G1 X248.03 Y93.289 E10.06743
G1 X248.406 Y93.345 E10.08766
G1 X248.665 Y93.388 E10.10163
G1 X248.957 Y93.44 E10.11741
G1 X249.514 Y93.548 E10.1476
G1 X249.849 Y93.619 E10.16583
G1 X250.061 Y93.667 E10.1774
G1 X250.368 Y93.741 E10.1942
G1 X250.808 Y93.854 E10.21838
G1 X251.083 Y93.928 E10.23353
G1 X251.343 Y94.002 E10.24792
G1 X251.708 Y94.113 E10.26822
G1 X252.198 Y94.271 E10.29562
G1 X252.501 Y94.373 E10.31263
G1 X252.78 Y94.472 E10.32838
G1 X253.088 Y94.587 E10.34588
G1 X253.448 Y94.727 E10.36644
G1 X253.754 Y94.851 E10.38401
G1 X254.056 Y94.979 E10.40146
G1 X254.322 Y95.096 E10.41693
G1 X254.748 Y95.29 E10.44184
G1 X255.035 Y95.426 E10.45874
G1 X255.251 Y95.532 E10.47154
G1 X255.565 Y95.692 E10.4903
G1 X256.03 Y95.939 E10.51832
G1 X256.527 Y96.22 E10.5487
G1 X257.164 Y96.602 E10.58823
G1 X257.481 Y96.8 E10.60812
G1 X257.716 Y96.952 E10.62301
G1 X258.023 Y97.157 E10.64265
G1 X258.358 Y97.39 E10.66437
G1 X258.602 Y97.565 E10.68035
G1 X258.83 Y97.733 E10.69542
G1 X259.113 Y97.949 E10.71437
G1 X259.528 Y98.276 E10.74248
G1 X259.774 Y98.476 E10.75935
G1 X259.975 Y98.644 E10.7733
G1 X260.229 Y98.862 E10.79111
G1 X260.571 Y99.166 E10.81546
G1 X260.772 Y99.349 E10.82992
G1 X260.954 Y99.519 E10.84318
G1 X261.212 Y99.768 E10.86226
G1 X261.555 Y100.11 E10.88803
G1 X261.785 Y100.347 E10.90561
G1 X261.972 Y100.545 E10.9201
G1 X262.199 Y100.793 E10.93799
G1 X262.533 Y101.169 E10.96476
G1 X262.726 Y101.393 E10.98049
G1 X262.885 Y101.582 E10.99364
G1 X263.107 Y101.854 E11.01232
G1 X263.401 Y102.227 E11.0376
G1 X263.593 Y102.478 E11.05441
G1 X263.743 Y102.68 E11.0678
G1 X263.945 Y102.96 E11.08617
G1 X264.239 Y103.383 E11.11359
G1 X264.399 Y103.62 E11.12881
G1 X264.537 Y103.83 E11.14218
G1 X264.735 Y104.142 E11.16184
G1 X264.99 Y104.56 E11.1879
G1 X265.155 Y104.84 E11.2052
G1 X265.293 Y105.082 E11.22002
G1 X265.436 Y105.342 E11.23581
G1 X265.635 Y105.714 E11.25826
G1 X265.79 Y106.015 E11.27628
G1 X265.915 Y106.267 E11.29125
G1 X266.056 Y106.561 E11.3086
G1 X266.278 Y107.044 E11.33689
G1 X266.417 Y107.36 E11.35526
G1 X266.501 Y107.559 E11.36676
G1 X266.613 Y107.835 E11.38261
G1 X266.795 Y108.301 E11.40923
G1 X266.914 Y108.619 E11.4273
G1 X267.005 Y108.875 E11.44176
G1 X267.11 Y109.185 E11.45917
G1 X267.256 Y109.638 E11.4845
G1 X267.349 Y109.944 E11.50152
G1 X267.419 Y110.185 E11.51488
G1 X267.505 Y110.497 E11.5321
G1 X267.63 Y110.98 E11.55865
G1 X267.693 Y111.235 E11.57263
G1 X267.746 Y111.462 E11.58503
G1 X267.831 Y111.86 E11.60669
G1 X267.936 Y112.399 E11.63591
G1 X268.031 Y112.961 E11.66625
G1 X268.134 Y113.689 E11.70537
G1 X268.179 Y114.051 E11.72478
G1 X268.208 Y114.32 E11.73918
G1 X268.24 Y114.677 E11.75826
G1 X268.272 Y115.104 E11.78104
G1 X268.292 Y115.429 E11.79837
G1 X268.303 Y115.672 E11.81132
G1 X268.313 Y116.004 E11.82899
G1 X268.321 Y116.538 E11.85741
G1 X268.321 Y116.843 E11.87364
G1 X268.318 Y117.078 E11.88615
G1 X268.309 Y117.409 E11.90377
G1 X268.287 Y117.922 E11.9311
G1 X268.265 Y118.289 E11.95066
G1 X268.243 Y118.577 E11.96603
G1 X268.218 Y118.86 E11.98115
G1 X268.176 Y119.27 E12.00309
G1 X268.14 Y119.577 E12.01953
G1 X268.107 Y119.829 E12.03306
G1 X268.055 Y120.18 E12.05194
G1 X267.967 Y120.717 E12.0809
G1 X267.913 Y121.019 E12.09723
G1 X267.871 Y121.237 E12.10904
G1 X267.797 Y121.591 E12.12829
G1 X267.681 Y122.102 E12.15617
G1 X267.607 Y122.409 E12.17298
G1 X267.546 Y122.646 E12.186
G1 X267.464 Y122.947 E12.2026
G1 X267.331 Y123.409 E12.22819
G1 X267.231 Y123.737 E12.24644
G1 X267.146 Y124.001 E12.26119
G1 X267.047 Y124.292 E12.27755
G1 X266.898 Y124.714 E12.30137
G1 X266.791 Y125.006 E12.31792
G1 X266.687 Y125.276 E12.33332
G1 X266.554 Y125.605 E12.3522
G1 X266.368 Y126.045 E12.37762
G1 X266.23 Y126.358 E12.39583
G1 X266.144 Y126.545 E12.40678
G1 X266.022 Y126.801 E12.42187
G1 X265.762 Y127.33 E12.45324
G1 X265.599 Y127.649 E12.4723
G1 X265.493 Y127.848 E12.4843
G1 X265.349 Y128.11 E12.50021
G1 X265.115 Y128.522 E12.52542
G1 X264.929 Y128.837 E12.54489
G1 X264.815 Y129.023 E12.5565
G1 X264.659 Y129.269 E12.572
G1 X264.362 Y129.726 E12.60101
G1 X264.146 Y130.047 E12.6216
G1 X264.017 Y130.231 E12.63356
G1 X263.87 Y130.435 E12.64694
G1 X263.558 Y130.859 E12.67495
G1 X263.36 Y131.121 E12.69243
G1 X263.205 Y131.319 E12.70581
G1 X262.971 Y131.606 E12.72551
G1 X262.68 Y131.953 E12.74961
G1 X262.471 Y132.196 E12.76667
G1 X262.294 Y132.395 E12.78084
G1 X262.091 Y132.617 E12.79685
G1 X261.764 Y132.965 E12.82226
G1 X261.509 Y133.227 E12.84172
G1 X261.282 Y133.453 E12.85877
G1 X261.093 Y133.637 E12.8728
G1 X260.779 Y133.935 E12.89584
G1 X260.498 Y134.193 E12.91614
G1 X260.263 Y134.401 E12.93284
G1 X260.046 Y134.588 E12.94809
G1 X259.334 Y135.186 E12.99757
G1 X257.378 Y136.875 E13.1351
G1 X255.515 Y138.579 E13.26945
G1 X253.726 Y140.31 E13.40193
G1 X251.924 Y142.153 E13.5391
G1 X250.247 Y143.973 E13.6708
G1 X248.601 Y145.863 E13.80417
G1 X247 Y147.806 E13.93815
G1 X245.445 Y149.808 E14.07305
G1 X243.965 Y151.829 E14.20636
G1 X242.522 Y153.922 E14.34164
G1 X241.162 Y156.019 E14.47465
G1 X239.844 Y158.18 E14.60935
G1 X238.61 Y160.34 E14.74174
G1 X237.417 Y162.573 E14.87646
G1 X236.293 Y164.829 E15.01059
G1 X235.238 Y167.105 E15.14409
G1 X234.239 Y169.431 E15.27881
G1 X233.307 Y171.777 E15.41315
G1 X232.452 Y174.13 E15.54637
G1 X231.654 Y176.532 E15.68107
G1 X230.931 Y178.93 E15.81435
G1 X230.211 Y181.6 E15.96152
G1 X226.883 Y194.736 E16.68265
G1 X226.844 Y194.885 E16.69085
G1 X226.658 Y195.578 E16.72903
G1 X226.376 Y196.473 E16.77897
G1 X226.02 Y197.34 E16.82885
G1 X225.59 Y198.174 E16.87878
G1 X225.092 Y198.969 E16.9287
G1 X224.527 Y199.717 E16.97859
G1 X223.901 Y200.416 E17.02852
G1 X223.217 Y201.058 E17.07844
G1 X222.482 Y201.639 E17.1283
G1 X221.534 Y202.253 E17.18841
G1 X220.493 Y202.854 E17.25238
G1 X220.287 Y202.97 E17.26496
G1 X220.236 Y202.998 E17.26805
G1 X218.014 Y204.297 E17.40502
G1 X215.92 Y205.604 E17.53638
G1 X213.794 Y207.014 E17.67214
G1 X211.742 Y208.46 E17.80573
G1 X209.731 Y209.966 E17.93943
G1 X207.75 Y211.538 E18.07401
G1 X205.831 Y213.151 E18.20742
G1 X203.953 Y214.823 E18.34123
G1 X202.119 Y216.55 E18.47529
G1 X200.345 Y218.32 E18.60864
G1 X198.609 Y220.151 E18.74292
G1 X196.909 Y222.05 E18.87855
G1 X195.301 Y223.951 E19.01105
G1 X193.737 Y225.909 E19.14441
G1 X192.215 Y227.931 E19.27909
G1 X190.739 Y230.01 E19.41478
G1 X189.612 Y231.688 E19.52234
G1 X189.347 Y232.093 E19.5481
G1 X188.8 Y232.855 E19.59802
G1 X188.191 Y233.568 E19.64792
G1 X187.523 Y234.226 E19.69782
G1 X186.801 Y234.825 E19.74774
G1 X186.031 Y235.361 E19.79767
G1 X185.218 Y235.829 E19.84759
G1 X184.369 Y236.226 E19.89746
G1 X183.488 Y236.549 E19.9474
G1 X182.583 Y236.796 E19.99732
G1 X181.661 Y236.965 E20.0472
G1 X181.115 Y237.027 E20.07645
G1 X180.777 Y237.057 E20.0945
G1 X179.804 Y237.1 E20.14633
G1 X149.131 Y237.1 E21.77863
G1 X148.973 Y237.099 E21.78704
G1 X148.275 Y237.089 E21.82419
G1 X147.339 Y237.035 E21.87408
G1 X146.411 Y236.903 E21.92397
G1 X145.497 Y236.691 E21.9739
G1 X144.605 Y236.402 E22.0238
G1 X143.74 Y236.039 E22.07372
G1 X142.91 Y235.603 E22.12361
G1 X141.959 Y234.983 E22.18402
G1 X141.573 Y234.702 E22.20943
G1 X141.384 Y234.561 E22.22198
G1 X140.041 Y233.539 E22.31179
G1 X138.021 Y232.089 E22.44411
G1 X135.905 Y230.66 E22.57999
G1 X133.807 Y229.327 E22.71227
G1 X131.624 Y228.027 E22.84748
G1 X129.401 Y226.785 E22.98299
G1 X127.225 Y225.65 E23.1136
G1 X124.925 Y224.531 E23.24971
G1 X122.628 Y223.493 E23.38385
G1 X120.322 Y222.529 E23.51686
G1 X117.945 Y221.612 E23.65244
G1 X115.6 Y220.785 E23.78476
G1 X113.198 Y220.013 E23.91903
G1 X110.783 Y219.31 E24.05288
G1 X108.352 Y218.678 E24.18655
G1 X105.898 Y218.112 E24.32057
G1 X103.387 Y217.607 E24.45687
G1 X100.955 Y217.192 E24.58816
G1 X98.46 Y216.836 E24.72228
G1 X95.932 Y216.549 E24.85768
G1 X93.448 Y216.338 E24.99034
G1 X90.949 Y216.195 E25.12355
G1 X88.37 Y216.122 E25.26085
G1 X87.068 Y216.113 E25.33014
G1 X59.798 Y216.113 E26.78134
G1 X59.646 Y216.112 E26.78943
G1 X59.211 Y216.106 E26.81258
G1 X58.836 Y216.094 E26.83255
G1 X58.148 Y216.061 E26.86921
G1 X57.214 Y215.977 E26.91911
G1 X56.551 Y215.867 E26.95487
G1 X56.175 Y215.793 E26.97527
G1 X55.263 Y215.573 E27.02519
G1 X54.771 Y215.419 E27.05263
G1 X54.393 Y215.291 E27.07387
G1 X53.518 Y214.952 E27.1238
G1 X53.09 Y214.754 E27.1489
G1 X52.732 Y214.579 E27.1701
G1 X51.908 Y214.132 E27.21999
G1 X51.474 Y213.858 E27.2473
G1 X51.131 Y213.63 E27.26922
G1 X50.372 Y213.078 E27.31917
G1 X49.963 Y212.736 E27.34754
G1 X49.66 Y212.47 E27.36899
G1 X48.739 Y211.559 E27.43793
G1 X48.56 Y211.36 E27.45218
G1 X47.741 Y210.333 E27.52208
G1 X47.423 Y209.881 E27.55149
G1 X46.917 Y209.092 E27.60137
G1 X46.531 Y208.368 E27.64503
G1 X46.362 Y208.021 E27.66557
G1 X45.832 Y206.733 E27.73969
G1 X45.705 Y206.358 E27.76076
G1 X45.443 Y205.458 E27.81064
G1 X45.337 Y204.982 E27.83659
G1 X45.259 Y204.591 E27.85781
G1 X45.114 Y203.664 E27.90774
G1 X45.049 Y202.686 E27.9599
G1 X45.012 Y201.04 E28.04752
G1 X45.009 Y200.793 E28.06067
G1 X45.009 Y152.045 E30.65485
G1 X45.01 Y151.887 E30.66326
G1 X45.02 Y151.189 E30.70041
G1 X45.074 Y150.253 E30.7503
G1 X45.206 Y149.325 E30.80018
G1 X45.418 Y148.411 E30.85011
G1 X45.707 Y147.519 E30.90001
G1 X46.07 Y146.654 E30.94993
G1 X46.506 Y145.824 E30.99982
G1 X47.011 Y145.033 E31.04977
G1 X47.582 Y144.289 E31.09967
G1 X48.347 Y143.464 E31.15955
G1 X48.721 Y143.1 E31.18732
G1 X48.888 Y142.941 E31.19959
G1 X50.092 Y141.817 E31.28725
G1 X51.894 Y140.038 E31.422
G1 X53.611 Y138.244 E31.55415
G1 X55.32 Y136.354 E31.68975
G1 X56.968 Y134.426 E31.82472
G1 X58.514 Y132.506 E31.9559
G1 X60.045 Y130.492 E32.09053
G1 X61.522 Y128.433 E32.22538
G1 X62.936 Y126.339 E32.35984
G1 X64.277 Y124.224 E32.49311
G1 X65.56 Y122.068 E32.62663
G1 X66.782 Y119.88 E32.75999
G1 X67.959 Y117.621 E32.89555
G1 X69.059 Y115.356 E33.02954
G1 X69.878 Y113.556 E33.13478
G1 X69.948 Y113.404 E33.14369
G1 X70.276 Y112.711 E33.18449
G1 X70.395 Y112.468 E33.19889
G1 X70.529 Y112.202 E33.21474
G1 X70.671 Y111.93 E33.23107
G1 X70.966 Y111.383 E33.26414
G1 X71.103 Y111.136 E33.27917
G1 X71.335 Y110.731 E33.30401
G1 X71.499 Y110.455 E33.32109
G1 X71.788 Y109.983 E33.35055
G1 X71.921 Y109.77 E33.36391
G1 X72.14 Y109.43 E33.38543
G1 X72.316 Y109.166 E33.40232
G1 X72.674 Y108.644 E33.436
G1 X72.843 Y108.404 E33.45162
G1 X73.052 Y108.116 E33.47056
G1 X73.23 Y107.879 E33.48633
G1 X73.653 Y107.328 E33.5233
G1 X73.863 Y107.062 E33.54133
G1 X74.065 Y106.815 E33.55831
G1 X74.214 Y106.637 E33.57067
G1 X74.628 Y106.152 E33.6046
G1 X74.825 Y105.927 E33.62051
G1 X75.11 Y105.611 E33.64316
G1 X75.32 Y105.385 E33.65958
G1 X75.715 Y104.971 E33.69003
G1 X75.91 Y104.772 E33.70485
G1 X76.193 Y104.49 E33.72612
G1 X76.408 Y104.281 E33.74207
G1 X76.904 Y103.813 E33.77836
G1 X77.143 Y103.595 E33.79558
G1 X77.36 Y103.402 E33.81103
G1 X77.545 Y103.24 E33.82412
G1 X78.012 Y102.843 E33.85674
G1 X78.232 Y102.661 E33.87193
G1 X78.609 Y102.357 E33.8977
G1 X78.88 Y102.145 E33.91601
G0 F6000 X79.122 Y102.464
G1 F1200 X79.622 Y102.086 E33.94937
G1 X79.824 Y101.937 E33.96273
G1 X80.077 Y101.755 E33.97931
G1 X80.314 Y101.59 E33.99468
G1 X80.862 Y101.218 E34.02993
G1 X81.084 Y101.071 E34.0441
G1 X81.389 Y100.875 E34.06339
G1 X81.651 Y100.712 E34.07981
G1 X82.184 Y100.391 E34.11292
G1 X82.417 Y100.254 E34.12731
G1 X82.755 Y100.062 E34.14799
G1 X83.011 Y99.922 E34.16352
G1 X83.616 Y99.6 E34.19999
G1 X83.87 Y99.469 E34.2152
G1 X84.133 Y99.338 E34.23084
G1 X84.349 Y99.233 E34.24362
G1 X84.951 Y98.95 E34.27902
G1 X85.268 Y98.807 E34.29752
G1 X85.614 Y98.658 E34.31757
G1 X85.841 Y98.564 E34.33065
G1 X86.483 Y98.305 E34.36749
