;FLAVOR:Marlin
;TIME:28125
;Filament used: 29.2427m
;Layer height: 0.32
;MINX:59.985
;MINY:57.12
;MINZ:0.32
;MAXX:240.015
;MAXY:247.355
;MAXZ:85.64
;Generated with Cura_SteamEngine 4.3.0
M140 S60
M105
M190 S60
M104 S205
M105
M109 S205
M82 ;absolute extrusion mode
M201 X500.00 Y500.00 Z100.00 E5000.00 ;Setup machine max acceleration
M203 X500.00 Y500.00 Z10.00 E50.00 ;Setup machine max feedrate
M204 P500.00 R1000.00 T500.00 ;Setup Print/Retract/Travel acceleration
M205 X8.00 Y8.00 Z0.40 E5.00 ;Setup Jerk
M220 S100 ;Reset Feedrate
M221 S100 ;Reset Flowrate

G28 ;Home

G92 E0 ;Reset Extruder
G1 Z2.0 F3000 ;Move Z Axis up
G1 X10.1 Y20 Z0.28 F5000.0 ;Move to start position
G1 X10.1 Y200.0 Z0.28 F1500.0 E15 ;Draw the first line
G1 X10.4 Y200.0 Z0.28 F5000.0 ;Move to side a little
G1 X10.4 Y20 Z0.28 F1500.0 E30 ;Draw the second line
G92 E0 ;Reset Extruder
G1 Z2.0 F3000 ;Move Z Axis up

G92 E0
G92 E0
G1 F1500 E-6.5
;LAYER_COUNT:267
;LAYER:0
M107
G1 F300 Z0.52
G0 F6000 X79.243 Y86.336 Z0.52
;TYPE:SKIRT
G1 F300 Z0.32
G1 F1500 E0
G1 F1200 X79.984 Y85.761 E0.04991
G1 X80.422 Y85.464 E0.07807
G1 X81.091 Y85.035 E0.12037
G1 X83.21 Y83.644 E0.25526
G1 X85.311 Y82.178 E0.39159
G1 X87.312 Y80.697 E0.52407
G1 X89.285 Y79.147 E0.65759
G1 X91.229 Y77.529 E0.79219
G1 X93.161 Y75.826 E0.92924
G1 X94.221 Y74.85 E1.00592
G1 X95.131 Y73.998 E1.07226
G1 X95.842 Y73.387 E1.12215
G1 X96.603 Y72.838 E1.17209
G1 X97.408 Y72.357 E1.22199
G1 X98.251 Y71.945 E1.27192
G1 X99.125 Y71.607 E1.32179
G1 X100.026 Y71.345 E1.37173
G1 X100.945 Y71.16 E1.42161
G1 X101.877 Y71.054 E1.47153
G1 X102.483 Y71.028 E1.50381
G1 X103.274 Y71.016 E1.54591
G1 X103.441 Y71.015 E1.55479
G1 X106.126 Y71.015 E1.69768
G1 X106.284 Y71.016 E1.70609
G1 X106.982 Y71.026 E1.74324
G1 X107.897 Y71.077 E1.792
G1 X109.03 Y71.188 E1.85259
G1 X109.193 Y71.206 E1.86131
G1 X109.628 Y71.255 E1.88461
G1 X112.157 Y71.47 E2.01968
G1 X114.676 Y71.611 E2.15394
G1 X117.197 Y71.682 E2.28815
G1 X119.721 Y71.68 E2.42247
G1 X122.21 Y71.609 E2.55498
G1 X124.743 Y71.464 E2.69
G1 X127.265 Y71.25 E2.82469
G1 X128.896 Y71.073 E2.912
G1 X128.974 Y71.065 E2.91617
G1 X131.378 Y70.822 E3.04475
G1 X133.861 Y70.501 E3.17799
G1 X136.375 Y70.103 E3.31344
G1 X138.864 Y69.636 E3.44821
G1 X141.258 Y69.116 E3.57858
G1 X143.736 Y68.506 E3.71438
G1 X146.174 Y67.831 E3.849
G1 X148.6 Y67.085 E3.98407
G1 X150.932 Y66.295 E4.1151
G1 X153.341 Y65.402 E4.25182
G1 X155.649 Y64.471 E4.38426
G1 X157.942 Y63.47 E4.51741
G1 X160.25 Y62.384 E4.65315
G1 X162.505 Y61.244 E4.78761
G1 X164.701 Y60.055 E4.92051
G1 X167.177 Y58.618 E5.07285
G1 X168.007 Y58.182 E5.12275
G1 X168.872 Y57.818 E5.17269
G1 X169.764 Y57.53 E5.22257
G1 X170.678 Y57.318 E5.2725
G1 X171.606 Y57.185 E5.32239
G1 X172.223 Y57.141 E5.35531
G1 X172.431 Y57.132 E5.36639
G1 X172.815 Y57.122 E5.38683
G1 X173.053 Y57.12 E5.39949
G1 X178.017 Y57.12 E5.66366
G1 X178.173 Y57.121 E5.67196
G1 X178.879 Y57.131 E5.70954
G1 X179.207 Y57.141 E5.727
G1 X179.434 Y57.151 E5.73909
G1 X179.574 Y57.158 E5.74655
G1 X181.698 Y57.279 E5.85976
G1 X184.253 Y57.351 E5.99579
G1 X186.747 Y57.352 E6.12851
G1 X189.302 Y57.281 E6.26453
G1 X191.688 Y57.149 E6.3917
G1 X192.111 Y57.134 E6.41422
G1 X192.836 Y57.122 E6.45281
G1 X193.018 Y57.12 E6.46249
G1 X202.958 Y57.12 E6.99146
G1 X203.114 Y57.121 E6.99976
G1 X203.82 Y57.131 E7.03734
G1 X204.27 Y57.147 E7.0613
G1 X206.671 Y57.279 E7.18927
G1 X209.17 Y57.351 E7.32231
G1 X211.694 Y57.351 E7.45663
G1 X214.251 Y57.28 E7.59275
G1 X216.02 Y57.187 E7.68702
G1 X216.625 Y57.149 E7.71928
G1 X217.097 Y57.13 E7.74442
G1 X217.507 Y57.122 E7.76624
G1 X217.722 Y57.12 E7.77768
G1 X222.594 Y57.12 E8.03695
G1 X222.752 Y57.121 E8.04536
G1 X223.45 Y57.131 E8.08251
G1 X224.386 Y57.185 E8.1324
G1 X225.314 Y57.317 E8.18229
G1 X226.228 Y57.529 E8.23222
G1 X227.12 Y57.818 E8.28212
G1 X227.985 Y58.181 E8.33204
G1 X228.815 Y58.617 E8.38193
G1 X229.606 Y59.122 E8.43187
G1 X230.17 Y59.546 E8.46942
G1 X230.331 Y59.675 E8.4804
G1 X231.037 Y60.292 E8.53029
G1 X231.689 Y60.967 E8.58024
G1 X232.28 Y61.695 E8.63014
G1 X232.807 Y62.471 E8.68006
G1 X233.266 Y63.288 E8.72992
G1 X233.654 Y64.142 E8.77984
G1 X233.967 Y65.026 E8.82975
G1 X234.204 Y65.934 E8.87969
G1 X234.389 Y67.072 E8.94104
G1 X234.695 Y69.891 E9.09194
G1 X235.042 Y72.402 E9.22683
G1 X235.452 Y74.852 E9.35903
G1 X235.942 Y77.351 E9.49455
G1 X236.498 Y79.81 E9.62871
G1 X237.108 Y82.198 E9.75987
G1 X237.817 Y84.674 E9.89693
G1 X238.576 Y87.07 E10.03068
G1 X239.117 Y88.645 E10.1193
G1 X239.36 Y89.331 E10.15803
G1 X239.635 Y90.228 E10.20796
G1 X239.833 Y91.144 E10.25783
G1 X239.966 Y92.268 E10.31806
G1 X239.99 Y92.626 E10.33716
G1 X240.015 Y93.362 E10.37635
G1 X240.015 Y95.313 E10.48017
G1 X240.014 Y95.471 E10.48858
G1 X240.004 Y96.167 E10.52562
G1 X239.95 Y97.103 E10.57552
G1 X239.817 Y98.032 E10.62546
G1 X239.606 Y98.945 E10.67532
G1 X239.317 Y99.838 E10.72527
G1 X238.954 Y100.702 E10.77515
G1 X238.518 Y101.533 E10.82509
G1 X238.012 Y102.323 E10.87501
G1 X237.559 Y102.925 E10.9151
G1 X237.293 Y103.254 E10.93762
G1 X237.098 Y103.489 E10.95387
G1 X235.953 Y104.827 E11.04758
G1 X234.358 Y106.804 E11.18276
G1 X232.844 Y108.792 E11.31574
G1 X231.386 Y110.824 E11.44884
G1 X229.964 Y112.928 E11.58398
G1 X228.634 Y115.022 E11.71599
G1 X227.327 Y117.214 E11.8518
G1 X226.104 Y119.404 E11.98529
G1 X224.937 Y121.64 E12.11951
G1 X223.826 Y123.924 E12.25467
G1 X222.811 Y126.17 E12.38583
G1 X221.81 Y128.561 E12.52377
G1 X220.923 Y130.866 E12.65521
G1 X220.088 Y133.225 E12.78838
G1 X219.311 Y135.642 E12.92348
G1 X218.616 Y138.032 E13.05594
G1 X217.974 Y140.497 E13.19149
G1 X217.402 Y142.972 E13.32667
G1 X216.917 Y145.399 E13.45838
G1 X216.489 Y147.885 E13.59262
G1 X216.132 Y150.396 E13.72759
G1 X215.849 Y152.879 E13.86059
G1 X215.636 Y155.383 E13.99432
G1 X215.491 Y157.916 E14.12934
G1 X215.419 Y160.422 E14.26275
G1 X215.41 Y161.779 E14.33497
G1 X215.411 Y185.332 E15.58837
G1 X215.448 Y187.942 E15.72728
G1 X215.555 Y190.462 E15.8615
G1 X215.731 Y192.945 E15.99397
G1 X215.982 Y195.465 E16.12874
G1 X216.303 Y197.974 E16.26335
G1 X216.687 Y200.425 E16.39537
G1 X217.154 Y202.936 E16.53129
G1 X217.683 Y205.389 E16.66483
G1 X218.273 Y207.797 E16.79676
G1 X218.952 Y210.264 E16.93293
G1 X219.684 Y212.656 E17.06605
G1 X220.547 Y215.211 E17.20956
G1 X220.95 Y216.348 E17.27376
G1 X221.226 Y217.244 E17.32365
G1 X221.423 Y218.161 E17.37357
G1 X221.568 Y219.462 E17.44323
G1 X221.586 Y219.815 E17.46204
G1 X221.6 Y220.375 E17.49185
G1 X221.6 Y235.619 E18.30308
G1 X221.599 Y235.755 E18.31031
G1 X221.59 Y236.482 E18.349
G1 X221.539 Y237.419 E18.39894
G1 X221.407 Y238.347 E18.44882
G1 X221.198 Y239.261 E18.49872
G1 X220.911 Y240.154 E18.54864
G1 X220.549 Y241.02 E18.59858
G1 X220.115 Y241.851 E18.64848
G1 X219.611 Y242.642 E18.69839
G1 X219.042 Y243.387 E18.74827
G1 X218.411 Y244.082 E18.79823
G1 X217.724 Y244.72 E18.84812
G1 X216.985 Y245.297 E18.89802
G1 X216.199 Y245.809 E18.94794
G1 X215.373 Y246.252 E18.99782
G1 X214.511 Y246.624 E19.04778
G1 X213.622 Y246.92 E19.09764
G1 X212.71 Y247.14 E19.14757
G1 X211.783 Y247.281 E19.19746
G1 X210.899 Y247.342 E19.24462
G1 X210.578 Y247.351 E19.26171
G1 X210.27 Y247.355 E19.2781
G1 X207.714 Y247.355 E19.41412
G1 X207.556 Y247.354 E19.42253
G1 X206.859 Y247.344 E19.45963
G1 X206.245 Y247.318 E19.49233
G1 X205.477 Y247.264 E19.5333
G1 X205.309 Y247.251 E19.54227
G1 X204.198 Y247.156 E19.60161
G1 X201.705 Y247.015 E19.73449
G1 X199.206 Y246.943 E19.86753
G1 X196.682 Y246.941 E20.00185
G1 X194.161 Y247.012 E20.13606
G1 X191.578 Y247.157 E20.27373
G1 X190.149 Y247.269 E20.35001
G1 X189.637 Y247.297 E20.3773
G1 X188.406 Y247.336 E20.44284
G1 X188.113 Y247.342 E20.45844
G1 X186.131 Y247.352 E20.56391
G1 X185.975 Y247.352 E20.57221
G1 X185.321 Y247.346 E20.60702
G1 X184.384 Y247.297 E20.65695
G1 X183.455 Y247.169 E20.70686
G1 X182.322 Y246.9 E20.76883
G1 X181.539 Y246.67 E20.81225
G1 X181.316 Y246.602 E20.82466
G1 X180.331 Y246.29 E20.87965
G1 X177.899 Y245.595 E21.01425
G1 X175.477 Y244.977 E21.14727
G1 X173.012 Y244.421 E21.28174
G1 X170.527 Y243.935 E21.41649
G1 X168.095 Y243.53 E21.54769
G1 X165.554 Y243.181 E21.68418
G1 X163.084 Y242.911 E21.81641
G1 X160.532 Y242.705 E21.95266
G1 X158.082 Y242.579 E22.08321
G1 X154.576 Y242.512 E22.26982
G1 X111.407 Y242.512 E24.56711
G1 X111.25 Y242.511 E24.57547
G1 X110.549 Y242.501 E24.61278
G1 X109.613 Y242.448 E24.66267
G1 X108.684 Y242.315 E24.71261
G1 X107.771 Y242.103 E24.76249
G1 X106.878 Y241.815 E24.81242
G1 X106.014 Y241.451 E24.86231
G1 X104.962 Y240.883 E24.92594
G1 X104.245 Y240.444 E24.97068
G1 X101.924 Y239.06 E25.11448
G1 X99.761 Y237.854 E25.24627
G1 X97.523 Y236.687 E25.38059
G1 X95.262 Y235.588 E25.51437
G1 X92.961 Y234.548 E25.64875
G1 X90.636 Y233.577 E25.78283
G1 X88.277 Y232.666 E25.91741
G1 X85.915 Y231.836 E26.05064
G1 X83.524 Y231.067 E26.1843
G1 X81.101 Y230.362 E26.31859
G1 X78.67 Y229.73 E26.45226
G1 X76.206 Y229.163 E26.58681
G1 X73.728 Y228.665 E26.72131
G1 X71.278 Y228.247 E26.85358
G1 X70.396 Y228.122 E26.90098
G1 X70.258 Y228.101 E26.90841
G1 X69.341 Y227.959 E26.95779
G1 X68.719 Y227.845 E26.99144
G1 X68.691 Y227.839 E26.99297
G1 X67.783 Y227.603 E27.04289
G1 X66.899 Y227.291 E27.09278
G1 X66.044 Y226.905 E27.1427
G1 X65.225 Y226.448 E27.19261
G1 X64.449 Y225.922 E27.2425
G1 X63.72 Y225.332 E27.29241
G1 X63.043 Y224.683 E27.34232
G1 X62.425 Y223.978 E27.39221
G1 X61.869 Y223.222 E27.44215
G1 X61.379 Y222.423 E27.49203
G1 X60.959 Y221.584 E27.54196
G1 X60.612 Y220.713 E27.59185
G1 X60.341 Y219.815 E27.64177
G1 X60.147 Y218.897 E27.6917
G1 X60.032 Y217.966 E27.74162
G1 X60.002 Y217.451 E27.76908
G1 X59.992 Y217.152 E27.785
G1 X59.986 Y216.784 E27.80458
G1 X59.985 Y170.374 E30.27435
G1 X59.986 Y170.216 E30.28276
G1 X59.996 Y169.518 E30.3199
G1 X60.05 Y168.582 E30.3698
G1 X60.182 Y167.654 E30.41968
G1 X60.394 Y166.74 E30.46961
G1 X60.683 Y165.848 E30.51951
G1 X61.046 Y164.983 E30.56943
G1 X61.609 Y163.94 E30.6325
G1 X62.113 Y163.115 E30.68395
G1 X63.434 Y160.897 E30.82133
G1 X64.677 Y158.67 E30.95706
G1 X65.835 Y156.45 E31.0903
G1 X66.937 Y154.182 E31.22449
G1 X67.964 Y151.909 E31.35722
G1 X68.952 Y149.548 E31.49343
G1 X69.854 Y147.2 E31.62728
G1 X70.682 Y144.855 E31.75962
G1 X71.457 Y142.445 E31.89434
G1 X72.154 Y140.047 E32.02724
G1 X72.792 Y137.592 E32.16222
G1 X73.363 Y135.117 E32.29739
G1 X73.848 Y132.689 E32.42915
G1 X74.279 Y130.173 E32.56499
G1 X74.628 Y127.722 E32.69674
G1 X74.915 Y125.186 E32.83256
G1 X75.126 Y122.716 E32.96448
G1 X75.266 Y120.222 E33.09741
G1 X75.35 Y116.273 E33.30761
G1 X75.35 Y95.422 E34.41722
G1 X75.351 Y95.264 E34.42563
G1 X75.361 Y94.566 E34.46278
G1 X75.415 Y93.63 E34.51267
G1 X75.547 Y92.702 E34.56256
G1 X75.759 Y91.788 E34.61249
G1 X76.048 Y90.896 E34.66238
G1 X76.411 Y90.031 E34.71231
G1 X76.847 Y89.201 E34.7622
G1 X77.352 Y88.41 E34.81214
G1 X77.923 Y87.666 E34.86205
G1 X78.555 Y86.973 E34.91196
G1 X79.243 Y86.336 E34.96186
G0 F6000 X79.632 Y86.533
G1 F1200 X80.638 Y85.801 E35.02806
G1 X81.283 Y85.388 E35.06882
G1 X83.437 Y83.974 E35.20594
G1 X85.532 Y82.511 E35.34192
G1 X87.552 Y81.017 E35.47563
G1 X89.554 Y79.444 E35.61112
G1 X91.483 Y77.838 E35.74469
G1 X93.414 Y76.137 E35.88164
G1 X94.484 Y75.152 E35.95903
G1 X95.404 Y74.29 E36.02612
G1 X96.103 Y73.69 E36.07515
G1 X96.851 Y73.154 E36.12412
G1 X97.643 Y72.684 E36.17313
G1 X98.473 Y72.285 E36.22213
G1 X99.334 Y71.959 E36.27113
G1 X100.22 Y71.709 E36.32012
G1 X101.124 Y71.537 E36.36909
G1 X102.489 Y71.428 E36.44196
G1 X103.28 Y71.416 E36.48406
G1 X103.441 Y71.415 E36.49263
G1 X106.126 Y71.415 E36.63551
G1 X106.278 Y71.416 E36.6436
G1 X106.976 Y71.426 E36.68075
G1 X107.858 Y71.476 E36.72776
G1 X108.991 Y71.587 E36.78835
G1 X109.148 Y71.603 E36.79674
G1 X109.62 Y71.656 E36.82202
G1 X112.135 Y71.87 E36.95634
G1 X114.643 Y72.011 E37.09002
G1 X117.186 Y72.082 E37.2254
G1 X119.697 Y72.08 E37.35903
G1 X122.245 Y72.007 E37.49468
G1 X124.764 Y71.864 E37.62894
G1 X127.341 Y71.644 E37.76658
G1 X128.939 Y71.471 E37.85212
G1 X129.014 Y71.463 E37.85613
G1 X131.433 Y71.218 E37.98552
G1 X133.909 Y70.898 E38.11838
G1 X136.44 Y70.497 E38.25475
G1 X138.917 Y70.033 E38.38886
G1 X141.367 Y69.501 E38.52228
G1 X143.866 Y68.886 E38.65923
G1 X146.284 Y68.216 E38.79276
G1 X148.677 Y67.481 E38.92598
G1 X151.094 Y66.661 E39.0618
G1 X153.493 Y65.772 E39.19795
G1 X155.81 Y64.838 E39.33089
G1 X158.108 Y63.835 E39.46432
G1 X160.422 Y62.746 E39.60042
G1 X162.654 Y61.617 E39.73353
G1 X164.926 Y60.387 E39.87102
G1 X167.378 Y58.964 E40.02189
G1 X168.193 Y58.536 E40.07088
G1 X169.043 Y58.182 E40.11988
G1 X169.92 Y57.902 E40.16887
G1 X170.818 Y57.699 E40.21786
G1 X171.73 Y57.575 E40.26684
G1 X172.241 Y57.541 E40.29409
G1 X172.449 Y57.532 E40.30517
G1 X172.818 Y57.522 E40.32482
G1 X173.056 Y57.52 E40.33748
G1 X178.017 Y57.52 E40.60149
G1 X178.167 Y57.521 E40.60947
G1 X178.873 Y57.531 E40.64705
G1 X179.19 Y57.54 E40.66392
G1 X179.417 Y57.55 E40.67601
G1 X179.552 Y57.557 E40.68321
G1 X181.7 Y57.679 E40.7977
G1 X184.242 Y57.751 E40.93303
G1 X186.758 Y57.752 E41.06692
G1 X189.298 Y57.681 E41.20214
G1 X191.71 Y57.548 E41.3307
G1 X192.118 Y57.533 E41.35242
G1 X192.843 Y57.521 E41.39101
G1 X193.018 Y57.52 E41.40032
G1 X202.958 Y57.52 E41.92929
G1 X203.108 Y57.521 E41.93728
G1 X203.814 Y57.531 E41.97485
G1 X204.248 Y57.546 E41.99796
G1 X206.637 Y57.678 E42.12529
G1 X209.194 Y57.751 E42.26142
G1 X211.705 Y57.751 E42.39504
G1 X214.284 Y57.679 E42.53234
G1 X216.066 Y57.586 E42.6273
G1 X216.65 Y57.549 E42.65844
G1 X217.105 Y57.53 E42.68268
G1 X217.515 Y57.522 E42.7045
G1 X217.722 Y57.52 E42.71552
G1 X222.594 Y57.52 E42.97478
G1 X222.746 Y57.521 E42.98287
G1 X223.444 Y57.531 E43.02002
G1 X224.363 Y57.584 E43.06901
G1 X225.274 Y57.717 E43.118
G1 X226.17 Y57.928 E43.16699
G1 X227.044 Y58.216 E43.21596
G1 X227.891 Y58.579 E43.265
G1 X228.702 Y59.014 E43.31397
G1 X229.472 Y59.518 E43.36295
G1 X229.92 Y59.858 E43.39288
G1 X230.081 Y59.987 E43.40386
G1 X230.774 Y60.593 E43.45285
G1 X231.411 Y61.257 E43.50181
G1 X231.989 Y61.974 E43.55082
G1 X232.502 Y62.739 E43.59984
G1 X232.947 Y63.545 E43.64884
G1 X233.32 Y64.386 E43.69779
G1 X233.619 Y65.257 E43.7468
G1 X233.841 Y66.151 E43.79582
G1 X233.991 Y67.115 E43.84774
G1 X234.299 Y69.956 E43.99981
G1 X234.639 Y72.418 E44.13207
G1 X235.065 Y74.958 E44.26913
G1 X235.547 Y77.419 E44.40258
G1 X236.105 Y79.884 E44.53708
G1 X236.737 Y82.357 E44.67291
G1 X237.424 Y84.758 E44.80581
G1 X238.196 Y87.194 E44.9418
G1 X238.74 Y88.779 E45.03098
G1 X238.983 Y89.465 E45.06971
G1 X239.252 Y90.345 E45.11868
G1 X239.444 Y91.245 E45.16765
G1 X239.567 Y92.295 E45.22391
G1 X239.591 Y92.653 E45.243
G1 X239.615 Y93.362 E45.28076
G1 X239.615 Y95.313 E45.38458
G1 X239.614 Y95.465 E45.39267
G1 X239.604 Y96.161 E45.42971
G1 X239.551 Y97.08 E45.4787
G1 X239.418 Y97.991 E45.52769
G1 X239.207 Y98.888 E45.57673
G1 X238.918 Y99.762 E45.62572
G1 X238.555 Y100.608 E45.67471
G1 X238.12 Y101.419 E45.72368
G1 X237.616 Y102.19 E45.7727
G1 X237.248 Y102.673 E45.80502
G1 X236.982 Y103.002 E45.82753
G1 X236.794 Y103.229 E45.84322
G1 X235.622 Y104.599 E45.93916
G1 X234.061 Y106.533 E46.07142
G1 X232.529 Y108.545 E46.206
G1 X231.045 Y110.613 E46.34145
G1 X229.638 Y112.696 E46.47522
G1 X228.286 Y114.824 E46.60939
G1 X226.977 Y117.02 E46.74544
G1 X225.758 Y119.203 E46.87849
G1 X224.58 Y121.458 E47.01388
G1 X223.48 Y123.72 E47.14774
G1 X222.436 Y126.03 E47.28264
G1 X221.439 Y128.411 E47.42001
G1 X220.548 Y130.726 E47.55201
G1 X219.706 Y133.106 E47.68636
G1 X218.932 Y135.514 E47.82096
G1 X218.228 Y137.934 E47.95508
G1 X217.583 Y140.411 E48.09129
G1 X217.015 Y142.869 E48.22555
G1 X216.523 Y145.331 E48.35916
G1 X216.094 Y147.827 E48.49393
G1 X215.737 Y150.331 E48.62853
G1 X215.452 Y152.833 E48.76254
G1 X215.236 Y155.366 E48.89783
G1 X215.093 Y157.881 E49.03188
G1 X215.019 Y160.454 E49.16886
G1 X215.01 Y161.777 E49.23927
G1 X215.011 Y185.338 E50.4931
G1 X215.048 Y187.965 E50.63291
G1 X215.155 Y190.472 E50.76644
G1 X215.332 Y192.976 E50.90003
G1 X215.585 Y195.519 E51.03603
G1 X215.905 Y198.02 E51.17021
G1 X216.297 Y200.522 E51.30498
G1 X216.756 Y202.988 E51.43846
G1 X217.291 Y205.472 E51.57368
